; generated by PrusaSlicer 2.3.3 on 2021-11-24 at 03:26:55 UTC

; 

; external perimeters extrusion width = 0.65mm
; perimeters extrusion width = 0.65mm
; infill extrusion width = 0.65mm
; solid infill extrusion width = 0.65mm
; top infill extrusion width = 0.60mm
; first layer extrusion width = 0.65mm

M73 P0 R169
M73 Q0 S170
M201 X1000 Y1000 Z200 E5000 ; sets maximum accelerations, mm/sec^2
M203 X200 Y200 Z12 E120 ; sets maximum feedrates, mm/sec
M204 P1250 R1250 T1250 ; sets acceleration (P, T) and retract acceleration (R), mm/sec^2
M205 X8.00 Y8.00 Z0.40 E4.50 ; sets the jerk limits, mm/sec
M205 S0 T0 ; sets the minimum extruding and travel feed rate, mm/sec
M107
;TYPE:Custom
M862.3 P "MK3S" ; printer model check
M862.1 P0.6 ; nozzle diameter check
M115 U3.10.0 ; tell printer latest fw version
G90 ; use absolute coordinates
M83 ; extruder relative mode
M104 S235 ; set extruder temp
M140 S85 ; set bed temp
M190 S85 ; wait for bed temp
M109 S235 ; wait for extruder temp
G28 W ; home all without mesh bed level
G80 ; mesh bed leveling
G1 Y-3.0 F1000.0 ; go outside print area
G92 E0.0
G1 X60.0 E9.0 F1000.0 ; intro line
G1 X100.0 E12.5 F1000.0 ; intro line
G92 E0.0
M221 S95
G21 ; set units to millimeters
G90 ; use absolute coordinates
M83 ; use relative distances for extrusion
M900 K0.04 ; Filament gcode LA 1.5
M900 K24 ; Filament gcode LA 1.0
;LAYER_CHANGE
;Z:0.3
;HEIGHT:0.3
;BEFORE_LAYER_CHANGE
G92 E0.0
;0.3


G1 E-1.20000 F2100.000
G1 Z0.400 F10800.000
;AFTER_LAYER_CHANGE
;0.3
G1 X29.281 Y12.643
G1 Z0.300
G1 E1.20000 F2100.000
M204 S1000
;TYPE:Skirt
;WIDTH:0.65
G1 F1200.000
G1 X29.820 Y11.619 E0.08450
G1 X30.559 Y10.695 E0.08646
G1 X31.499 Y9.901 E0.08985
G1 X32.562 Y9.315 E0.08868
G1 X33.720 Y8.948 E0.08873
G1 X34.929 Y8.815 E0.08881
G1 X215.004 Y8.814 E13.15300
G1 X216.205 Y8.933 E0.08817
G1 X217.355 Y9.280 E0.08776
G1 X218.385 Y9.823 E0.08502
G1 X219.322 Y10.574 E0.08770
G1 X220.088 Y11.482 E0.08675
G1 X220.661 Y12.507 E0.08582
G1 X221.036 Y13.647 E0.08765
G1 X221.184 Y14.848 E0.08835
G1 X221.185 Y195.060 E13.16300
G1 X221.066 Y196.209 E0.08436
G1 X220.719 Y197.357 E0.08761
G1 X220.180 Y198.381 E0.08450
G1 X219.441 Y199.305 E0.08646
G1 X218.501 Y200.099 E0.08985
G1 X217.427 Y200.690 E0.08955
G1 X216.219 Y201.064 E0.09236
G1 X215.000 Y201.186 E0.08950
G1 X34.931 Y201.185 E13.15258
G1 X33.779 Y201.064 E0.08456
G1 X32.637 Y200.717 E0.08718
G1 X31.615 Y200.177 E0.08444
G1 X30.690 Y199.437 E0.08654
G1 X29.876 Y198.465 E0.09253
G1 X29.296 Y197.394 E0.08899
G1 X28.934 Y196.213 E0.09025
G1 X28.814 Y195.004 E0.08867
G1 X28.815 Y14.940 E13.15223
G1 X28.934 Y13.791 E0.08436
G1 X29.255 Y12.729 E0.08104
; printing object level_two_three_x2.stl id:0 copy 0
;WIPE_START
G1 F8640.000
G1 X29.820 Y11.619 E-0.28755
G1 X30.559 Y10.695 E-0.27331
G1 X31.499 Y9.901 E-0.28404
G1 X32.562 Y9.315 E-0.28035
G1 X32.623 Y9.296 E-0.01476
;WIPE_END
G1 E-0.06000 F2100.000
G1 Z0.700 F10800.000
G1 X108.929 Y94.809
G1 Z0.300
G1 E1.20000 F2100.000
;TYPE:Perimeter
G1 F1200.000
G1 X113.951 Y94.809 E0.36676
G1 X113.951 Y104.031 E0.67353
G1 X108.929 Y104.031 E0.36676
G1 X108.929 Y94.899 E0.66696
G1 X109.515 Y95.395 F10800.000
;TYPE:External perimeter
G1 F1200.000
G1 X113.365 Y95.395 E0.28121
G1 X113.365 Y103.445 E0.58799
G1 X109.515 Y103.445 E0.28121
G1 X109.515 Y95.485 E0.58141
G1 X109.426 Y94.802 F10800.000
;WIPE_START
G1 F8640.000
G1 X113.365 Y95.395 E-0.88922
G1 X113.365 Y96.481 E-0.25078
;WIPE_END
G1 E-0.06000 F2100.000
G1 Z0.700 F10800.000
G1 X71.009 Y94.809
G1 Z0.300
G1 E1.20000 F2100.000
;TYPE:Perimeter
G1 F1200.000
G1 X76.031 Y94.809 E0.36676
G1 X76.031 Y104.031 E0.67353
G1 X71.009 Y104.031 E0.36676
G1 X71.009 Y94.899 E0.66696
G1 X71.595 Y95.395 F10800.000
;TYPE:External perimeter
G1 F1200.000
G1 X75.445 Y95.395 E0.28121
G1 X75.445 Y103.445 E0.58799
G1 X71.595 Y103.445 E0.28121
G1 X71.595 Y95.485 E0.58141
G1 X71.506 Y94.802 F10800.000
;WIPE_START
G1 F8640.000
G1 X75.445 Y95.395 E-0.88922
G1 X75.445 Y96.481 E-0.25078
;WIPE_END
G1 E-0.06000 F2100.000
G1 Z0.700 F10800.000
G1 X48.289 Y41.386
G1 Z0.300
G1 E1.20000 F2100.000
;TYPE:Perimeter
G1 F1200.000
G1 X49.661 Y40.818 E0.10841
G1 X102.102 Y93.259 E5.41703
M73 Q0 S169
G1 X101.534 Y94.631 E0.10841
G1 X48.289 Y94.631 E3.88909
G1 X48.289 Y41.476 E3.88252
M73 P0 R168
G1 X48.875 Y41.777 F10800.000
;TYPE:External perimeter
G1 F1200.000
G1 X49.523 Y41.509 E0.05125
G1 X101.411 Y93.397 E5.35987
G1 X101.143 Y94.045 E0.05125
G1 X48.875 Y94.045 E3.81773
G1 X48.875 Y41.867 E3.81116
G1 X48.575 Y41.257 F10800.000
;WIPE_START
G1 F8640.000
G1 X49.523 Y41.509 E-0.17103
G1 X52.491 Y44.476 E-0.96897
;WIPE_END
G1 E-0.06000 F2100.000
G1 Z0.700 F10800.000
G1 X60.950 Y29.792
G1 Z0.300
G1 E1.20000 F2100.000
;TYPE:Perimeter
G1 F1200.000
G1 X60.818 Y29.661 E0.01362
G1 X61.386 Y28.289 E0.10841
G1 X188.614 Y28.289 E9.29298
G1 X189.182 Y29.661 E0.10841
G1 X125.000 Y93.843 E6.62980
G1 X61.013 Y29.856 E6.60960
G1 X61.509 Y29.523 F10800.000
;TYPE:External perimeter
G1 F1200.000
G1 X61.777 Y28.875 E0.05125
G1 X188.223 Y28.875 E9.23581
G1 X188.491 Y29.523 E0.05125
G1 X125.000 Y93.015 E6.55844
G1 X61.572 Y29.587 E6.55187
M73 P1 R168
M73 Q1 S169
G1 X60.929 Y29.368 F10800.000
;WIPE_START
G1 F8640.000
G1 X61.777 Y28.875 E-0.17103
G1 X65.974 Y28.875 E-0.96897
;WIPE_END
G1 E-0.06000 F2100.000
G1 Z0.700 F10800.000
G1 X43.014 Y21.445
G1 Z0.300
G1 E1.20000 F2100.000
;TYPE:Perimeter
G1 F1200.000
G1 X42.758 Y21.938 E0.04054
G1 X42.393 Y22.389 E0.04240
G1 X41.965 Y22.740 E0.04045
G1 X41.477 Y23.001 E0.04036
G1 X40.952 Y23.160 E0.04008
G1 X40.432 Y23.215 E0.03823
G1 X39.884 Y23.167 E0.04013
G1 X39.355 Y23.014 E0.04027
G1 X38.862 Y22.758 E0.04054
G1 X38.411 Y22.393 E0.04240
G1 X38.060 Y21.965 E0.04045
G1 X37.799 Y21.478 E0.04036
G1 X37.640 Y20.953 E0.04004
G1 X37.585 Y20.432 E0.03827
G1 X37.633 Y19.882 E0.04034
G1 X37.798 Y19.325 E0.04241
G1 X38.060 Y18.835 E0.04056
G1 X38.409 Y18.409 E0.04024
G1 X38.835 Y18.060 E0.04024
G1 X39.322 Y17.799 E0.04036
G1 X39.847 Y17.640 E0.04004
G1 X40.368 Y17.585 E0.03827
G1 X40.918 Y17.633 E0.04034
G1 X41.475 Y17.798 E0.04241
G1 X41.965 Y18.060 E0.04056
G1 X42.391 Y18.409 E0.04024
G1 X42.740 Y18.835 E0.04024
G1 X43.001 Y19.323 E0.04036
G1 X43.160 Y19.848 E0.04008
G1 X43.215 Y20.368 E0.03823
G1 X43.167 Y20.916 E0.04013
G1 X43.039 Y21.359 E0.03370
G1 X42.476 Y21.196 F10800.000
;TYPE:External perimeter
G1 F1200.000
G1 X42.266 Y21.615 E0.03430
G1 X41.975 Y21.974 E0.03371
G1 X41.638 Y22.251 E0.03190
G1 X41.252 Y22.457 E0.03193
G1 X40.836 Y22.583 E0.03179
G1 X40.426 Y22.626 E0.03007
G1 X39.992 Y22.589 E0.03183
G1 X39.573 Y22.467 E0.03185
G1 X39.185 Y22.266 E0.03198
G1 X38.826 Y21.975 E0.03371
G1 X38.549 Y21.638 E0.03189
G1 X38.343 Y21.252 E0.03193
G1 X38.217 Y20.836 E0.03175
G1 X38.174 Y20.426 E0.03010
G1 X38.211 Y19.991 E0.03190
G1 X38.342 Y19.549 E0.03372
G1 X38.549 Y19.162 E0.03200
G1 X38.826 Y18.826 E0.03182
G1 X39.162 Y18.549 E0.03182
G1 X39.548 Y18.343 E0.03193
G1 X39.964 Y18.217 E0.03175
G1 X40.374 Y18.174 E0.03010
G1 X40.809 Y18.211 E0.03191
G1 X41.251 Y18.342 E0.03371
G1 X41.638 Y18.549 E0.03201
G1 X41.974 Y18.826 E0.03182
G1 X42.251 Y19.162 E0.03183
G1 X42.457 Y19.548 E0.03193
G1 X42.583 Y19.964 E0.03179
G1 X42.626 Y20.374 E0.03007
G1 X42.589 Y20.808 E0.03183
G1 X42.502 Y21.109 E0.02291
G1 X42.771 Y21.562 F10800.000
;WIPE_START
G1 F8640.000
G1 X42.266 Y21.615 E-0.12893
G1 X41.975 Y21.974 E-0.10656
G1 X41.638 Y22.251 E-0.10083
G1 X41.252 Y22.457 E-0.10095
G1 X40.836 Y22.583 E-0.10050
G1 X40.426 Y22.626 E-0.09505
G1 X39.992 Y22.589 E-0.10062
G1 X39.573 Y22.467 E-0.10069
G1 X39.185 Y22.266 E-0.10109
G1 X38.826 Y21.975 E-0.10657
G1 X38.556 Y21.646 E-0.09823
;WIPE_END
G1 E-0.06000 F2100.000
G1 Z0.700 F10800.000
G1 X40.368 Y186.785
G1 Z0.300
G1 E1.20000 F2100.000
;TYPE:Perimeter
G1 F1200.000
G1 X40.916 Y186.833 E0.04013
G1 X41.445 Y186.986 E0.04027
G1 X41.938 Y187.242 E0.04054
G1 X42.389 Y187.607 E0.04240
G1 X42.740 Y188.035 E0.04045
G1 X43.001 Y188.523 E0.04036
G1 X43.160 Y189.048 E0.04008
G1 X43.215 Y189.568 E0.03823
G1 X43.167 Y190.116 E0.04013
G1 X43.014 Y190.645 E0.04027
G1 X42.758 Y191.138 E0.04054
G1 X42.393 Y191.589 E0.04240
G1 X41.965 Y191.940 E0.04045
G1 X41.478 Y192.201 E0.04036
G1 X40.953 Y192.360 E0.04004
G1 X40.432 Y192.415 E0.03827
G1 X39.882 Y192.367 E0.04034
G1 X39.325 Y192.202 E0.04241
G1 X38.835 Y191.940 E0.04056
G1 X38.409 Y191.591 E0.04024
G1 X38.060 Y191.165 E0.04024
G1 X37.799 Y190.678 E0.04036
G1 X37.640 Y190.153 E0.04004
G1 X37.585 Y189.632 E0.03827
G1 X37.633 Y189.082 E0.04034
G1 X37.798 Y188.525 E0.04241
G1 X38.060 Y188.035 E0.04056
G1 X38.409 Y187.609 E0.04024
G1 X38.835 Y187.260 E0.04024
G1 X39.323 Y186.999 E0.04036
G1 X39.848 Y186.840 E0.04008
G1 X40.279 Y186.795 E0.03165
G1 X40.340 Y187.377 F10800.000
;TYPE:External perimeter
G1 F1200.000
G1 X40.808 Y187.411 E0.03427
G1 X41.227 Y187.533 E0.03185
G1 X41.615 Y187.734 E0.03198
G1 X41.974 Y188.025 E0.03371
G1 X42.251 Y188.362 E0.03190
G1 X42.457 Y188.748 E0.03193
G1 X42.583 Y189.164 E0.03179
G1 X42.626 Y189.574 E0.03007
G1 X42.589 Y190.008 E0.03183
G1 X42.467 Y190.427 E0.03185
G1 X42.266 Y190.815 E0.03198
G1 X41.975 Y191.174 E0.03371
G1 X41.638 Y191.451 E0.03189
G1 X41.252 Y191.657 E0.03193
G1 X40.836 Y191.783 E0.03175
G1 X40.426 Y191.826 E0.03010
G1 X39.991 Y191.789 E0.03190
G1 X39.549 Y191.658 E0.03372
G1 X39.162 Y191.451 E0.03200
G1 X38.826 Y191.174 E0.03182
G1 X38.549 Y190.838 E0.03182
G1 X38.343 Y190.452 E0.03193
G1 X38.217 Y190.036 E0.03175
G1 X38.174 Y189.626 E0.03010
G1 X38.211 Y189.191 E0.03191
G1 X38.342 Y188.749 E0.03371
G1 X38.549 Y188.362 E0.03201
G1 X38.826 Y188.026 E0.03182
G1 X39.162 Y187.749 E0.03183
G1 X39.548 Y187.543 E0.03193
G1 X39.964 Y187.417 E0.03179
G1 X40.250 Y187.387 E0.02101
G1 X40.566 Y186.966 F10800.000
;WIPE_START
G1 F8640.000
G1 X40.808 Y187.411 E-0.12886
G1 X41.227 Y187.533 E-0.10068
G1 X41.615 Y187.734 E-0.10110
G1 X41.974 Y188.025 E-0.10656
G1 X42.251 Y188.362 E-0.10083
G1 X42.457 Y188.748 E-0.10095
G1 X42.583 Y189.164 E-0.10050
G1 X42.626 Y189.574 E-0.09505
G1 X42.589 Y190.008 E-0.10062
G1 X42.467 Y190.427 E-0.10069
G1 X42.266 Y190.815 E-0.10109
G1 X42.257 Y190.826 E-0.00308
;WIPE_END
G1 E-0.06000 F2100.000
G1 Z0.700 F10800.000
G1 X48.289 Y168.614
G1 Z0.300
G1 E1.20000 F2100.000
;TYPE:Perimeter
G1 F1200.000
G1 X48.289 Y146.209 E1.63649
G1 X70.694 Y146.209 E1.63649
G1 X71.262 Y147.581 E0.10841
G1 X49.661 Y169.182 E2.23137
G1 X48.373 Y168.649 E0.10183
G1 X48.875 Y168.223 F10800.000
;TYPE:External perimeter
G1 F1200.000
G1 X48.875 Y146.795 E1.56513
G1 X70.303 Y146.795 E1.56513
G1 X70.571 Y147.443 E0.05125
G1 X49.523 Y168.491 E2.17421
M73 Q1 S168
G1 X48.958 Y168.257 E0.04467
G1 X48.294 Y168.374 F10800.000
;WIPE_START
G1 F8640.000
G1 X48.939 Y163.320 E-1.14000
;WIPE_END
G1 E-0.06000 F2100.000
G1 Z0.700 F10800.000
G1 X71.009 Y146.031
G1 Z0.300
G1 E1.20000 F2100.000
;TYPE:Perimeter
G1 F1200.000
G1 X71.009 Y136.809 E0.67353
G1 X76.031 Y136.809 E0.36676
G1 X76.031 Y146.031 E0.67353
G1 X71.099 Y146.031 E0.36019
G1 X71.595 Y145.445 F10800.000
;TYPE:External perimeter
G1 F1200.000
G1 X71.595 Y137.395 E0.58799
G1 X75.445 Y137.395 E0.28121
G1 X75.445 Y145.445 E0.58799
M73 P1 R167
G1 X71.685 Y145.445 E0.27464
G1 X71.037 Y145.665 F10800.000
;WIPE_START
G1 F8640.000
G1 X71.630 Y140.508 E-1.14000
;WIPE_END
G1 E-0.06000 F2100.000
G1 Z0.700 F10800.000
G1 X94.948 Y146.209
G1 Z0.300
G1 E1.20000 F2100.000
;TYPE:Perimeter
G1 F1200.000
G1 X155.052 Y146.209 E4.39012
G1 X189.182 Y180.339 E3.52551
G1 X188.614 Y181.711 E0.10841
G1 X154.489 Y181.711 E2.49253
G1 X154.489 Y179.311 E0.17530
G1 X95.511 Y179.311 E4.30791
G1 X95.511 Y181.711 E0.17530
G1 X61.386 Y181.711 E2.49253
G1 X60.818 Y180.339 E0.10841
G1 X94.884 Y146.273 E3.51894
G1 X95.190 Y146.795 F10800.000
;TYPE:External perimeter
G1 F1200.000
G1 X154.810 Y146.795 E4.35468
G1 X188.491 Y180.477 E3.47922
G1 X188.223 Y181.125 E0.05125
G1 X155.075 Y181.125 E2.42118
G1 X155.075 Y178.725 E0.17530
G1 X94.925 Y178.725 E4.39346
G1 X94.925 Y181.125 E0.17530
G1 X61.777 Y181.125 E2.42118
G1 X61.509 Y180.477 E0.05125
G1 X95.127 Y146.859 E3.47264
G1 X95.343 Y146.215 F10800.000
;WIPE_START
G1 F8640.000
G1 X100.064 Y146.853 E-1.14000
;WIPE_END
G1 E-0.06000 F2100.000
G1 Z0.700 F10800.000
G1 X108.929 Y146.031
G1 Z0.300
G1 E1.20000 F2100.000
;TYPE:Perimeter
G1 F1200.000
G1 X108.929 Y136.809 E0.67353
G1 X113.951 Y136.809 E0.36676
G1 X113.951 Y146.031 E0.67353
G1 X109.019 Y146.031 E0.36019
G1 X109.515 Y145.445 F10800.000
;TYPE:External perimeter
G1 F1200.000
G1 X109.515 Y137.395 E0.58799
G1 X113.365 Y137.395 E0.28121
G1 X113.365 Y145.445 E0.58799
G1 X109.605 Y145.445 E0.27464
G1 X108.957 Y145.665 F10800.000
;WIPE_START
G1 F8640.000
G1 X109.550 Y140.508 E-1.14000
;WIPE_END
G1 E-0.06000 F2100.000
G1 Z0.700 F10800.000
G1 X146.849 Y136.809
G1 Z0.300
G1 E1.20000 F2100.000
;TYPE:Perimeter
G1 F1200.000
G1 X151.871 Y136.809 E0.36676
G1 X151.871 Y146.031 E0.67353
G1 X146.849 Y146.031 E0.36676
G1 X146.849 Y136.899 E0.66696
G1 X147.435 Y137.395 F10800.000
;TYPE:External perimeter
G1 F1200.000
G1 X151.285 Y137.395 E0.28121
G1 X151.285 Y145.445 E0.58799
G1 X147.435 Y145.445 E0.28121
G1 X147.435 Y137.485 E0.58141
G1 X147.346 Y136.802 F10800.000
;WIPE_START
G1 F8640.000
G1 X151.285 Y137.395 E-0.88922
G1 X151.285 Y138.481 E-0.25078
;WIPE_END
G1 E-0.06000 F2100.000
G1 Z0.700 F10800.000
G1 X178.738 Y147.581
G1 Z0.300
G1 E1.20000 F2100.000
;TYPE:Perimeter
G1 F1200.000
G1 X179.306 Y146.209 E0.10841
G1 X201.711 Y146.209 E1.63649
G1 X201.711 Y168.614 E1.63649
G1 X200.339 Y169.182 E0.10841
G1 X178.801 Y147.644 E2.22479
G1 X179.429 Y147.443 F10800.000
;TYPE:External perimeter
G1 F1200.000
G1 X179.697 Y146.795 E0.05125
G1 X201.125 Y146.795 E1.56513
G1 X201.125 Y168.223 E1.56513
G1 X200.477 Y168.491 E0.05125
G1 X179.492 Y147.507 E2.16763
G1 X178.907 Y147.147 F10800.000
;WIPE_START
G1 F8640.000
G1 X179.697 Y146.795 E-0.17103
G1 X183.894 Y146.795 E-0.96897
;WIPE_END
G1 E-0.06000 F2100.000
G1 Z0.700 F10800.000
G1 X184.769 Y146.031
G1 Z0.300
G1 E1.20000 F2100.000
;TYPE:Perimeter
G1 F1200.000
G1 X184.769 Y136.809 E0.67353
G1 X189.791 Y136.809 E0.36676
G1 X189.791 Y146.031 E0.67353
G1 X184.859 Y146.031 E0.36019
G1 X185.355 Y145.445 F10800.000
;TYPE:External perimeter
G1 F1200.000
G1 X185.355 Y137.395 E0.58799
G1 X189.205 Y137.395 E0.28121
G1 X189.205 Y145.445 E0.58799
G1 X185.445 Y145.445 E0.27464
G1 X184.797 Y145.665 F10800.000
;WIPE_START
G1 F8640.000
G1 X185.390 Y140.508 E-1.14000
;WIPE_END
G1 E-0.06000 F2100.000
G1 Z0.700 F10800.000
G1 X184.769 Y94.809
G1 Z0.300
G1 E1.20000 F2100.000
;TYPE:Perimeter
G1 F1200.000
G1 X189.791 Y94.809 E0.36676
G1 X189.791 Y104.031 E0.67353
G1 X184.769 Y104.031 E0.36676
G1 X184.769 Y94.899 E0.66696
G1 X185.355 Y95.395 F10800.000
;TYPE:External perimeter
G1 F1200.000
G1 X189.205 Y95.395 E0.28121
G1 X189.205 Y103.445 E0.58799
G1 X185.355 Y103.445 E0.28121
G1 X185.355 Y95.485 E0.58141
G1 X185.266 Y94.802 F10800.000
;WIPE_START
G1 F8640.000
G1 X189.205 Y95.395 E-0.88922
G1 X189.205 Y96.481 E-0.25078
;WIPE_END
G1 E-0.06000 F2100.000
G1 Z0.700 F10800.000
G1 X146.849 Y94.809
G1 Z0.300
G1 E1.20000 F2100.000
;TYPE:Perimeter
G1 F1200.000
G1 X151.871 Y94.809 E0.36676
G1 X151.871 Y104.031 E0.67353
G1 X146.849 Y104.031 E0.36676
G1 X146.849 Y94.899 E0.66696
G1 X147.435 Y95.395 F10800.000
;TYPE:External perimeter
G1 F1200.000
G1 X151.285 Y95.395 E0.28121
G1 X151.285 Y103.445 E0.58799
G1 X147.435 Y103.445 E0.28121
G1 X147.435 Y95.485 E0.58141
G1 X147.346 Y94.802 F10800.000
;WIPE_START
G1 F8640.000
G1 X151.285 Y95.395 E-0.88922
M73 Q1 S167
G1 X151.285 Y96.481 E-0.25078
;WIPE_END
G1 E-0.06000 F2100.000
G1 Z0.700 F10800.000
G1 X148.466 Y94.631
G1 Z0.300
G1 E1.20000 F2100.000
;TYPE:Perimeter
G1 F1200.000
G1 X147.898 Y93.259 E0.10841
G1 X200.339 Y40.818 E5.41703
G1 X201.711 Y41.386 E0.10841
M73 P1 R166
G1 X201.711 Y94.631 E3.88909
G1 X148.556 Y94.631 E3.88252
G1 X148.857 Y94.045 F10800.000
;TYPE:External perimeter
G1 F1200.000
G1 X148.589 Y93.397 E0.05125
G1 X200.477 Y41.509 E5.35987
G1 X201.125 Y41.777 E0.05125
G1 X201.125 Y94.045 E3.81773
G1 X148.947 Y94.045 E3.81116
