; generated by PrusaSlicer 2.3.3 on 2021-11-24 at 03:26:23 UTC

; 

; external perimeters extrusion width = 0.65mm
; perimeters extrusion width = 0.65mm
; infill extrusion width = 0.65mm
; solid infill extrusion width = 0.65mm
; top infill extrusion width = 0.60mm
; first layer extrusion width = 0.65mm

M73 P0 R181
M73 Q0 S184
M201 X1000 Y1000 Z200 E5000 ; sets maximum accelerations, mm/sec^2
M203 X200 Y200 Z12 E120 ; sets maximum feedrates, mm/sec
M204 P1250 R1250 T1250 ; sets acceleration (P, T) and retract acceleration (R), mm/sec^2
M205 X8.00 Y8.00 Z0.40 E4.50 ; sets the jerk limits, mm/sec
M205 S0 T0 ; sets the minimum extruding and travel feed rate, mm/sec
M107
;TYPE:Custom
M862.3 P "MK3S" ; printer model check
M862.1 P0.6 ; nozzle diameter check
M115 U3.10.0 ; tell printer latest fw version
G90 ; use absolute coordinates
M83 ; extruder relative mode
M104 S235 ; set extruder temp
M140 S85 ; set bed temp
M190 S85 ; wait for bed temp
M109 S235 ; wait for extruder temp
G28 W ; home all without mesh bed level
G80 ; mesh bed leveling
G1 Y-3.0 F1000.0 ; go outside print area
G92 E0.0
G1 X60.0 E9.0 F1000.0 ; intro line
G1 X100.0 E12.5 F1000.0 ; intro line
G92 E0.0
M221 S95
G21 ; set units to millimeters
G90 ; use absolute coordinates
M83 ; use relative distances for extrusion
M900 K0.04 ; Filament gcode LA 1.5
M900 K24 ; Filament gcode LA 1.0
;LAYER_CHANGE
;Z:0.3
;HEIGHT:0.3
;BEFORE_LAYER_CHANGE
G92 E0.0
;0.3


G1 E-1.20000 F2100.000
G1 Z0.400 F10800.000
;AFTER_LAYER_CHANGE
;0.3
G1 X29.281 Y12.643
G1 Z0.300
G1 E1.20000 F2100.000
M204 S1000
;TYPE:Skirt
;WIDTH:0.65
G1 F1200.000
G1 X29.820 Y11.619 E0.08450
G1 X30.559 Y10.695 E0.08646
G1 X31.499 Y9.901 E0.08985
G1 X32.562 Y9.315 E0.08868
G1 X33.720 Y8.948 E0.08873
G1 X34.929 Y8.815 E0.08881
G1 X215.004 Y8.814 E13.15300
G1 X216.205 Y8.933 E0.08817
G1 X217.355 Y9.280 E0.08776
G1 X218.385 Y9.823 E0.08502
G1 X219.322 Y10.574 E0.08770
G1 X220.088 Y11.482 E0.08675
G1 X220.661 Y12.507 E0.08582
G1 X221.036 Y13.647 E0.08765
G1 X221.184 Y14.848 E0.08835
G1 X221.185 Y195.060 E13.16300
G1 X221.066 Y196.209 E0.08436
G1 X220.719 Y197.357 E0.08761
G1 X220.180 Y198.381 E0.08450
G1 X219.441 Y199.305 E0.08646
G1 X218.501 Y200.099 E0.08985
G1 X217.427 Y200.690 E0.08955
G1 X216.219 Y201.064 E0.09236
G1 X215.000 Y201.186 E0.08950
G1 X34.931 Y201.185 E13.15258
G1 X33.779 Y201.064 E0.08456
G1 X32.637 Y200.717 E0.08718
G1 X31.615 Y200.177 E0.08444
G1 X30.690 Y199.437 E0.08654
G1 X29.876 Y198.465 E0.09253
G1 X29.296 Y197.394 E0.08899
G1 X28.934 Y196.213 E0.09025
G1 X28.814 Y195.004 E0.08867
G1 X28.815 Y14.940 E13.15223
G1 X28.934 Y13.791 E0.08436
G1 X29.255 Y12.729 E0.08104
; printing object level_one_x1.stl id:0 copy 0
;WIPE_START
M73 Q0 S183
G1 F8640.000
G1 X29.820 Y11.619 E-0.28755
G1 X30.559 Y10.695 E-0.27331
G1 X31.499 Y9.901 E-0.28404
G1 X32.562 Y9.315 E-0.28035
G1 X32.623 Y9.296 E-0.01476
;WIPE_END
G1 E-0.06000 F2100.000
G1 Z0.700 F10800.000
G1 X125.000 Y116.157
G1 Z0.300
G1 E1.20000 F2100.000
;TYPE:Perimeter
G1 F1200.000
G1 X139.111 Y130.268 E1.45758
G1 X139.111 Y163.711 E2.44271
G1 X79.386 Y163.711 E4.36240
G1 X78.818 Y162.339 E0.10841
G1 X124.936 Y116.221 E4.76388
G1 X125.000 Y116.985 F10800.000
;TYPE:External perimeter
G1 F1200.000
G1 X138.525 Y130.510 E1.39709
G1 X138.525 Y163.125 E2.38222
G1 X79.777 Y163.125 E4.29105
M73 P0 R180
G1 X79.509 Y162.477 E0.05125
G1 X124.936 Y117.049 E4.69253
G1 X125.423 Y116.560 F10800.000
;WIPE_START
G1 F8640.000
G1 X128.444 Y120.524 E-1.14000
;WIPE_END
G1 E-0.06000 F2100.000
G1 Z0.700 F10800.000
G1 X141.889 Y134.986
G1 Z0.300
G1 E1.20000 F2100.000
;TYPE:Perimeter
G1 F1200.000
G1 X143.261 Y134.418 E0.10841
G1 X171.182 Y162.339 E2.88420
G1 X170.614 Y163.711 E0.10841
G1 X141.889 Y163.711 E2.09811
G1 X141.889 Y135.076 E2.09153
G1 X142.475 Y135.377 F10800.000
;TYPE:External perimeter
G1 F1200.000
G1 X143.123 Y135.109 E0.05125
G1 X170.491 Y162.477 E2.82704
G1 X170.223 Y163.125 E0.05125
G1 X142.475 Y163.125 E2.02675
G1 X142.475 Y135.467 E2.02018
G1 X142.175 Y134.857 F10800.000
;WIPE_START
G1 F8640.000
G1 X143.123 Y135.109 E-0.17103
G1 X146.091 Y138.076 E-0.96897
;WIPE_END
G1 E-0.06000 F2100.000
G1 Z0.700 F10800.000
G1 X146.647 Y163.940
G1 Z0.300
G1 E1.20000 F2100.000
;TYPE:Perimeter
G1 F1200.000
G1 X147.168 Y163.885 E0.03827
G1 X147.716 Y163.933 E0.04013
G1 X148.245 Y164.086 E0.04028
G1 X148.738 Y164.342 E0.04053
G1 X149.189 Y164.707 E0.04240
G1 X149.540 Y165.135 E0.04045
G1 X149.801 Y165.623 E0.04036
G1 X149.960 Y166.147 E0.04004
G1 X150.015 Y166.668 E0.03827
G1 X149.967 Y167.216 E0.04013
G1 X149.814 Y167.745 E0.04028
G1 X149.558 Y168.238 E0.04053
G1 X149.193 Y168.689 E0.04240
G1 X148.765 Y169.040 E0.04045
G1 X148.277 Y169.301 E0.04036
G1 X147.753 Y169.460 E0.04004
G1 X147.232 Y169.515 E0.03827
G1 X146.684 Y169.467 E0.04013
G1 X146.155 Y169.314 E0.04027
G1 X145.663 Y169.059 E0.04050
G1 X145.211 Y168.693 E0.04243
G1 X144.860 Y168.265 E0.04045
G1 X144.599 Y167.777 E0.04036
G1 X144.440 Y167.253 E0.04004
G1 X144.385 Y166.732 E0.03827
G1 X144.433 Y166.184 E0.04013
G1 X144.586 Y165.655 E0.04027
G1 X144.841 Y165.163 E0.04050
G1 X145.207 Y164.711 E0.04243
G1 X145.635 Y164.360 E0.04045
G1 X146.123 Y164.099 E0.04036
G1 X146.561 Y163.966 E0.03347
G1 X146.731 Y164.527 F10800.000
;TYPE:External perimeter
G1 F1200.000
G1 X147.174 Y164.474 E0.03256
G1 X147.608 Y164.511 E0.03183
G1 X148.027 Y164.633 E0.03185
G1 X148.415 Y164.834 E0.03198
G1 X148.774 Y165.125 E0.03371
G1 X149.051 Y165.462 E0.03190
G1 X149.257 Y165.848 E0.03193
G1 X149.383 Y166.264 E0.03175
G1 X149.426 Y166.674 E0.03010
G1 X149.389 Y167.108 E0.03183
G1 X149.267 Y167.527 E0.03185
G1 X149.066 Y167.915 E0.03198
G1 X148.775 Y168.274 E0.03371
G1 X148.438 Y168.551 E0.03190
G1 X148.052 Y168.757 E0.03193
G1 X147.636 Y168.883 E0.03175
G1 X147.226 Y168.926 E0.03010
G1 X146.792 Y168.889 E0.03183
G1 X146.373 Y168.767 E0.03185
G1 X145.985 Y168.566 E0.03195
G1 X145.626 Y168.275 E0.03374
G1 X145.349 Y167.938 E0.03190
G1 X145.143 Y167.552 E0.03193
G1 X145.017 Y167.136 E0.03175
G1 X144.974 Y166.726 E0.03010
G1 X145.011 Y166.292 E0.03183
G1 X145.133 Y165.873 E0.03185
G1 X145.334 Y165.485 E0.03195
G1 X145.625 Y165.126 E0.03374
G1 X145.962 Y164.849 E0.03190
G1 X146.348 Y164.643 E0.03193
G1 X146.645 Y164.553 E0.02268
G1 X146.868 Y164.102 F10800.000
;WIPE_START
G1 F8640.000
G1 X147.174 Y164.474 E-0.12345
G1 X147.608 Y164.511 E-0.10063
G1 X148.027 Y164.633 E-0.10069
G1 X148.415 Y164.834 E-0.10108
G1 X148.774 Y165.125 E-0.10657
G1 X149.051 Y165.462 E-0.10084
G1 X149.257 Y165.848 E-0.10094
G1 X149.383 Y166.264 E-0.10038
G1 X149.426 Y166.674 E-0.09516
G1 X149.389 Y167.108 E-0.10063
G1 X149.267 Y167.527 E-0.10069
G1 X149.250 Y167.561 E-0.00894
;WIPE_END
G1 E-0.06000 F2100.000
G1 Z0.700 F10800.000
G1 X205.985 Y166.732
G1 Z0.300
G1 E1.20000 F2100.000
;TYPE:Perimeter
G1 F1200.000
G1 X206.033 Y166.184 E0.04013
G1 X206.186 Y165.655 E0.04028
G1 X206.442 Y165.162 E0.04053
G1 X206.807 Y164.711 E0.04240
G1 X207.235 Y164.360 E0.04045
G1 X207.723 Y164.099 E0.04036
G1 X208.247 Y163.940 E0.04004
G1 X208.768 Y163.885 E0.03827
G1 X209.316 Y163.933 E0.04013
G1 X209.845 Y164.086 E0.04028
G1 X210.338 Y164.342 E0.04054
G1 X210.789 Y164.707 E0.04240
G1 X211.140 Y165.135 E0.04045
G1 X211.401 Y165.623 E0.04036
G1 X211.560 Y166.147 E0.04004
G1 X211.615 Y166.668 E0.03826
G1 X211.567 Y167.216 E0.04013
G1 X211.414 Y167.745 E0.04028
G1 X211.158 Y168.238 E0.04053
G1 X210.793 Y168.689 E0.04240
G1 X210.365 Y169.040 E0.04045
G1 X209.877 Y169.301 E0.04036
G1 X209.353 Y169.460 E0.04004
G1 X208.832 Y169.515 E0.03827
G1 X208.284 Y169.467 E0.04013
G1 X207.755 Y169.314 E0.04027
G1 X207.263 Y169.059 E0.04050
G1 X206.811 Y168.693 E0.04243
G1 X206.460 Y168.265 E0.04045
G1 X206.199 Y167.778 E0.04035
G1 X206.040 Y167.253 E0.04005
G1 X205.995 Y166.821 E0.03169
G1 X206.577 Y166.760 F10800.000
;TYPE:External perimeter
G1 F1200.000
G1 X206.611 Y166.292 E0.03427
G1 X206.733 Y165.873 E0.03185
G1 X206.934 Y165.485 E0.03197
G1 X207.225 Y165.126 E0.03371
G1 X207.562 Y164.849 E0.03190
G1 X207.948 Y164.643 E0.03193
G1 X208.364 Y164.517 E0.03175
G1 X208.774 Y164.474 E0.03010
G1 X209.208 Y164.511 E0.03183
G1 X209.627 Y164.633 E0.03185
G1 X210.015 Y164.834 E0.03198
G1 X210.374 Y165.125 E0.03371
G1 X210.651 Y165.462 E0.03190
G1 X210.857 Y165.848 E0.03193
G1 X210.983 Y166.264 E0.03175
G1 X211.026 Y166.674 E0.03010
G1 X210.989 Y167.108 E0.03183
G1 X210.867 Y167.527 E0.03186
G1 X210.666 Y167.915 E0.03197
G1 X210.375 Y168.274 E0.03371
G1 X210.038 Y168.551 E0.03190
G1 X209.652 Y168.757 E0.03193
G1 X209.236 Y168.883 E0.03175
G1 X208.826 Y168.926 E0.03010
G1 X208.392 Y168.889 E0.03183
G1 X207.973 Y168.767 E0.03185
G1 X207.585 Y168.566 E0.03194
G1 X207.226 Y168.275 E0.03374
G1 X206.949 Y167.938 E0.03190
G1 X206.743 Y167.552 E0.03193
G1 X206.617 Y167.136 E0.03176
G1 X206.587 Y166.850 E0.02104
G1 X206.166 Y166.534 F10800.000
;WIPE_START
G1 F8640.000
G1 X206.611 Y166.292 E-0.12885
G1 X206.733 Y165.873 E-0.10070
G1 X206.934 Y165.485 E-0.10107
G1 X207.225 Y165.126 E-0.10658
G1 X207.562 Y164.849 E-0.10084
G1 X207.948 Y164.643 E-0.10094
G1 X208.364 Y164.517 E-0.10038
G1 X208.774 Y164.474 E-0.09516
G1 X209.208 Y164.511 E-0.10063
G1 X209.627 Y164.633 E-0.10069
G1 X210.015 Y164.834 E-0.10109
G1 X210.026 Y164.843 E-0.00307
;WIPE_END
G1 E-0.06000 F2100.000
G1 Z0.700 F10800.000
G1 X209.048 Y186.840
G1 Z0.300
G1 E1.20000 F2100.000
;TYPE:Perimeter
G1 F1200.000
G1 X209.568 Y186.785 E0.03823
G1 X210.116 Y186.833 E0.04013
G1 X210.645 Y186.986 E0.04027
G1 X211.138 Y187.242 E0.04054
G1 X211.589 Y187.607 E0.04240
G1 X211.940 Y188.035 E0.04045
G1 X212.201 Y188.522 E0.04036
G1 X212.360 Y189.047 E0.04004
G1 X212.415 Y189.568 E0.03827
G1 X212.367 Y190.118 E0.04034
G1 X212.202 Y190.675 E0.04241
G1 X211.940 Y191.165 E0.04056
G1 X211.591 Y191.591 E0.04024
G1 X211.165 Y191.940 E0.04024
G1 X210.678 Y192.201 E0.04036
G1 X210.153 Y192.360 E0.04004
G1 X209.632 Y192.415 E0.03827
G1 X209.082 Y192.367 E0.04034
G1 X208.525 Y192.202 E0.04241
G1 X208.035 Y191.940 E0.04056
G1 X207.609 Y191.591 E0.04024
G1 X207.260 Y191.165 E0.04024
G1 X206.999 Y190.677 E0.04036
G1 X206.840 Y190.152 E0.04008
G1 X206.785 Y189.632 E0.03823
G1 X206.833 Y189.084 E0.04013
G1 X206.986 Y188.555 E0.04027
G1 X207.242 Y188.062 E0.04054
G1 X207.607 Y187.611 E0.04240
G1 X208.035 Y187.260 E0.04045
G1 X208.523 Y186.999 E0.04036
G1 X208.962 Y186.866 E0.03351
G1 X209.132 Y187.427 F10800.000
;TYPE:External perimeter
G1 F1200.000
G1 X209.574 Y187.374 E0.03252
G1 X210.008 Y187.411 E0.03183
G1 X210.427 Y187.533 E0.03185
G1 X210.815 Y187.734 E0.03198
G1 X211.174 Y188.025 E0.03371
G1 X211.451 Y188.362 E0.03189
G1 X211.657 Y188.748 E0.03193
G1 X211.783 Y189.164 E0.03175
G1 X211.826 Y189.574 E0.03010
G1 X211.789 Y190.009 E0.03190
G1 X211.658 Y190.451 E0.03372
G1 X211.451 Y190.838 E0.03200
G1 X211.174 Y191.174 E0.03182
G1 X210.838 Y191.451 E0.03182
G1 X210.452 Y191.657 E0.03193
G1 X210.036 Y191.783 E0.03175
G1 X209.626 Y191.826 E0.03010
G1 X209.191 Y191.789 E0.03191
G1 X208.749 Y191.658 E0.03371
G1 X208.362 Y191.451 E0.03201
G1 X208.026 Y191.174 E0.03182
G1 X207.749 Y190.838 E0.03183
G1 X207.543 Y190.452 E0.03193
G1 X207.417 Y190.036 E0.03179
G1 X207.374 Y189.626 E0.03007
G1 X207.411 Y189.192 E0.03183
G1 X207.533 Y188.773 E0.03185
G1 X207.734 Y188.385 E0.03198
G1 X208.025 Y188.026 E0.03371
G1 X208.362 Y187.749 E0.03190
G1 X208.748 Y187.543 E0.03193
G1 X209.045 Y187.453 E0.02272
G1 X209.268 Y187.003 F10800.000
;WIPE_START
G1 F8640.000
G1 X209.574 Y187.374 E-0.12333
G1 X210.008 Y187.411 E-0.10062
G1 X210.427 Y187.533 E-0.10069
G1 X210.815 Y187.734 E-0.10109
G1 X211.174 Y188.025 E-0.10657
G1 X211.451 Y188.362 E-0.10083
G1 X211.657 Y188.748 E-0.10095
G1 X211.783 Y189.164 E-0.10037
G1 X211.826 Y189.574 E-0.09516
G1 X211.789 Y190.009 E-0.10086
G1 X211.658 Y190.451 E-0.10658
G1 X211.651 Y190.463 E-0.00295
;WIPE_END
G1 E-0.06000 F2100.000
G1 Z0.700 F10800.000
G1 X148.765 Y92.440
G1 Z0.300
G1 E1.20000 F2100.000
;TYPE:Perimeter
G1 F1200.000
G1 X148.277 Y92.701 E0.04036
G1 X147.753 Y92.860 E0.04004
G1 X147.232 Y92.915 E0.03827
G1 X146.684 Y92.867 E0.04013
G1 X146.155 Y92.714 E0.04028
G1 X145.662 Y92.458 E0.04053
G1 X145.211 Y92.093 E0.04240
G1 X144.860 Y91.665 E0.04045
G1 X144.599 Y91.177 E0.04036
G1 X144.440 Y90.653 E0.04004
G1 X144.385 Y90.132 E0.03827
G1 X144.433 Y89.584 E0.04013
G1 X144.586 Y89.055 E0.04027
G1 X144.841 Y88.563 E0.04050
G1 X145.207 Y88.111 E0.04243
G1 X145.635 Y87.760 E0.04045
G1 X146.123 Y87.499 E0.04036
G1 X146.647 Y87.340 E0.04004
G1 X147.168 Y87.285 E0.03827
G1 X147.716 Y87.333 E0.04013
G1 X148.245 Y87.486 E0.04028
G1 X148.738 Y87.742 E0.04053
G1 X149.189 Y88.107 E0.04240
G1 X149.540 Y88.535 E0.04045
G1 X149.801 Y89.023 E0.04036
G1 X149.960 Y89.547 E0.04004
G1 X150.015 Y90.068 E0.03827
G1 X149.967 Y90.616 E0.04013
G1 X149.814 Y91.145 E0.04028
G1 X149.558 Y91.638 E0.04053
G1 X149.193 Y92.089 E0.04240
G1 X148.834 Y92.383 E0.03388
G1 X148.463 Y91.930 F10800.000
;TYPE:External perimeter
G1 F1200.000
G1 X148.052 Y92.157 E0.03425
G1 X147.636 Y92.283 E0.03175
G1 X147.226 Y92.326 E0.03010
G1 X146.792 Y92.289 E0.03183
G1 X146.373 Y92.167 E0.03185
G1 X145.985 Y91.966 E0.03198
G1 X145.626 Y91.675 E0.03371
G1 X145.349 Y91.338 E0.03190
G1 X145.143 Y90.952 E0.03193
G1 X145.017 Y90.536 E0.03175
G1 X144.974 Y90.126 E0.03010
G1 X145.011 Y89.692 E0.03183
G1 X145.133 Y89.273 E0.03185
G1 X145.334 Y88.885 E0.03195
G1 X145.625 Y88.526 E0.03374
G1 X145.962 Y88.249 E0.03190
G1 X146.348 Y88.043 E0.03193
G1 X146.764 Y87.917 E0.03175
G1 X147.174 Y87.874 E0.03010
G1 X147.608 Y87.911 E0.03183
G1 X148.027 Y88.033 E0.03185
G1 X148.415 Y88.234 E0.03198
G1 X148.774 Y88.525 E0.03371
G1 X149.051 Y88.862 E0.03190
G1 X149.257 Y89.248 E0.03193
G1 X149.383 Y89.664 E0.03175
G1 X149.426 Y90.074 E0.03010
G1 X149.389 Y90.508 E0.03183
G1 X149.267 Y90.927 E0.03185
G1 X149.066 Y91.315 E0.03198
G1 X148.775 Y91.674 E0.03371
G1 X148.532 Y91.873 E0.02296
G1 X148.499 Y92.398 F10800.000
;WIPE_START
G1 F8640.000
G1 X148.052 Y92.157 E-0.12876
G1 X147.636 Y92.283 E-0.10038
G1 X147.226 Y92.326 E-0.09516
G1 X146.792 Y92.289 E-0.10063
G1 X146.373 Y92.167 E-0.10069
G1 X145.985 Y91.966 E-0.10108
G1 X145.626 Y91.675 E-0.10657
G1 X145.349 Y91.338 E-0.10084
G1 X145.143 Y90.952 E-0.10094
G1 X145.017 Y90.536 E-0.10038
G1 X144.974 Y90.126 E-0.09516
G1 X144.977 Y90.086 E-0.00941
;WIPE_END
G1 E-0.06000 F2100.000
G1 Z0.700 F10800.000
G1 X148.068 Y93.089
G1 Z0.300
G1 E1.20000 F2100.000
;TYPE:Perimeter
G1 F1200.000
G1 X201.711 Y93.089 E3.91816
G1 X201.711 Y163.711 E5.15829
G1 X194.868 Y163.711 E0.49981
G1 X141.889 Y110.732 E5.47250
G1 X141.889 Y99.268 E0.83737
G1 X148.004 Y93.153 E0.63164
G1 X148.310 Y93.675 F10800.000
;TYPE:External perimeter
G1 F1200.000
G1 X201.125 Y93.675 E3.85766
G1 X201.125 Y163.125 E5.07274
G1 X195.110 Y163.125 E0.43931
G1 X142.475 Y110.490 E5.43706
M73 Q0 S182
G1 X142.475 Y99.510 E0.80193
G1 X148.247 Y93.739 E0.59621
G1 X148.377 Y93.079 F10800.000
;WIPE_START
G1 F8640.000
G1 X153.184 Y93.733 E-1.14000
;WIPE_END
G1 E-0.06000 F2100.000
G1 Z0.700 F10800.000
G1 X205.985 Y90.132
G1 Z0.300
G1 E1.20000 F2100.000
;TYPE:Perimeter
G1 F1200.000
G1 X206.033 Y89.584 E0.04013
G1 X206.186 Y89.055 E0.04028
G1 X206.442 Y88.562 E0.04053
G1 X206.807 Y88.111 E0.04240
G1 X207.235 Y87.760 E0.04045
G1 X207.723 Y87.499 E0.04036
G1 X208.247 Y87.340 E0.04004
G1 X208.768 Y87.285 E0.03827
G1 X209.316 Y87.333 E0.04013
G1 X209.845 Y87.486 E0.04028
G1 X210.338 Y87.742 E0.04054
G1 X210.789 Y88.107 E0.04240
G1 X211.140 Y88.535 E0.04045
G1 X211.401 Y89.023 E0.04036
G1 X211.560 Y89.547 E0.04004
G1 X211.615 Y90.068 E0.03826
G1 X211.567 Y90.616 E0.04013
G1 X211.414 Y91.145 E0.04028
G1 X211.158 Y91.638 E0.04053
G1 X210.793 Y92.089 E0.04240
M73 P1 R180
G1 X210.365 Y92.440 E0.04045
G1 X209.877 Y92.701 E0.04036
G1 X209.353 Y92.860 E0.04004
G1 X208.832 Y92.915 E0.03827
G1 X208.284 Y92.867 E0.04013
G1 X207.755 Y92.714 E0.04028
G1 X207.262 Y92.458 E0.04053
G1 X206.811 Y92.093 E0.04240
G1 X206.460 Y91.665 E0.04045
G1 X206.199 Y91.178 E0.04035
G1 X206.040 Y90.653 E0.04005
G1 X205.995 Y90.221 E0.03169
G1 X206.577 Y90.160 F10800.000
