; generated by PrusaSlicer 2.3.3 on 2021-11-24 at 03:22:25 UTC

; 

; external perimeters extrusion width = 0.65mm
; perimeters extrusion width = 0.65mm
; infill extrusion width = 0.65mm
; solid infill extrusion width = 0.65mm
; top infill extrusion width = 0.60mm
; first layer extrusion width = 0.65mm

M73 P0 R48
M73 Q0 S48
M201 X1000 Y1000 Z200 E5000 ; sets maximum accelerations, mm/sec^2
M203 X200 Y200 Z12 E120 ; sets maximum feedrates, mm/sec
M204 P1250 R1250 T1250 ; sets acceleration (P, T) and retract acceleration (R), mm/sec^2
M205 X8.00 Y8.00 Z0.40 E4.50 ; sets the jerk limits, mm/sec
M205 S0 T0 ; sets the minimum extruding and travel feed rate, mm/sec
M107
;TYPE:Custom
M862.3 P "MK3S" ; printer model check
M862.1 P0.6 ; nozzle diameter check
M115 U3.10.0 ; tell printer latest fw version
G90 ; use absolute coordinates
M83 ; extruder relative mode
M104 S235 ; set extruder temp
M140 S85 ; set bed temp
M190 S85 ; wait for bed temp
M109 S235 ; wait for extruder temp
G28 W ; home all without mesh bed level
G80 ; mesh bed leveling
G1 Y-3.0 F1000.0 ; go outside print area
G92 E0.0
G1 X60.0 E9.0 F1000.0 ; intro line
G1 X100.0 E12.5 F1000.0 ; intro line
G92 E0.0
M221 S95
G21 ; set units to millimeters
G90 ; use absolute coordinates
M83 ; use relative distances for extrusion
M900 K0.04 ; Filament gcode LA 1.5
M900 K24 ; Filament gcode LA 1.0
;LAYER_CHANGE
;Z:0.3
;HEIGHT:0.3
;BEFORE_LAYER_CHANGE
G92 E0.0
;0.3


G1 E-1.20000 F2100.000
G1 Z0.400 F10800.000
;AFTER_LAYER_CHANGE
;0.3
G1 X43.390 Y48.107
G1 Z0.300
G1 E1.20000 F2100.000
M204 S1000
;TYPE:Skirt
;WIDTH:0.65
G1 F1200.000
G1 X43.870 Y47.804 E0.04141
G1 X44.404 Y47.614 E0.04141
G1 X59.584 Y44.255 E1.13560
G1 X190.353 Y44.254 E9.55159
G1 X190.909 Y44.316 E0.04083
G1 X205.789 Y47.668 E1.11409
G1 X206.441 Y47.983 E0.05293
G1 X206.980 Y48.467 E0.05293
G1 X207.364 Y49.082 E0.05293
G1 X207.561 Y49.775 E0.05264
G1 X207.586 Y159.890 E8.04296
G1 X207.517 Y160.461 E0.04199
G1 X207.325 Y161.002 E0.04199
G1 X207.017 Y161.488 E0.04199
G1 X206.610 Y161.893 E0.04199
G1 X206.130 Y162.196 E0.04141
G1 X205.596 Y162.386 E0.04141
G1 X190.416 Y165.745 E1.13560
M73 P0 R47
G1 X59.643 Y165.746 E9.55188
G1 X59.095 Y165.685 E0.04026
G1 X44.360 Y162.375 E1.10309
M73 P1 R47
M73 Q1 S48
G1 X43.595 Y162.041 E0.06096
G1 X42.977 Y161.480 E0.06096
G1 X42.561 Y160.730 E0.06267
G1 X42.414 Y159.884 E0.06267
G1 X42.414 Y50.122 E8.01722
G1 X42.480 Y49.551 E0.04199
G1 X42.672 Y49.005 E0.04228
G1 X42.981 Y48.515 E0.04228
G1 X43.327 Y48.170 E0.03570
; printing object mount_x4.stl id:0 copy 2
;WIPE_START
G1 F8640.000
G1 X43.870 Y47.804 E-0.15125
G1 X44.404 Y47.614 E-0.13091
G1 X48.031 Y46.811 E-0.85785
;WIPE_END
G1 E-0.06000 F2100.000
G1 Z0.700 F10800.000
G1 X185.729 Y94.387
G1 Z0.300
G1 E1.20000 F2100.000
;TYPE:External perimeter
G1 F1200.000
G1 X185.920 Y94.130 E0.02340
G1 X186.272 Y93.809 E0.03481
G1 X186.546 Y93.633 E0.02378
G1 X186.857 Y93.499 E0.02472
G1 X187.460 Y93.324 E0.04590
G1 X187.814 Y93.290 E0.02599
G1 X188.162 Y93.326 E0.02553
G1 X188.608 Y93.494 E0.03479
G1 X188.993 Y93.768 E0.03457
G1 X189.305 Y94.115 E0.03406
G1 X189.535 Y94.517 E0.03380
G1 X189.673 Y94.932 E0.03197
G1 X189.726 Y95.365 E0.03182
G1 X189.694 Y95.800 E0.03191
G1 X189.577 Y96.221 E0.03189
G1 X189.381 Y96.611 E0.03187
G1 X189.112 Y96.956 E0.03194
G1 X188.781 Y97.241 E0.03190
G1 X188.402 Y97.456 E0.03183
G1 X187.988 Y97.593 E0.03189
G1 X187.555 Y97.646 E0.03183
G1 X187.121 Y97.614 E0.03179
G1 X186.748 Y97.514 E0.02823
G1 X186.373 Y97.334 E0.03033
G1 X186.104 Y97.122 E0.02505
G1 X185.874 Y96.863 E0.02532
G1 X185.675 Y96.469 E0.03222
G1 X185.512 Y95.808 E0.04974
G1 X185.474 Y95.445 E0.02666
G1 X185.503 Y95.078 E0.02687
G1 X185.599 Y94.679 E0.03002
G1 X185.692 Y94.469 E0.01674
G1 X185.571 Y94.108 F10800.000
;WIPE_START
G1 F8640.000
G1 X185.920 Y94.130 E-0.09434
G1 X186.272 Y93.809 E-0.11006
G1 X186.546 Y93.633 E-0.07519
G1 X186.857 Y93.499 E-0.07816
G1 X187.460 Y93.324 E-0.14511
G1 X187.814 Y93.290 E-0.08215
G1 X188.162 Y93.326 E-0.08070
G1 X188.608 Y93.494 E-0.10997
G1 X188.993 Y93.768 E-0.10930
G1 X189.305 Y94.115 E-0.10766
G1 X189.535 Y94.517 E-0.10686
G1 X189.590 Y94.683 E-0.04051
;WIPE_END
G1 E-0.06000 F2100.000
G1 Z0.700 F10800.000
G1 X185.750 Y97.589
G1 Z0.300
G1 E1.20000 F2100.000
;TYPE:Perimeter
G1 F1200.000
G1 X186.062 Y97.834 E0.02896
G1 X186.543 Y98.066 E0.03903
G1 X187.023 Y98.194 E0.03628
G1 X187.570 Y98.234 E0.04001
G1 X188.117 Y98.167 E0.04026
G1 X188.641 Y97.994 E0.04031
G1 X189.120 Y97.722 E0.04025
G1 X189.239 Y97.620 E0.01142
G1 X189.239 Y100.889 E0.23880
G1 X143.761 Y100.889 E3.32173
G1 X143.761 Y97.617 E0.23899
G1 X143.935 Y97.760 E0.01643
G1 X144.423 Y98.021 E0.04036
G1 X144.947 Y98.180 E0.04004
G1 X145.468 Y98.235 E0.03828
G1 X146.012 Y98.188 E0.03984
G1 X146.490 Y98.053 E0.03629
G1 X146.975 Y97.812 E0.03956
G1 X147.250 Y97.582 E0.02618
G1 X147.234 Y99.821 E0.16348
G1 X185.766 Y99.821 E2.81437
G1 X185.755 Y97.679 E0.15641
;WIPE_START
G1 F8640.000
G1 X186.062 Y97.834 E-0.07939
G1 X186.543 Y98.066 E-0.12337
G1 X187.023 Y98.194 E-0.11470
G1 X187.570 Y98.234 E-0.12647
G1 X188.117 Y98.167 E-0.12726
G1 X188.641 Y97.994 E-0.12744
G1 X189.120 Y97.722 E-0.12724
G1 X189.239 Y97.620 E-0.03609
G1 X189.239 Y98.824 E-0.27803
;WIPE_END
G1 E-0.06000 F2100.000
G1 Z0.700 F10800.000
G1 X144.980 Y93.298
G1 Z0.300
G1 E1.20000 F2100.000
;TYPE:External perimeter
G1 F1200.000
G1 X145.145 Y93.291 E0.01211
G1 X145.514 Y93.318 E0.02695
G1 X146.142 Y93.499 E0.04777
G1 X146.433 Y93.622 E0.02308
G1 X146.709 Y93.794 E0.02380
G1 X147.080 Y94.130 E0.03649
G1 X147.271 Y94.387 E0.02345
G1 X147.401 Y94.678 E0.02327
G1 X147.493 Y95.056 E0.02842
G1 X147.526 Y95.444 E0.02843
G1 X147.488 Y95.808 E0.02673
G1 X147.325 Y96.468 E0.04966
G1 X147.142 Y96.836 E0.03001
G1 X146.955 Y97.066 E0.02168
G1 X146.653 Y97.318 E0.02875
G1 X146.279 Y97.504 E0.03051
G1 X145.906 Y97.609 E0.02824
G1 X145.474 Y97.646 E0.03172
G1 X145.064 Y97.603 E0.03011
G1 X144.648 Y97.477 E0.03175
G1 X144.262 Y97.271 E0.03193
G1 X143.925 Y96.994 E0.03190
G1 X143.634 Y96.635 E0.03371
G1 X143.433 Y96.247 E0.03198
G1 X143.311 Y95.828 E0.03185
G1 X143.273 Y95.392 E0.03197
G1 X143.327 Y94.933 E0.03371
G1 X143.464 Y94.518 E0.03197
G1 X143.680 Y94.138 E0.03191
G1 X143.985 Y93.788 E0.03390
G1 X144.343 Y93.523 E0.03254
G1 X144.722 Y93.360 E0.03010
G1 X144.892 Y93.319 E0.01281
G1 X145.042 Y93.144 F10800.000
;WIPE_START
G1 F8640.000
G1 X145.145 Y93.291 E-0.05880
G1 X145.514 Y93.318 E-0.08521
G1 X146.142 Y93.499 E-0.15100
G1 X146.433 Y93.622 E-0.07296
G1 X146.709 Y93.794 E-0.07524
G1 X147.080 Y94.130 E-0.11534
G1 X147.271 Y94.387 E-0.07413
G1 X147.401 Y94.678 E-0.07356
G1 X147.493 Y95.056 E-0.08984
G1 X147.526 Y95.444 E-0.08988
G1 X147.488 Y95.808 E-0.08450
G1 X147.325 Y96.468 E-0.15700
G1 X147.301 Y96.517 E-0.01252
;WIPE_END
G1 E-0.06000 F2100.000
G1 Z0.700 F10800.000
G1 X143.743 Y93.239
G1 Z0.300
G1 E1.20000 F2100.000
;TYPE:Perimeter
G1 F1200.000
G1 X143.586 Y93.355 E0.01430
G1 X143.200 Y93.797 E0.04286
G1 X142.926 Y94.279 E0.04049
G1 X142.752 Y94.806 E0.04052
G1 X142.685 Y95.383 E0.04240
G1 X142.733 Y95.936 E0.04053
G1 X142.886 Y96.465 E0.04028
G1 X143.142 Y96.958 E0.04053
G1 X143.507 Y97.409 E0.04240
G1 X143.739 Y97.599 E0.02195
G1 X129.111 Y97.599 E1.06852
G1 X129.111 Y93.241 E0.31837
G1 X135.311 Y93.241 E0.45286
G1 X135.311 Y55.599 E2.74938
G1 X129.111 Y55.599 E0.45286
G1 X129.111 Y51.241 E0.31837
G1 X143.734 Y51.241 E1.06813
G1 X143.610 Y51.335 E0.01135
G1 X143.279 Y51.691 E0.03553
G1 X143.002 Y52.124 E0.03757
G1 X142.808 Y52.600 E0.03753
G1 X142.707 Y53.075 E0.03551
G1 X142.689 Y53.564 E0.03567
G1 X142.769 Y54.101 E0.03965
G1 X142.941 Y54.592 E0.03805
G1 X143.200 Y55.043 E0.03795
G1 X143.559 Y55.458 E0.04008
G1 X143.742 Y55.601 E0.01700
G1 X141.099 Y55.598 E0.19302
G1 X141.099 Y93.242 E2.74953
G1 X143.653 Y93.239 E0.18653
;WIPE_START
G1 F8640.000
G1 X143.586 Y93.355 E-0.03105
G1 X143.200 Y93.797 E-0.13550
G1 X142.926 Y94.279 E-0.12799
G1 X142.752 Y94.806 E-0.12811
G1 X142.685 Y95.383 E-0.13405
G1 X142.733 Y95.936 E-0.12813
G1 X142.886 Y96.465 E-0.12732
G1 X143.142 Y96.958 E-0.12814
G1 X143.507 Y97.409 E-0.13404
G1 X143.727 Y97.589 E-0.06566
;WIPE_END
G1 E-0.06000 F2100.000
G1 Z0.700 F10800.000
G1 X144.982 Y55.544
G1 Z0.300
G1 E1.20000 F2100.000
;TYPE:External perimeter
G1 F1200.000
G1 X144.572 Y55.429 E0.03112
G1 X144.269 Y55.270 E0.02498
G1 X143.965 Y55.032 E0.02826
G1 X143.680 Y54.702 E0.03181
G1 X143.476 Y54.347 E0.02991
G1 X143.340 Y53.959 E0.03002
G1 X143.276 Y53.531 E0.03162
G1 X143.291 Y53.147 E0.02804
G1 X143.370 Y52.772 E0.02801
G1 X143.524 Y52.395 E0.02977
G1 X143.744 Y52.051 E0.02981
G1 X144.005 Y51.770 E0.02802
G1 X144.310 Y51.538 E0.02797
G1 X144.673 Y51.353 E0.02981
G1 X145.065 Y51.237 E0.02982
G1 X145.474 Y51.194 E0.03003
G1 X145.910 Y51.231 E0.03197
G1 X146.353 Y51.366 E0.03385
G1 X146.724 Y51.571 E0.03096
G1 X147.075 Y51.902 E0.03523
G1 X147.295 Y52.293 E0.03277
G1 X147.386 Y52.595 E0.02305
G1 X147.510 Y53.167 E0.04277
G1 X147.526 Y53.420 E0.01849
G1 X147.510 Y53.673 E0.01851
G1 X147.409 Y54.137 E0.03467
G1 X147.272 Y54.452 E0.02509
G1 X147.080 Y54.710 E0.02356
G1 X146.712 Y55.044 E0.03627
G1 X146.498 Y55.182 E0.01858
G1 X146.272 Y55.293 E0.01842
G1 X145.713 Y55.471 E0.04283
G1 X145.405 Y55.540 E0.02301
G1 X145.072 Y55.543 E0.02433
G1 X144.717 Y55.877 F10800.000
;WIPE_START
G1 F8640.000
G1 X144.572 Y55.429 E-0.11846
G1 X144.269 Y55.270 E-0.07898
G1 X143.965 Y55.032 E-0.08933
G1 X143.680 Y54.702 E-0.10055
G1 X143.476 Y54.347 E-0.09456
G1 X143.340 Y53.959 E-0.09491
G1 X143.276 Y53.531 E-0.09996
G1 X143.291 Y53.147 E-0.08866
G1 X143.370 Y52.772 E-0.08854
G1 X143.524 Y52.395 E-0.09410
G1 X143.744 Y52.051 E-0.09425
G1 X144.005 Y51.770 E-0.08859
G1 X144.037 Y51.746 E-0.00913
;WIPE_END
G1 E-0.06000 F2100.000
G1 Z0.700 F10800.000
G1 X147.823 Y49.605
G1 Z0.300
G1 E1.20000 F2100.000
G1 F1200.000
G1 X185.177 Y49.605 E2.72844
G1 X185.170 Y51.127 E0.11115
G1 X185.142 Y51.644 E0.03787
G1 X184.990 Y52.627 E0.07264
G1 X184.976 Y53.096 E0.03424
G1 X184.976 Y54.060 E0.07042
G1 X185.060 Y54.822 E0.05602
G1 X185.648 Y55.266 E0.05378
G1 X186.826 Y55.946 E0.09939
G1 X187.566 Y56.231 E0.05791
G1 X188.436 Y56.188 E0.06359
G1 X191.315 Y56.185 E0.21031
G1 X191.315 Y92.655 E2.66388
M73 P2 R47
M73 Q2 S47
G1 X188.436 Y92.652 E0.21031
G1 X187.566 Y92.609 E0.06359
G1 X186.826 Y92.894 E0.05791
G1 X185.648 Y93.574 E0.09939
G1 X185.060 Y94.018 E0.05378
G1 X184.976 Y94.780 E0.05602
G1 X184.976 Y95.744 E0.07042
G1 X184.990 Y96.213 E0.03424
G1 X185.142 Y97.196 E0.07264
G1 X185.170 Y97.713 E0.03787
G1 X185.177 Y99.235 E0.11115
G1 X147.823 Y99.235 E2.72844
G1 X147.830 Y97.713 E0.11115
G1 X147.858 Y97.196 E0.03787
G1 X148.010 Y96.213 E0.07264
G1 X148.024 Y95.744 E0.03424
G1 X148.024 Y94.780 E0.07042
G1 X147.940 Y94.018 E0.05602
G1 X147.352 Y93.574 E0.05378
G1 X146.174 Y92.894 E0.09939
G1 X145.434 Y92.609 E0.05791
G1 X144.564 Y92.652 E0.06359
G1 X141.685 Y92.655 E0.21031
G1 X141.685 Y56.185 E2.66388
G1 X144.564 Y56.188 E0.21031
G1 X145.434 Y56.231 E0.06359
G1 X146.174 Y55.946 E0.05791
G1 X147.352 Y55.266 E0.09939
G1 X147.940 Y54.822 E0.05378
G1 X148.024 Y54.060 E0.05602
G1 X148.024 Y53.096 E0.07042
G1 X148.010 Y52.627 E0.03424
G1 X147.858 Y51.644 E0.07264
G1 X147.830 Y51.127 E0.03787
G1 X147.823 Y49.695 E0.10458
G1 X147.819 Y49.005 F10800.000
;WIPE_START
G1 F8640.000
G1 X152.760 Y49.683 E-1.14000
;WIPE_END
G1 E-0.06000 F2100.000
G1 Z0.700 F10800.000
G1 X185.474 Y53.444
G1 Z0.300
G1 E1.20000 F2100.000
G1 F1200.000
G1 X185.490 Y53.168 E0.02016
G1 X185.614 Y52.595 E0.04284
G1 X185.705 Y52.293 E0.02305
G1 X185.925 Y51.902 E0.03277
G1 X186.274 Y51.572 E0.03507
G1 X186.597 Y51.388 E0.02719
G1 X187.012 Y51.248 E0.03197
G1 X187.471 Y51.194 E0.03373
G1 X187.880 Y51.226 E0.03003
G1 X188.275 Y51.333 E0.02982
G1 X188.622 Y51.497 E0.02805
G1 X188.955 Y51.734 E0.02987
G1 X189.238 Y52.029 E0.02986
G1 X189.463 Y52.370 E0.02981
G1 X189.614 Y52.722 E0.02805
G1 X189.706 Y53.120 E0.02983
G1 X189.724 Y53.528 E0.02982
G1 X189.672 Y53.909 E0.02804
G1 X189.546 Y54.297 E0.02983
G1 X189.350 Y54.659 E0.03004
G1 X189.074 Y54.994 E0.03172
G1 X188.777 Y55.240 E0.02820
G1 X188.477 Y55.410 E0.02516
G1 X188.019 Y55.544 E0.03484
G1 X187.595 Y55.540 E0.03104
G1 X187.287 Y55.471 E0.02301
G1 X186.720 Y55.290 E0.04349
G1 X186.314 Y55.064 E0.03393
G1 X185.921 Y54.711 E0.03859
G1 X185.728 Y54.452 E0.02362
G1 X185.591 Y54.137 E0.02504
G1 X185.493 Y53.696 E0.03300
G1 X185.481 Y53.534 E0.01191
G1 X185.233 Y53.310 F10800.000
;WIPE_START
G1 F8640.000
G1 X185.490 Y53.168 E-0.08439
G1 X185.614 Y52.595 E-0.13543
G1 X185.705 Y52.293 E-0.07286
G1 X185.925 Y51.902 E-0.10360
G1 X186.274 Y51.572 E-0.11087
G1 X186.597 Y51.388 E-0.08596
G1 X187.012 Y51.248 E-0.10105
G1 X187.471 Y51.194 E-0.10661
G1 X187.880 Y51.226 E-0.09493
G1 X188.275 Y51.333 E-0.09427
G1 X188.622 Y51.497 E-0.08867
G1 X188.838 Y51.651 E-0.06136
;WIPE_END
G1 E-0.06000 F2100.000
G1 Z0.700 F10800.000
G1 X185.749 Y51.262
G1 Z0.300
G1 E1.20000 F2100.000
;TYPE:Perimeter
G1 F1200.000
G1 X185.766 Y49.019 E0.16381
G1 X147.234 Y49.019 E2.81437
G1 X147.251 Y51.262 E0.16381
G1 X147.073 Y51.094 E0.01789
G1 X146.582 Y50.823 E0.04091
G1 X146.021 Y50.653 E0.04282
G1 X145.468 Y50.605 E0.04052
G1 X144.950 Y50.660 E0.03808
G1 X144.455 Y50.807 E0.03770
G1 X143.997 Y51.041 E0.03757
G1 X143.761 Y51.220 E0.02162
G1 X143.761 Y47.951 E0.23879
G1 X189.239 Y47.951 E3.32173
G1 X189.239 Y51.218 E0.23863
G1 X188.919 Y50.990 E0.02865
G1 X188.478 Y50.781 E0.03568
G1 X187.981 Y50.647 E0.03758
G1 X187.460 Y50.605 E0.03820
G1 X186.882 Y50.673 E0.04244
G1 X186.356 Y50.851 E0.04056
G1 X185.923 Y51.098 E0.03644
G1 X185.815 Y51.200 E0.01087
;WIPE_START
G1 F8640.000
G1 X185.766 Y49.019 E-0.50370
G1 X183.010 Y49.019 E-0.63630
;WIPE_END
G1 E-0.06000 F2100.000
G1 Z0.700 F10800.000
G1 X189.271 Y51.241
G1 Z0.300
G1 E1.20000 F2100.000
G1 F1200.000
G1 X203.889 Y51.241 E1.06777
G1 X203.889 Y55.599 E0.31837
G1 X197.689 Y55.599 E0.45286
G1 X197.689 Y93.241 E2.74938
G1 X203.889 Y93.241 E0.45286
G1 X203.889 Y97.599 E0.31837
G1 X189.262 Y97.599 E1.06837
G1 X189.538 Y97.362 E0.02660
G1 X189.878 Y96.926 E0.04037
G1 X190.126 Y96.433 E0.04030
G1 X190.274 Y95.901 E0.04032
G1 X190.314 Y95.350 E0.04034
G1 X190.247 Y94.803 E0.04024
G1 X190.073 Y94.277 E0.04053
G1 X189.782 Y93.770 E0.04265
G1 X189.386 Y93.329 E0.04330
G1 X189.259 Y93.239 E0.01138
G1 X191.901 Y93.242 E0.19295
G1 X191.901 Y55.598 E2.74953
G1 X189.258 Y55.601 E0.19299
G1 X189.491 Y55.410 E0.02200
G1 X189.838 Y54.987 E0.03996
G1 X190.087 Y54.529 E0.03809
G1 X190.245 Y54.039 E0.03759
G1 X190.311 Y53.555 E0.03568
G1 X190.289 Y53.041 E0.03758
G1 X190.173 Y52.540 E0.03758
G1 X189.981 Y52.091 E0.03569
G1 X189.697 Y51.661 E0.03757
G1 X189.343 Y51.294 E0.03728
G1 X189.824 Y50.655 F10800.000
;TYPE:External perimeter
G1 F1200.000
G1 X204.475 Y50.655 E1.07012
G1 X204.475 Y56.185 E0.40392
G1 X198.275 Y56.185 E0.45286
G1 X198.275 Y92.655 E2.66383
M73 P2 R46
G1 X204.475 Y92.655 E0.45286
G1 X204.475 Y98.185 E0.40392
G1 X189.824 Y98.185 E1.07012
G1 X189.824 Y101.475 E0.24031
G1 X143.176 Y101.475 E3.40728
G1 X143.176 Y98.185 E0.24031
G1 X128.525 Y98.185 E1.07012
G1 X128.525 Y92.655 E0.40392
M73 P3 R46
M73 Q3 S47
G1 X134.725 Y92.655 E0.45286
G1 X134.725 Y56.185 E2.66383
G1 X128.525 Y56.185 E0.45286
G1 X128.525 Y50.655 E0.40392
G1 X143.176 Y50.655 E1.07012
G1 X143.176 Y47.365 E0.24031
G1 X189.824 Y47.365 E3.40728
G1 X189.824 Y50.565 E0.23373
G1 X190.112 Y51.182 F10800.000
;WIPE_START
G1 F8640.000
G1 X194.761 Y50.595 E-1.14000
;WIPE_END
G1 E-0.06000 F2100.000
G1 Z0.700 F10800.000
G1 X187.827 Y48.126
G1 Z0.300
G1 E1.20000 F2100.000
;TYPE:Solid infill
;WIDTH:0.674601
G1 F1200.000
G1 X188.799 Y49.099 E0.10467
G1 X188.799 Y49.962 E0.06568
G1 X187.227 Y48.390 E0.16919
G1 X186.500 Y48.390 E0.05538
G1 X186.500 Y48.525 E0.01031
G1 X188.235 Y50.261 E0.18680
G1 X188.056 Y50.212 E0.01411
G1 X187.451 Y50.164 E0.04619
G1 X187.294 Y50.182 E0.01204
G1 X186.310 Y49.198 E0.10597
G1 X186.203 Y49.198 E0.00809
G1 X186.198 Y49.949 E0.05719
G1 X186.773 Y50.525 E0.06192
;WIPE_START
G1 F8640.000
