; generated by PrusaSlicer 2.2.0+linux-x64 on 2020-12-06 at 00:18:46 UTC

; 

; external perimeters extrusion width = 0.45mm
; perimeters extrusion width = 0.45mm
; infill extrusion width = 0.45mm
; solid infill extrusion width = 0.45mm
; top infill extrusion width = 0.40mm
; first layer extrusion width = 0.42mm

M73 P0 R105
M73 Q0 S106
M201 X1000 Y1000 Z200 E5000 ; sets maximum accelerations, mm/sec^2
M203 X200 Y200 Z12 E120 ; sets maximum feedrates, mm/sec
M204 P1250 R1250 T1250 ; sets acceleration (P, T) and retract acceleration (R), mm/sec^2
M205 X8.00 Y8.00 Z0.40 E4.50 ; sets the jerk limits, mm/sec
M205 S0 T0 ; sets the minimum extruding and travel feed rate, mm/sec
M107
M862.3 P "MK3S" ; printer model check
M862.1 P0.4 ; nozzle diameter check
M115 U3.9.1 ; tell printer latest fw version
G90 ; use absolute coordinates
M83 ; extruder relative mode
M104 S215 ; set extruder temp
M140 S65 ; set bed temp
M190 S65 ; wait for bed temp
M109 S215 ; wait for extruder temp
G28 W ; home all without mesh bed level
G80 ; mesh bed leveling
G1 Y-3.0 F1000.0 ; go outside print area
G92 E0.0
G1 X60.0 E9.0 F1000.0 ; intro line
M73 Q0 S106
M73 P0 R105
G1 X100.0 E12.5 F1000.0 ; intro line
G92 E0.0
M221 S95

; Don't change E values below. Excessive value can damage the printer.
M907 E430 ; set extruder motor current
G21 ; set units to millimeters
G90 ; use absolute coordinates
M83 ; use relative distances for extrusion
M900 K0.05 ; Filament gcode LA 1.5
M900 K30 ; Filament gcode LA 1.0
;BEFORE_LAYER_CHANGE
G92 E0.0
;0.2


G1 E-0.80000 F2100.00000
G1 Z0.600 F10800.000
;AFTER_LAYER_CHANGE
;0.2
G1 X55.685 Y40.594
G1 Z0.200
G1 E0.80000 F2100.00000
M204 S1000
G1 F1200.000
G1 X56.133 Y40.247 E0.01777
G1 X56.608 Y40.013 E0.01660
G1 X57.586 Y39.826 E0.03123
G1 X192.404 Y39.826 E4.22711
G1 X193.411 Y40.020 E0.03215
G1 X193.893 Y40.263 E0.01692
G1 X194.354 Y40.632 E0.01851
G1 X194.725 Y41.089 E0.01846
G1 X194.972 Y41.571 E0.01699
G1 X195.173 Y42.568 E0.03189
G1 X195.174 Y165.800 E3.86386
G1 X195.038 Y166.866 E0.03368
G1 X194.715 Y167.724 E0.02873
G1 X194.456 Y168.184 E0.01657
G1 X193.843 Y168.936 E0.03042
G1 X193.030 Y169.558 E0.03209
G1 X192.211 Y169.927 E0.02816
G1 X191.721 Y170.067 E0.01597
G1 X190.795 Y170.174 E0.02924
G1 X59.226 Y170.174 E4.12524
G1 X58.141 Y170.039 E0.03427
G1 X57.280 Y169.716 E0.02885
G1 X56.816 Y169.456 E0.01669
G1 X56.064 Y168.843 E0.03043
G1 X55.442 Y168.030 E0.03208
G1 X55.071 Y167.208 E0.02828
G1 X54.932 Y166.718 E0.01597
G1 X54.827 Y165.786 E0.02939
G1 X54.826 Y42.585 E3.86289
G1 X54.895 Y41.988 E0.01882
G1 X55.072 Y41.465 E0.01731
G1 X55.650 Y40.643 E0.03152
G1 F8640.000
G1 X56.133 Y40.247 E-0.14418
G1 X56.608 Y40.013 E-0.12227
G1 X57.586 Y39.826 E-0.22998
G1 X58.728 Y39.826 E-0.26358
G1 E-0.04000 F2100.00000
G1 Z0.800 F10800.000
G1 X116.093 Y77.464
G1 Z0.200
G1 E0.80000 F2100.00000
G1 F1200.000
G1 X116.263 Y77.243 E0.00873
G1 X116.484 Y77.073 E0.00875
G1 X116.826 Y76.977 E0.01115
G1 X144.374 Y76.977 E0.86373
G1 X144.716 Y77.073 E0.01113
G1 X144.938 Y77.243 E0.00877
G1 X145.107 Y77.464 E0.00873
G1 X145.203 Y77.806 E0.01114
G1 X145.203 Y110.994 E1.04057
G1 X145.107 Y111.336 E0.01114
G1 X144.938 Y111.557 E0.00874
G1 X144.715 Y111.727 E0.00877
G1 X144.374 Y111.823 E0.01113
G1 X116.826 Y111.823 E0.86372
G1 X116.484 Y111.727 E0.01115
G1 X116.263 Y111.557 E0.00875
G1 X116.093 Y111.336 E0.00874
G1 X115.997 Y110.994 E0.01115
G1 X115.997 Y77.806 E1.04056
G1 X116.077 Y77.522 E0.00927
G1 X116.436 Y77.636 F10800.000
G1 F1200.000
G1 X116.532 Y77.512 E0.00490
G1 X116.656 Y77.416 E0.00491
G1 X116.878 Y77.354 E0.00724
G1 X144.322 Y77.354 E0.86049
G1 X144.544 Y77.416 E0.00723
G1 X144.669 Y77.512 E0.00492
G1 X144.763 Y77.636 E0.00489
G1 X144.826 Y77.858 E0.00724
G1 X144.826 Y110.942 E1.03732
G1 X144.763 Y111.164 E0.00724
G1 X144.669 Y111.288 E0.00490
G1 X144.544 Y111.384 E0.00492
G1 X144.322 Y111.446 E0.00723
G1 X116.878 Y111.446 E0.86048
G1 X116.656 Y111.384 E0.00724
G1 X116.532 Y111.288 E0.00490
G1 X116.436 Y111.164 E0.00490
G1 X116.374 Y110.942 E0.00724
G1 X116.374 Y77.858 E1.03732
G1 X116.420 Y77.693 E0.00536
G1 X116.347 Y77.508 F10800.000
G1 F8640.000
G1 X116.532 Y77.512 E-0.04918
G1 X116.656 Y77.416 E-0.03613
G1 X116.878 Y77.354 E-0.05331
G1 X119.569 Y77.354 E-0.62138
G1 E-0.04000 F2100.00000
G1 Z0.800 F10800.000
G1 X147.044 Y77.073
G1 Z0.200
G1 E0.80000 F2100.00000
G1 F1200.000
G1 X147.386 Y76.977 E0.01113
G1 X174.934 Y76.977 E0.86373
G1 X175.276 Y77.073 E0.01115
G1 X175.497 Y77.243 E0.00874
G1 X175.667 Y77.463 E0.00872
G1 X175.763 Y77.806 E0.01117
G1 X175.763 Y110.994 E1.04057
G1 X175.667 Y111.337 E0.01116
G1 X175.497 Y111.557 E0.00873
G1 X175.276 Y111.727 E0.00874
G1 X174.934 Y111.823 E0.01115
G1 X147.386 Y111.823 E0.86372
G1 X147.045 Y111.727 E0.01113
G1 X146.822 Y111.557 E0.00877
G1 X146.653 Y111.336 E0.00874
G1 X146.557 Y110.994 E0.01114
G1 X146.557 Y77.806 E1.04057
G1 X146.653 Y77.464 E0.01114
G1 X146.822 Y77.243 E0.00873
G1 X146.997 Y77.109 E0.00689
G1 X147.216 Y77.416 F10800.000
G1 F1200.000
G1 X147.438 Y77.354 E0.00723
G1 X174.882 Y77.354 E0.86049
G1 X175.104 Y77.416 E0.00724
G1 X175.228 Y77.512 E0.00490
G1 X175.323 Y77.635 E0.00489
G1 X175.386 Y77.858 E0.00726
G1 X175.386 Y110.942 E1.03732
G1 X175.323 Y111.165 E0.00725
G1 X175.228 Y111.288 E0.00489
G1 X175.104 Y111.384 E0.00490
G1 X174.882 Y111.446 E0.00724
G1 X147.438 Y111.446 E0.86048
G1 X147.216 Y111.384 E0.00723
G1 X147.091 Y111.288 E0.00492
G1 X146.997 Y111.164 E0.00490
G1 X146.934 Y110.942 E0.00724
G1 X146.934 Y77.858 E1.03732
G1 X146.997 Y77.636 E0.00724
G1 X147.091 Y77.512 E0.00489
G1 X147.168 Y77.453 E0.00304
G1 X147.234 Y77.187 F10800.000
G1 F8640.000
G1 X147.438 Y77.354 E-0.06629
G1 X150.442 Y77.354 E-0.69371
G1 E-0.04000 F2100.00000
G1 Z0.800 F10800.000
G1 X189.713 Y77.655
G1 Z0.200
G1 E0.80000 F2100.00000
G1 F1200.000
G1 X189.723 Y110.994 E1.04531
G1 X189.627 Y111.336 E0.01115
G1 X189.433 Y111.589 E0.00998
G1 X189.045 Y111.813 E0.01406
G1 X177.947 Y111.823 E0.34798
G1 X177.605 Y111.727 E0.01114
M73 Q1 S105
G1 X177.351 Y111.534 E0.00999
G1 X177.127 Y111.145 E0.01407
G1 X177.117 Y77.806 E1.04531
M73 P1 R104
G1 X177.213 Y77.464 E0.01114
G1 X177.382 Y77.243 E0.00873
G1 X177.604 Y77.073 E0.00877
G1 X177.946 Y76.977 E0.01113
G1 X188.894 Y76.977 E0.34325
G1 X189.236 Y77.073 E0.01115
G1 X189.489 Y77.267 E0.00998
G1 X189.683 Y77.603 E0.01217
G1 X189.336 Y77.756 F10800.000
G1 F1200.000
G1 X189.346 Y110.942 E1.04052
G1 X189.284 Y111.164 E0.00724
G1 X189.180 Y111.300 E0.00534
G1 X188.944 Y111.436 E0.00854
G1 X177.998 Y111.446 E0.34319
G1 X177.776 Y111.384 E0.00723
G1 X177.640 Y111.280 E0.00535
G1 X177.504 Y111.044 E0.00855
G1 X177.494 Y77.858 E1.04052
G1 X177.557 Y77.636 E0.00724
G1 X177.651 Y77.512 E0.00489
G1 X177.776 Y77.416 E0.00492
G1 X177.998 Y77.354 E0.00723
G1 X188.842 Y77.354 E0.34001
G1 X189.064 Y77.416 E0.00724
G1 X189.200 Y77.520 E0.00535
G1 X189.306 Y77.704 E0.00666
G1 X189.718 Y77.874 F10800.000
G1 F8640.000
G1 X189.310 Y80.996 E-0.76000
G1 E-0.04000 F2100.00000
G1 Z0.800 F10800.000
G1 X114.156 Y77.073
G1 Z0.200
G1 E0.80000 F2100.00000
G1 F1200.000
G1 X114.378 Y77.243 E0.00877
G1 X114.547 Y77.464 E0.00873
G1 X114.643 Y77.806 E0.01114
G1 X114.643 Y110.994 E1.04057
G1 X114.547 Y111.336 E0.01114
G1 X114.378 Y111.557 E0.00875
G1 X114.155 Y111.727 E0.00877
G1 X113.814 Y111.823 E0.01113
G1 X86.266 Y111.823 E0.86372
G1 X85.925 Y111.727 E0.01113
G1 X85.702 Y111.557 E0.00877
G1 X85.533 Y111.336 E0.00874
G1 X85.437 Y110.994 E0.01114
G1 X85.437 Y77.806 E1.04057
G1 X85.533 Y77.464 E0.01114
G1 X85.702 Y77.243 E0.00873
G1 X85.924 Y77.073 E0.00877
G1 X86.266 Y76.977 E0.01113
G1 X113.814 Y76.977 E0.86373
G1 X114.098 Y77.057 E0.00925
G1 X113.984 Y77.416 F10800.000
G1 F1200.000
G1 X114.109 Y77.512 E0.00492
G1 X114.203 Y77.636 E0.00489
G1 X114.266 Y77.858 E0.00724
G1 X114.266 Y110.942 E1.03732
G1 X114.203 Y111.164 E0.00724
G1 X114.109 Y111.288 E0.00490
G1 X113.984 Y111.384 E0.00492
G1 X113.762 Y111.446 E0.00723
G1 X86.318 Y111.446 E0.86048
G1 X86.096 Y111.384 E0.00723
G1 X85.971 Y111.288 E0.00492
G1 X85.877 Y111.164 E0.00490
G1 X85.814 Y110.942 E0.00724
G1 X85.814 Y77.858 E1.03732
G1 X85.877 Y77.636 E0.00724
G1 X85.971 Y77.512 E0.00489
G1 X86.096 Y77.416 E0.00492
G1 X86.318 Y77.354 E0.00723
G1 X113.762 Y77.354 E0.86049
G1 X113.926 Y77.400 E0.00535
G1 X114.113 Y77.326 F10800.000
G1 F8640.000
G1 X114.109 Y77.512 E-0.04935
G1 X114.203 Y77.636 E-0.03603
G1 X114.266 Y77.858 E-0.05335
G1 X114.266 Y80.549 E-0.62128
G1 E-0.04000 F2100.00000
G1 Z0.800 F10800.000
G1 X83.976 Y77.425
G1 Z0.200
G1 E0.80000 F2100.00000
G1 F1200.000
G1 X84.083 Y77.806 E0.01242
G1 X84.083 Y110.994 E1.04057
G1 X83.976 Y111.375 E0.01242
G1 X83.635 Y111.716 E0.01513
G1 X83.254 Y111.823 E0.01241
G1 X61.106 Y111.823 E0.69441
G1 X60.725 Y111.716 E0.01242
G1 X60.384 Y111.375 E0.01513
G1 X60.277 Y110.994 E0.01241
G1 X60.277 Y77.806 E1.04057
G1 X60.373 Y77.464 E0.01115
G1 X60.543 Y77.243 E0.00873
G1 X60.764 Y77.073 E0.00874
G1 X61.106 Y76.977 E0.01115
G1 X83.254 Y76.977 E0.69442
G1 X83.635 Y77.084 E0.01240
G1 X83.933 Y77.382 E0.01324
G1 X83.639 Y77.622 F10800.000
G1 F1200.000
G1 X83.706 Y77.858 E0.00770
G1 X83.706 Y110.942 E1.03732
G1 X83.640 Y111.178 E0.00770
G1 X83.438 Y111.380 E0.00893
G1 X83.202 Y111.446 E0.00769
G1 X61.158 Y111.446 E0.69117
G1 X60.922 Y111.380 E0.00770
G1 X60.720 Y111.178 E0.00893
G1 X60.654 Y110.942 E0.00769
G1 X60.654 Y77.858 E1.03733
G1 X60.717 Y77.636 E0.00724
G1 X60.812 Y77.512 E0.00489
G1 X60.936 Y77.416 E0.00490
G1 X61.158 Y77.354 E0.00724
G1 X83.202 Y77.354 E0.69118
G1 X83.438 Y77.420 E0.00768
G1 X83.597 Y77.579 E0.00705
G1 X83.885 Y77.622 F10800.000
G1 F8640.000
G1 X83.706 Y77.858 E-0.06911
G1 X83.706 Y80.850 E-0.69089
G1 E-0.04000 F2100.00000
G1 Z0.800 F10800.000
G1 X189.045 Y118.987
G1 Z0.200
G1 E0.80000 F2100.00000
G1 F1200.000
G1 X189.434 Y119.212 E0.01407
G1 X189.627 Y119.464 E0.00998
G1 X189.723 Y119.806 E0.01113
G1 X189.723 Y161.843 E1.31802
G1 X189.647 Y162.453 E0.01928
G1 X189.593 Y162.656 E0.00658
G1 X189.369 Y163.196 E0.01833
G1 X189.040 Y163.659 E0.01782
G1 X188.807 Y163.926 E0.01111
G1 X188.350 Y164.276 E0.01806
G1 X188.170 Y164.380 E0.00651
G1 X187.656 Y164.593 E0.01745
G1 X187.453 Y164.647 E0.00658
G1 X186.843 Y164.723 E0.01928
G1 X63.157 Y164.723 E3.87807
G1 X62.547 Y164.647 E0.01928
G1 X62.344 Y164.593 E0.00658
G1 X61.830 Y164.380 E0.01745
G1 X61.650 Y164.276 E0.00651
G1 X61.209 Y163.938 E0.01744
G1 X61.062 Y163.791 E0.00651
G1 X60.724 Y163.350 E0.01744
G1 X60.620 Y163.170 E0.00651
G1 X60.407 Y162.656 E0.01745
G1 X60.353 Y162.453 E0.00658
G1 X60.277 Y161.843 E0.01928
G1 X60.277 Y119.806 E1.31802
G1 X60.373 Y119.464 E0.01113
G1 X60.543 Y119.243 E0.00876
G1 X60.764 Y119.073 E0.00875
G1 X61.106 Y118.977 E0.01114
G1 X188.985 Y118.987 E4.00955
G1 X188.944 Y119.364 F10800.000
G1 F1200.000
G1 X189.180 Y119.500 E0.00855
G1 X189.284 Y119.636 E0.00535
G1 X189.346 Y119.858 E0.00723
G1 X189.346 Y161.819 E1.31567
G1 X189.276 Y162.381 E0.01773
G1 X189.235 Y162.534 E0.00499
G1 X189.037 Y163.012 E0.01621
G1 X188.744 Y163.425 E0.01589
G1 X188.547 Y163.649 E0.00935
G1 X188.140 Y163.962 E0.01611
G1 X188.003 Y164.041 E0.00496
G1 X187.534 Y164.235 E0.01589
G1 X187.381 Y164.276 E0.00499
G1 X186.819 Y164.346 E0.01773
G1 X63.181 Y164.346 E3.87661
M73 Q1 S104
G1 X62.619 Y164.276 E0.01773
G1 X62.466 Y164.235 E0.00499
G1 X61.997 Y164.041 E0.01589
G1 X61.860 Y163.962 E0.00496
G1 X61.458 Y163.654 E0.01589
G1 X61.346 Y163.542 E0.00496
G1 X61.038 Y163.140 E0.01589
G1 X60.959 Y163.003 E0.00496
G1 X60.765 Y162.534 E0.01589
G1 X60.724 Y162.381 E0.00499
G1 X60.654 Y161.819 E0.01773
G1 X60.654 Y119.858 E1.31567
M73 P1 R103
G1 X60.716 Y119.636 E0.00723
G1 X60.812 Y119.512 E0.00491
G1 X60.936 Y119.416 E0.00490
G1 X61.158 Y119.354 E0.00724
G1 X188.884 Y119.364 E4.00476
G1 X189.153 Y119.189 F10800.000
G1 F8640.000
G1 X189.180 Y119.500 E-0.07524
G1 X189.284 Y119.636 E-0.03937
G1 X189.346 Y119.858 E-0.05326
G1 X189.346 Y122.422 E-0.59213
G1 E-0.04000 F2100.00000
G1 Z0.800 F10800.000
G1 X190.645 Y69.813
G1 Z0.200
G1 E0.80000 F2100.00000
G1 F1200.000
G1 X191.034 Y69.588 E0.01410
G1 X191.227 Y69.335 E0.00998
G1 X191.323 Y68.994 E0.01113
G1 X191.323 Y43.123 E0.81116
G1 X191.877 Y43.123 E0.01738
G1 X191.877 Y165.722 E3.84401
G1 X191.831 Y166.076 E0.01120
G1 X191.724 Y166.333 E0.00873
G1 X191.554 Y166.554 E0.00873
G1 X191.333 Y166.724 E0.00873
G1 X191.076 Y166.831 E0.00873
G1 X190.722 Y166.877 E0.01120
G1 X59.278 Y166.877 E4.12134
G1 X58.924 Y166.831 E0.01120
G1 X58.667 Y166.724 E0.00873
G1 X58.446 Y166.554 E0.00873
G1 X58.276 Y166.333 E0.00873
G1 X58.169 Y166.076 E0.00873
G1 X58.123 Y165.722 E0.01120
G1 X58.123 Y43.123 E3.84400
G1 X58.677 Y43.124 E0.01738
G1 X58.677 Y68.994 E0.81114
G1 X58.773 Y69.335 E0.01113
G1 X58.942 Y69.558 E0.00876
G1 X59.165 Y69.727 E0.00877
G1 X59.506 Y69.823 E0.01112
G1 X190.585 Y69.813 E4.10987
G1 X190.544 Y69.436 F10800.000
G1 F1200.000
G1 X190.780 Y69.300 E0.00856
G1 X190.884 Y69.164 E0.00534
G1 X190.946 Y68.942 E0.00723
G1 X190.946 Y42.746 E0.82136
G1 X192.254 Y42.746 E0.04103
G1 X192.254 Y165.747 E3.85661
G1 X192.198 Y166.175 E0.01353
G1 X192.053 Y166.524 E0.01185
G1 X191.823 Y166.823 E0.01185
G1 X191.524 Y167.053 E0.01185
G1 X191.175 Y167.198 E0.01185
G1 X190.747 Y167.254 E0.01353
G1 X59.253 Y167.254 E4.12289
G1 X58.825 Y167.198 E0.01353
G1 X58.476 Y167.053 E0.01185
G1 X58.177 Y166.823 E0.01185
G1 X57.947 Y166.524 E0.01185
G1 X57.802 Y166.175 E0.01185
G1 X57.746 Y165.747 E0.01353
G1 X57.746 Y42.746 E3.85661
G1 X59.054 Y42.747 E0.04103
G1 X59.054 Y68.942 E0.82132
M73 Q2 S103
G1 X59.116 Y69.164 E0.00723
G1 X59.211 Y69.288 E0.00491
G1 X59.336 Y69.384 E0.00491
G1 X59.558 Y69.446 E0.00723
G1 X190.484 Y69.436 E4.10508
M73 P3 R102
G1 X190.753 Y69.612 F10800.000
G1 F8640.000
G1 X190.780 Y69.300 E-0.07536
G1 X190.884 Y69.164 E-0.03934
G1 X190.946 Y68.942 E-0.05328
G1 X190.946 Y66.378 E-0.59203
G1 E-0.04000 F2100.00000
G1 Z0.800 F10800.000
G1 X191.547 Y69.416
G1 Z0.200
G1 E0.80000 F2100.00000
G1 F1200.000
G1 X191.573 Y69.230 E0.00388
G1 X191.598 Y69.044 E0.00335
G1 X191.600 Y43.311 E0.38647
G1 F8640.000
G1 X191.600 Y46.603 E-0.76000
G1 E-0.04000 F2100.00000
G1 Z0.800 F10800.000
G1 X191.764 Y70.326
G1 Z0.200
G1 E0.80000 F2100.00000
G1 F1200.000
G1 X191.232 Y69.795 E0.02361
G1 X190.898 Y69.994 E0.01224
G1 X191.594 Y70.691 E0.03095
G1 X191.594 Y71.225 E0.01677
G1 X190.466 Y70.096 E0.05013
G1 X189.931 Y70.096 E0.01677
G1 X191.594 Y71.759 E0.07386
G1 X191.594 Y72.293 E0.01677
G1 X189.397 Y70.096 E0.09758
G1 X188.863 Y70.096 E0.01677
G1 X191.594 Y72.827 E0.12130
G1 X191.594 Y73.361 E0.01677
G1 X188.329 Y70.096 E0.14502
G1 X187.795 Y70.096 E0.01677
G1 X191.594 Y73.895 E0.16874
G1 X191.594 Y74.430 E0.01677
G1 X187.261 Y70.096 E0.19246
G1 X186.727 Y70.096 E0.01677
G1 X191.594 Y74.964 E0.21618
G1 X191.594 Y75.498 E0.01677
G1 X186.193 Y70.096 E0.23990
G1 X185.659 Y70.096 E0.01677
G1 X191.594 Y76.032 E0.26363
G1 X191.594 Y76.566 E0.01677
G1 X185.125 Y70.096 E0.28735
G1 X184.591 Y70.096 E0.01677
G1 X191.594 Y77.100 E0.31107
G1 X191.594 Y77.634 E0.01677
G1 X184.056 Y70.096 E0.33479
G1 X183.522 Y70.096 E0.01677
G1 X191.594 Y78.168 E0.35851
G1 X191.594 Y78.703 E0.01677
G1 X182.988 Y70.096 E0.38223
G1 X182.454 Y70.096 E0.01677
G1 X189.098 Y76.741 E0.29510
G1 X188.933 Y76.694 E0.00541
G1 X188.518 Y76.694 E0.01302
G1 X181.920 Y70.097 E0.29304
G1 X181.386 Y70.097 E0.01677
G1 X187.984 Y76.694 E0.29303
G1 X187.450 Y76.694 E0.01677
G1 X180.852 Y70.097 E0.29303
G1 X180.318 Y70.097 E0.01677
G1 X186.915 Y76.694 E0.29303
G1 X186.381 Y76.694 E0.01677
G1 X179.784 Y70.097 E0.29303
G1 X179.250 Y70.097 E0.01677
G1 X185.847 Y76.694 E0.29303
G1 X185.313 Y76.694 E0.01677
G1 X178.715 Y70.097 E0.29303
G1 X178.181 Y70.097 E0.01677
G1 X184.779 Y76.694 E0.29302
G1 X184.245 Y76.694 E0.01677
G1 X177.647 Y70.097 E0.29302
G1 X177.113 Y70.097 E0.01677
G1 X183.711 Y76.694 E0.29302
G1 X183.177 Y76.694 E0.01677
G1 X176.579 Y70.097 E0.29302
G1 X176.045 Y70.097 E0.01677
G1 X182.642 Y76.694 E0.29302
G1 X182.108 Y76.694 E0.01677
G1 X175.511 Y70.097 E0.29301
G1 X174.977 Y70.097 E0.01677
