; generated by PrusaSlicer 2.2.0+linux-x64 on 2020-12-06 at 00:19:12 UTC

; 

; external perimeters extrusion width = 0.45mm
; perimeters extrusion width = 0.45mm
; infill extrusion width = 0.45mm
; solid infill extrusion width = 0.45mm
; top infill extrusion width = 0.40mm
; first layer extrusion width = 0.42mm

M73 P0 R93
M73 Q0 S95
M201 X1000 Y1000 Z200 E5000 ; sets maximum accelerations, mm/sec^2
M203 X200 Y200 Z12 E120 ; sets maximum feedrates, mm/sec
M204 P1250 R1250 T1250 ; sets acceleration (P, T) and retract acceleration (R), mm/sec^2
M205 X8.00 Y8.00 Z0.40 E4.50 ; sets the jerk limits, mm/sec
M205 S0 T0 ; sets the minimum extruding and travel feed rate, mm/sec
M107
M862.3 P "MK3S" ; printer model check
M862.1 P0.4 ; nozzle diameter check
M115 U3.9.1 ; tell printer latest fw version
G90 ; use absolute coordinates
M83 ; extruder relative mode
M104 S215 ; set extruder temp
M140 S65 ; set bed temp
M190 S65 ; wait for bed temp
M109 S215 ; wait for extruder temp
G28 W ; home all without mesh bed level
G80 ; mesh bed leveling
G1 Y-3.0 F1000.0 ; go outside print area
G92 E0.0
G1 X60.0 E9.0 F1000.0 ; intro line
M73 Q0 S95
M73 P0 R93
G1 X100.0 E12.5 F1000.0 ; intro line
G92 E0.0
M221 S95

; Don't change E values below. Excessive value can damage the printer.
M907 E430 ; set extruder motor current
G21 ; set units to millimeters
G90 ; use absolute coordinates
M83 ; use relative distances for extrusion
M900 K0.05 ; Filament gcode LA 1.5
M900 K30 ; Filament gcode LA 1.0
;BEFORE_LAYER_CHANGE
G92 E0.0
;0.2


G1 E-0.80000 F2100.00000
G1 Z0.600 F10800.000
;AFTER_LAYER_CHANGE
;0.2
G1 X55.685 Y40.594
G1 Z0.200
G1 E0.80000 F2100.00000
M204 S1000
G1 F1200.000
G1 X56.133 Y40.247 E0.01777
G1 X56.608 Y40.013 E0.01660
G1 X57.586 Y39.826 E0.03123
G1 X192.404 Y39.826 E4.22711
G1 X193.411 Y40.020 E0.03215
G1 X193.893 Y40.263 E0.01692
G1 X194.354 Y40.632 E0.01851
G1 X194.725 Y41.089 E0.01846
G1 X194.972 Y41.571 E0.01699
G1 X195.173 Y42.568 E0.03189
G1 X195.174 Y165.800 E3.86386
G1 X195.038 Y166.866 E0.03368
G1 X194.715 Y167.724 E0.02873
G1 X194.456 Y168.184 E0.01657
G1 X193.843 Y168.936 E0.03042
G1 X193.030 Y169.558 E0.03209
G1 X192.211 Y169.927 E0.02816
G1 X191.721 Y170.067 E0.01597
G1 X190.795 Y170.174 E0.02924
G1 X59.226 Y170.174 E4.12524
G1 X58.141 Y170.039 E0.03427
G1 X57.280 Y169.716 E0.02885
G1 X56.816 Y169.456 E0.01669
G1 X56.064 Y168.843 E0.03043
G1 X55.442 Y168.030 E0.03208
G1 X55.071 Y167.208 E0.02828
G1 X54.932 Y166.718 E0.01597
G1 X54.827 Y165.786 E0.02939
G1 X54.826 Y42.585 E3.86289
G1 X54.895 Y41.988 E0.01882
G1 X55.072 Y41.465 E0.01731
G1 X55.650 Y40.643 E0.03152
G1 F8640.000
G1 X56.133 Y40.247 E-0.14418
G1 X56.608 Y40.013 E-0.12227
G1 X57.586 Y39.826 E-0.22998
G1 X58.728 Y39.826 E-0.26358
G1 E-0.04000 F2100.00000
G1 Z0.800 F10800.000
G1 X89.430 Y164.713
G1 Z0.200
G1 E0.80000 F2100.00000
G1 F1200.000
G1 X89.042 Y164.489 E0.01406
G1 X88.848 Y164.237 E0.00996
G1 X88.752 Y163.894 E0.01117
G1 X88.752 Y126.506 E1.17226
G1 X88.848 Y126.164 E0.01115
G1 X89.018 Y125.942 E0.00875
G1 X89.239 Y125.773 E0.00874
G1 X89.581 Y125.677 E0.01114
G1 X186.320 Y125.687 E3.03318
G1 X186.708 Y125.911 E0.01407
G1 X186.902 Y126.164 E0.00997
G1 X186.998 Y126.506 E0.01115
G1 X186.988 Y164.045 E1.17700
G1 X186.764 Y164.433 E0.01406
G1 X186.511 Y164.627 E0.00997
G1 X186.169 Y164.723 E0.01115
G1 X89.490 Y164.713 E3.03129
G1 X89.531 Y164.336 F10800.000
G1 F1200.000
G1 X89.295 Y164.200 E0.00854
G1 X89.192 Y164.065 E0.00533
G1 X89.129 Y163.842 E0.00726
G1 X89.129 Y126.558 E1.16901
G1 X89.192 Y126.336 E0.00725
G1 X89.287 Y126.211 E0.00490
G1 X89.411 Y126.117 E0.00490
G1 X89.633 Y126.054 E0.00724
G1 X186.219 Y126.064 E3.02838
G1 X186.455 Y126.200 E0.00854
G1 X186.558 Y126.336 E0.00534
G1 X186.621 Y126.558 E0.00725
G1 X186.611 Y163.944 E1.17220
G1 X186.475 Y164.180 E0.00854
G1 X186.339 Y164.284 E0.00534
G1 X186.117 Y164.346 E0.00724
G1 X89.591 Y164.336 E3.02650
G1 X89.322 Y164.511 F10800.000
G1 F8640.000
G1 X89.295 Y164.200 E-0.07524
G1 X89.192 Y164.065 E-0.03924
G1 X89.129 Y163.842 E-0.05344
G1 X89.129 Y161.278 E-0.59208
G1 E-0.04000 F2100.00000
G1 Z0.800 F10800.000
G1 X84.491 Y164.275
G1 Z0.200
G1 E0.80000 F2100.00000
G1 F1200.000
G1 X84.150 Y164.616 E0.01512
G1 X83.769 Y164.723 E0.01240
G1 X63.831 Y164.723 E0.62513
M73 Q1 S94
G1 X63.450 Y164.616 E0.01241
G1 X63.109 Y164.276 E0.01511
G1 X63.002 Y163.894 E0.01243
G1 X63.002 Y126.506 E1.17226
M73 P1 R92
G1 X63.098 Y126.164 E0.01115
G1 X63.268 Y125.942 E0.00875
G1 X63.489 Y125.773 E0.00874
G1 X63.831 Y125.677 E0.01114
G1 X83.769 Y125.677 E0.62513
G1 X84.150 Y125.784 E0.01241
G1 X84.491 Y126.125 E0.01512
G1 X84.598 Y126.506 E0.01242
G1 X84.598 Y163.894 E1.17226
G1 X84.507 Y164.218 E0.01054
G1 X84.154 Y164.078 F10800.000
G1 F1200.000
G1 X83.953 Y164.280 E0.00893
G1 X83.717 Y164.346 E0.00768
G1 X63.883 Y164.346 E0.62188
G1 X63.647 Y164.280 E0.00769
G1 X63.446 Y164.079 E0.00892
G1 X63.379 Y163.842 E0.00771
G1 X63.379 Y126.558 E1.16901
G1 X63.442 Y126.336 E0.00725
G1 X63.537 Y126.211 E0.00490
G1 X63.661 Y126.117 E0.00490
G1 X63.883 Y126.054 E0.00724
G1 X83.717 Y126.054 E0.62188
G1 X83.953 Y126.120 E0.00769
G1 X84.155 Y126.322 E0.00893
G1 X84.221 Y126.558 E0.00769
G1 X84.221 Y163.842 E1.16901
G1 X84.171 Y164.021 E0.00582
G1 X84.297 Y164.325 F10800.000
G1 F8640.000
G1 X83.953 Y164.280 E-0.07813
G1 X83.717 Y164.346 E-0.05658
G1 X81.009 Y164.346 E-0.62529
G1 E-0.04000 F2100.00000
G1 Z0.800 F10800.000
G1 X83.920 Y123.513
G1 Z0.200
G1 E0.80000 F2100.00000
G1 F1200.000
G1 X63.831 Y123.523 E0.62986
G1 X63.489 Y123.427 E0.01116
G1 X63.236 Y123.233 E0.00997
G1 X63.012 Y122.845 E0.01406
G1 X63.002 Y71.306 E1.61596
G1 X63.098 Y70.963 E0.01117
G1 X63.268 Y70.743 E0.00872
G1 X63.489 Y70.573 E0.00874
G1 X63.831 Y70.477 E0.01115
G1 X83.769 Y70.477 E0.62513
G1 X84.111 Y70.573 E0.01113
G1 X84.364 Y70.767 E0.00999
G1 X84.588 Y71.155 E0.01406
G1 X84.598 Y122.694 E1.61596
G1 X84.502 Y123.036 E0.01114
G1 X84.309 Y123.288 E0.00996
G1 X83.972 Y123.483 E0.01220
G1 X83.819 Y123.136 F10800.000
G1 F1200.000
G1 X63.883 Y123.146 E0.62507
G1 X63.661 Y123.084 E0.00724
G1 X63.525 Y122.980 E0.00534
G1 X63.389 Y122.744 E0.00854
G1 X63.379 Y71.358 E1.61116
G1 X63.442 Y71.135 E0.00726
G1 X63.537 Y71.012 E0.00489
G1 X63.661 Y70.916 E0.00490
G1 X63.883 Y70.854 E0.00724
G1 X83.717 Y70.854 E0.62188
G1 X83.939 Y70.916 E0.00723
G1 X84.075 Y71.020 E0.00536
G1 X84.211 Y71.256 E0.00854
G1 X84.221 Y122.642 E1.61117
G1 X84.158 Y122.864 E0.00724
G1 X84.055 Y122.999 E0.00533
G1 X83.871 Y123.106 E0.00667
G1 X83.701 Y123.518 F10800.000
G1 F8640.000
G1 X80.579 Y123.112 E-0.76000
G1 E-0.04000 F2100.00000
G1 Z0.800 F10800.000
G1 X89.200 Y123.416
G1 Z0.200
G1 E0.80000 F2100.00000
G1 F1200.000
G1 X88.859 Y123.076 E0.01511
G1 X88.752 Y122.694 E0.01243
G1 X88.752 Y71.306 E1.61122
G1 X88.848 Y70.963 E0.01117
G1 X89.018 Y70.743 E0.00872
G1 X89.239 Y70.573 E0.00874
G1 X89.581 Y70.477 E0.01115
G1 X186.169 Y70.477 E3.02844
G1 X186.550 Y70.584 E0.01241
G1 X186.891 Y70.924 E0.01511
G1 X186.998 Y71.306 E0.01243
G1 X186.998 Y122.694 E1.61122
G1 X186.891 Y123.076 E0.01243
G1 X186.550 Y123.416 E0.01511
G1 X186.169 Y123.523 E0.01241
G1 X89.581 Y123.523 E3.02844
G1 X89.258 Y123.432 E0.01053
G1 X89.397 Y123.080 F10800.000
G1 F1200.000
G1 X89.196 Y122.879 E0.00892
G1 X89.129 Y122.642 E0.00771
G1 X89.129 Y71.358 E1.60797
G1 X89.192 Y71.135 E0.00726
G1 X89.287 Y71.012 E0.00489
G1 X89.411 Y70.916 E0.00490
G1 X89.633 Y70.854 E0.00724
G1 X186.117 Y70.854 E3.02519
G1 X186.353 Y70.920 E0.00769
G1 X186.554 Y71.121 E0.00892
G1 X186.621 Y71.358 E0.00771
G1 X186.621 Y122.642 E1.60797
G1 X186.554 Y122.879 E0.00771
G1 X186.353 Y123.080 E0.00892
G1 X186.117 Y123.146 E0.00769
G1 X89.633 Y123.146 E3.02519
G1 X89.455 Y123.096 E0.00581
G1 X89.150 Y123.222 F10800.000
G1 F8640.000
G1 X89.196 Y122.879 E-0.07805
G1 X89.129 Y122.642 E-0.05677
G1 X89.129 Y119.934 E-0.62519
G1 E-0.04000 F2100.00000
G1 Z0.800 F10800.000
G1 X58.123 Y43.123
G1 Z0.200
G1 E0.80000 F2100.00000
G1 F1200.000
G1 X58.677 Y43.124 E0.01738
G1 X58.681 Y62.310 E0.60158
G1 X58.753 Y62.855 E0.01723
G1 X58.807 Y63.056 E0.00651
G1 X59.020 Y63.570 E0.01745
G1 X59.124 Y63.750 E0.00651
G1 X59.462 Y64.191 E0.01744
G1 X59.609 Y64.338 E0.00651
G1 X60.050 Y64.676 E0.01744
G1 X60.230 Y64.780 E0.00651
G1 X60.744 Y64.993 E0.01745
G1 X60.947 Y65.047 E0.00658
G1 X61.557 Y65.123 E0.01928
G1 X188.443 Y65.123 E3.97840
M73 Q2 S93
M73 P2 R91
G1 X189.053 Y65.047 E0.01928
G1 X189.256 Y64.993 E0.00658
G1 X189.770 Y64.780 E0.01745
G1 X189.950 Y64.676 E0.00651
G1 X190.391 Y64.338 E0.01744
G1 X190.538 Y64.191 E0.00651
G1 X190.876 Y63.750 E0.01744
G1 X190.980 Y63.570 E0.00651
G1 X191.193 Y63.056 E0.01745
G1 X191.247 Y62.855 E0.00651
G1 X191.319 Y62.310 E0.01723
G1 X191.326 Y43.123 E0.60161
G1 X191.877 Y43.123 E0.01727
G1 X191.877 Y165.722 E3.84401
G1 X191.831 Y166.076 E0.01120
G1 X191.724 Y166.333 E0.00873
G1 X191.554 Y166.554 E0.00873
G1 X191.333 Y166.724 E0.00873
G1 X191.076 Y166.831 E0.00873
G1 X190.722 Y166.877 E0.01120
G1 X59.278 Y166.877 E4.12134
G1 X58.924 Y166.831 E0.01120
G1 X58.667 Y166.724 E0.00873
G1 X58.446 Y166.554 E0.00873
G1 X58.276 Y166.333 E0.00873
G1 X58.169 Y166.076 E0.00873
G1 X58.123 Y165.722 E0.01120
G1 X58.123 Y43.183 E3.84212
G1 X57.746 Y42.746 F10800.000
G1 F1200.000
G1 X59.054 Y42.747 E0.04103
G1 X59.059 Y62.286 E0.61262
G1 X59.124 Y62.782 E0.01568
G1 X59.165 Y62.934 E0.00496
G1 X59.359 Y63.403 E0.01589
G1 X59.438 Y63.540 E0.00496
G1 X59.746 Y63.942 E0.01589
G1 X59.858 Y64.054 E0.00496
G1 X60.260 Y64.362 E0.01589
G1 X60.397 Y64.441 E0.00496
G1 X60.866 Y64.635 E0.01589
G1 X61.019 Y64.676 E0.00499
G1 X61.581 Y64.746 E0.01773
G1 X188.419 Y64.746 E3.97694
G1 X188.981 Y64.676 E0.01773
G1 X189.134 Y64.635 E0.00499
G1 X189.603 Y64.441 E0.01589
G1 X189.740 Y64.362 E0.00496
G1 X190.142 Y64.054 E0.01589
G1 X190.254 Y63.942 E0.00496
G1 X190.562 Y63.540 E0.01589
G1 X190.641 Y63.403 E0.00496
G1 X190.835 Y62.934 E0.01589
G1 X190.876 Y62.782 E0.00496
G1 X190.941 Y62.286 E0.01568
G1 X190.950 Y42.746 E0.61266
G1 X192.254 Y42.746 E0.04091
G1 X192.254 Y165.747 E3.85661
G1 X192.198 Y166.175 E0.01353
G1 X192.053 Y166.524 E0.01185
G1 X191.823 Y166.823 E0.01185
G1 X191.524 Y167.053 E0.01185
G1 X191.175 Y167.198 E0.01185
G1 X190.747 Y167.254 E0.01353
G1 X59.253 Y167.254 E4.12289
G1 X58.825 Y167.198 E0.01353
G1 X58.476 Y167.053 E0.01185
G1 X58.177 Y166.823 E0.01185
G1 X57.947 Y166.524 E0.01185
G1 X57.802 Y166.175 E0.01185
G1 X57.746 Y165.747 E0.01353
G1 X57.746 Y42.806 E3.85473
G1 X58.092 Y42.946 F10800.000
G1 X58.400 Y43.312
G1 F1200.000
G1 X58.403 Y62.335 E0.28843
G1 X58.421 Y62.622 E0.00526
G1 X58.442 Y62.926 E0.00661
G1 X58.467 Y63.114 E0.00434
G1 F8640.000
G1 X58.442 Y62.926 E-0.04391
G1 E-0.75609 F2100.00000
G1 Z0.800 F10800.000
G1 X78.722 Y65.236
G1 Z0.200
G1 E0.80000 F2100.00000
G1 F1200.000
G1 X83.681 Y70.194 E0.22012
G1 X83.147 Y70.194 E0.01676
G1 X78.358 Y65.406 E0.21259
G1 X77.824 Y65.406 E0.01676
G1 X82.613 Y70.194 E0.21259
G1 X82.079 Y70.194 E0.01676
G1 X77.290 Y65.406 E0.21259
G1 X76.757 Y65.406 E0.01676
G1 X81.545 Y70.194 E0.21259
G1 X81.011 Y70.194 E0.01676
G1 X76.223 Y65.406 E0.21259
G1 X75.689 Y65.406 E0.01676
G1 X80.478 Y70.194 E0.21259
G1 X79.944 Y70.194 E0.01676
G1 X75.155 Y65.406 E0.21259
G1 X74.621 Y65.406 E0.01676
G1 X79.410 Y70.194 E0.21259
G1 X78.876 Y70.194 E0.01676
G1 X74.087 Y65.406 E0.21259
G1 X73.553 Y65.406 E0.01676
G1 X78.342 Y70.194 E0.21259
G1 X77.808 Y70.194 E0.01676
G1 X73.019 Y65.406 E0.21259
G1 X72.485 Y65.406 E0.01676
G1 X77.274 Y70.194 E0.21259
G1 X76.740 Y70.194 E0.01676
G1 X71.951 Y65.406 E0.21259
G1 X71.418 Y65.406 E0.01676
G1 X76.206 Y70.194 E0.21259
G1 X75.672 Y70.194 E0.01676
G1 X70.884 Y65.406 E0.21259
G1 X70.350 Y65.406 E0.01676
G1 X75.139 Y70.194 E0.21259
G1 X74.605 Y70.194 E0.01676
G1 X69.816 Y65.406 E0.21259
G1 X69.282 Y65.406 E0.01676
G1 X74.071 Y70.194 E0.21259
G1 X73.537 Y70.194 E0.01676
G1 X68.748 Y65.406 E0.21259
G1 X68.214 Y65.406 E0.01676
G1 X73.003 Y70.194 E0.21259
G1 X72.469 Y70.194 E0.01676
G1 X67.680 Y65.406 E0.21259
G1 X67.146 Y65.406 E0.01676
G1 X71.935 Y70.194 E0.21259
G1 X71.401 Y70.194 E0.01676
G1 X66.613 Y65.406 E0.21259
G1 X66.079 Y65.406 E0.01676
G1 X70.867 Y70.194 E0.21259
G1 X70.334 Y70.194 E0.01676
G1 X65.545 Y65.406 E0.21259
G1 X65.011 Y65.406 E0.01676
G1 X69.800 Y70.194 E0.21259
G1 X69.266 Y70.194 E0.01676
M73 Q3 S92
M73 P3 R90
G1 X64.477 Y65.406 E0.21259
G1 X63.943 Y65.406 E0.01676
G1 X68.732 Y70.194 E0.21259
G1 X68.198 Y70.194 E0.01676
G1 X63.409 Y65.406 E0.21259
G1 X62.875 Y65.406 E0.01676
G1 X67.664 Y70.194 E0.21259
G1 X67.130 Y70.194 E0.01676
G1 X62.341 Y65.406 E0.21259
G1 X61.807 Y65.406 E0.01676
G1 X66.596 Y70.194 E0.21259
G1 X66.062 Y70.194 E0.01676
G1 X61.236 Y65.368 E0.21426
G1 X60.893 Y65.326 E0.01085
G1 X60.555 Y65.221 E0.01111
G1 X65.529 Y70.194 E0.22080
G1 X64.995 Y70.194 E0.01676
G1 X58.406 Y63.605 E0.29251
G1 X58.406 Y64.139 E0.01676
G1 X64.461 Y70.194 E0.26881
G1 X63.927 Y70.194 E0.01676
G1 X58.406 Y64.673 E0.24511
G1 X58.406 Y65.207 E0.01676
G1 X63.480 Y70.282 E0.22528
G1 X63.360 Y70.315 E0.00393
G1 X63.145 Y70.480 E0.00850
G1 X58.406 Y65.741 E0.21040
G1 X58.406 Y66.275 E0.01676
G1 X62.895 Y70.764 E0.19929
G1 X62.841 Y70.834 E0.00278
G1 X62.751 Y71.154 E0.01043
G1 X58.406 Y66.809 E0.19291
G1 X58.406 Y67.343 E0.01676
G1 X62.719 Y71.657 E0.19151
G1 X62.720 Y72.190 E0.01676
G1 X58.406 Y67.877 E0.19151
G1 X58.406 Y68.410 E0.01676
G1 X62.720 Y72.724 E0.19152
G1 X62.720 Y73.258 E0.01676
G1 X58.406 Y68.944 E0.19152
G1 X58.406 Y69.478 E0.01676
G1 X62.720 Y73.792 E0.19152
G1 X62.720 Y74.326 E0.01676
G1 X58.406 Y70.012 E0.19153
G1 X58.406 Y70.546 E0.01676
G1 X62.720 Y74.860 E0.19153
G1 X62.720 Y75.394 E0.01676
G1 X58.406 Y71.080 E0.19154
G1 X58.406 Y71.614 E0.01676
G1 X62.720 Y75.928 E0.19154
G1 X62.720 Y76.462 E0.01676
G1 X58.406 Y72.148 E0.19155
G1 X58.406 Y72.682 E0.01676
G1 X62.720 Y76.996 E0.19155
G1 X62.721 Y77.530 E0.01676
G1 X58.406 Y73.216 E0.19156
G1 X58.406 Y73.749 E0.01676
G1 X62.721 Y78.064 E0.19156
G1 X62.721 Y78.598 E0.01676
G1 X58.406 Y74.283 E0.19156
G1 X58.406 Y74.817 E0.01676
G1 X62.721 Y79.132 E0.19157
G1 X62.721 Y79.666 E0.01676
G1 X58.406 Y75.351 E0.19157
G1 X58.406 Y75.885 E0.01676
G1 X62.721 Y80.200 E0.19158
G1 X62.721 Y80.734 E0.01676
G1 X58.406 Y76.419 E0.19158
G1 X58.406 Y76.953 E0.01676
G1 X62.721 Y81.268 E0.19159
G1 X62.721 Y81.802 E0.01676
G1 X58.406 Y77.487 E0.19159
G1 X58.406 Y78.021 E0.01676
G1 X62.721 Y82.336 E0.19160
G1 X62.722 Y82.870 E0.01676
G1 X58.406 Y78.554 E0.19160
G1 X58.406 Y79.088 E0.01676
G1 X62.722 Y83.404 E0.19161
G1 X62.722 Y83.938 E0.01676
G1 X58.406 Y79.622 E0.19161
G1 X58.406 Y80.156 E0.01676
G1 X62.722 Y84.472 E0.19161
G1 X62.722 Y85.006 E0.01676
G1 X58.406 Y80.690 E0.19162
G1 X58.406 Y81.224 E0.01676
G1 X62.722 Y85.540 E0.19162
G1 X62.722 Y86.074 E0.01676
G1 X58.406 Y81.758 E0.19163
G1 X58.406 Y82.292 E0.01676
G1 X62.722 Y86.608 E0.19163
G1 X62.722 Y87.142 E0.01676
G1 X58.406 Y82.826 E0.19164
G1 X58.406 Y83.359 E0.01676
G1 X62.722 Y87.676 E0.19164
G1 X62.723 Y88.210 E0.01676
G1 X58.406 Y83.893 E0.19165
G1 X58.406 Y84.427 E0.01676
G1 X62.723 Y88.744 E0.19165
G1 X62.723 Y89.278 E0.01676
G1 X58.406 Y84.961 E0.19165
G1 X58.406 Y85.495 E0.01676
G1 X62.723 Y89.812 E0.19166
G1 X62.723 Y90.346 E0.01676
G1 X58.406 Y86.029 E0.19166
G1 X58.406 Y86.563 E0.01676
G1 X62.723 Y90.880 E0.19167
G1 X62.723 Y91.414 E0.01676
G1 X58.406 Y87.097 E0.19167
G1 X58.406 Y87.631 E0.01676
G1 X62.723 Y91.948 E0.19168
G1 X62.723 Y92.482 E0.01676
G1 X58.406 Y88.165 E0.19168
G1 X58.406 Y88.698 E0.01676
G1 X62.724 Y93.016 E0.19169
G1 X62.724 Y93.550 E0.01676
G1 X58.406 Y89.232 E0.19169
G1 X58.406 Y89.766 E0.01676
G1 X62.724 Y94.084 E0.19170
G1 X62.724 Y94.618 E0.01676
G1 X58.406 Y90.300 E0.19170
G1 X58.406 Y90.834 E0.01676
G1 X62.724 Y95.152 E0.19170
G1 X62.724 Y95.686 E0.01676
G1 X58.406 Y91.368 E0.19171
G1 X58.406 Y91.902 E0.01676
G1 X62.724 Y96.220 E0.19171
G1 X62.724 Y96.754 E0.01676
G1 X58.406 Y92.436 E0.19172
G1 X58.406 Y92.970 E0.01676
G1 X62.724 Y97.288 E0.19172
G1 X62.724 Y97.822 E0.01676
G1 X58.406 Y93.503 E0.19173
