; generated by PrusaSlicer 2.2.0+linux-x64 on 2020-12-06 at 00:19:40 UTC

; 

; external perimeters extrusion width = 0.45mm
; perimeters extrusion width = 0.45mm
; infill extrusion width = 0.45mm
; solid infill extrusion width = 0.45mm
; top infill extrusion width = 0.40mm
; first layer extrusion width = 0.42mm

M73 P0 R129
M73 Q0 S131
M201 X1000 Y1000 Z200 E5000 ; sets maximum accelerations, mm/sec^2
M203 X200 Y200 Z12 E120 ; sets maximum feedrates, mm/sec
M204 P1250 R1250 T1250 ; sets acceleration (P, T) and retract acceleration (R), mm/sec^2
M205 X8.00 Y8.00 Z0.40 E4.50 ; sets the jerk limits, mm/sec
M205 S0 T0 ; sets the minimum extruding and travel feed rate, mm/sec
M107
M862.3 P "MK3S" ; printer model check
M862.1 P0.4 ; nozzle diameter check
M115 U3.9.1 ; tell printer latest fw version
G90 ; use absolute coordinates
M83 ; extruder relative mode
M104 S215 ; set extruder temp
M140 S65 ; set bed temp
M190 S65 ; wait for bed temp
M109 S215 ; wait for extruder temp
G28 W ; home all without mesh bed level
G80 ; mesh bed leveling
G1 Y-3.0 F1000.0 ; go outside print area
G92 E0.0
G1 X60.0 E9.0 F1000.0 ; intro line
M73 Q0 S130
M73 P0 R129
G1 X100.0 E12.5 F1000.0 ; intro line
G92 E0.0
M221 S95

; Don't change E values below. Excessive value can damage the printer.
M907 E430 ; set extruder motor current
G21 ; set units to millimeters
G90 ; use absolute coordinates
M83 ; use relative distances for extrusion
M900 K0.05 ; Filament gcode LA 1.5
M900 K30 ; Filament gcode LA 1.0
;BEFORE_LAYER_CHANGE
G92 E0.0
;0.2


G1 E-0.80000 F2100.00000
G1 Z0.600 F10800.000
;AFTER_LAYER_CHANGE
;0.2
G1 X55.685 Y40.594
G1 Z0.200
G1 E0.80000 F2100.00000
M204 S1000
G1 F1200.000
G1 X56.133 Y40.247 E0.01777
G1 X56.608 Y40.013 E0.01660
G1 X57.586 Y39.826 E0.03123
G1 X192.404 Y39.826 E4.22711
G1 X193.411 Y40.020 E0.03215
G1 X193.893 Y40.263 E0.01692
G1 X194.354 Y40.632 E0.01851
G1 X194.725 Y41.089 E0.01846
G1 X194.972 Y41.571 E0.01699
G1 X195.173 Y42.568 E0.03189
G1 X195.174 Y165.800 E3.86386
G1 X195.038 Y166.866 E0.03368
G1 X194.715 Y167.724 E0.02873
G1 X194.456 Y168.184 E0.01657
G1 X193.843 Y168.936 E0.03042
G1 X193.030 Y169.558 E0.03209
G1 X192.211 Y169.927 E0.02816
G1 X191.721 Y170.067 E0.01597
G1 X190.795 Y170.174 E0.02924
G1 X59.226 Y170.174 E4.12524
G1 X58.141 Y170.039 E0.03427
G1 X57.280 Y169.716 E0.02885
G1 X56.816 Y169.456 E0.01669
G1 X56.064 Y168.843 E0.03043
G1 X55.442 Y168.030 E0.03208
G1 X55.071 Y167.208 E0.02828
G1 X54.932 Y166.718 E0.01597
G1 X54.827 Y165.786 E0.02939
G1 X54.826 Y42.585 E3.86289
G1 X54.895 Y41.988 E0.01882
G1 X55.072 Y41.465 E0.01731
G1 X55.650 Y40.643 E0.03152
G1 F8640.000
G1 X56.133 Y40.247 E-0.14418
G1 X56.608 Y40.013 E-0.12227
G1 X57.586 Y39.826 E-0.22998
G1 X58.728 Y39.826 E-0.26358
G1 E-0.04000 F2100.00000
G1 Z0.800 F10800.000
G1 X146.223 Y67.964
G1 Z0.200
G1 E0.80000 F2100.00000
G1 F1200.000
G1 X146.392 Y67.743 E0.00872
G1 X146.614 Y67.573 E0.00877
G1 X146.956 Y67.477 E0.01115
G1 X152.344 Y67.477 E0.16892
G1 X152.686 Y67.573 E0.01113
G1 X152.908 Y67.743 E0.00877
G1 X153.077 Y67.964 E0.00873
G1 X153.173 Y68.306 E0.01114
G1 X153.173 Y163.894 E2.99708
G1 X153.077 Y164.236 E0.01114
G1 X152.908 Y164.457 E0.00873
G1 X152.686 Y164.627 E0.00877
G1 X152.344 Y164.723 E0.01113
G1 X146.956 Y164.723 E0.16892
G1 X146.614 Y164.627 E0.01115
G1 X146.392 Y164.457 E0.00877
G1 X146.223 Y164.236 E0.00872
G1 X146.127 Y163.894 E0.01114
G1 X146.127 Y68.306 E2.99707
G1 X146.207 Y68.022 E0.00926
G1 X146.567 Y68.136 F10800.000
G1 F1200.000
G1 X146.661 Y68.012 E0.00489
G1 X146.786 Y67.916 E0.00492
G1 X147.008 Y67.854 E0.00724
G1 X152.292 Y67.854 E0.16568
G1 X152.514 Y67.916 E0.00723
G1 X152.639 Y68.012 E0.00492
G1 X152.733 Y68.136 E0.00489
G1 X152.796 Y68.358 E0.00724
G1 X152.796 Y163.842 E2.99383
G1 X152.733 Y164.064 E0.00724
G1 X152.639 Y164.188 E0.00489
G1 X152.514 Y164.284 E0.00492
G1 X152.292 Y164.346 E0.00723
G1 X147.008 Y164.346 E0.16568
G1 X146.786 Y164.284 E0.00724
G1 X146.661 Y164.188 E0.00492
G1 X146.567 Y164.064 E0.00489
G1 X146.504 Y163.842 E0.00724
G1 X146.504 Y68.358 E2.99383
G1 X146.550 Y68.194 E0.00536
G1 X146.477 Y68.008 F10800.000
G1 F8640.000
G1 X146.661 Y68.012 E-0.04913
G1 X146.786 Y67.916 E-0.03620
G1 X147.008 Y67.854 E-0.05332
G1 X149.699 Y67.854 E-0.62135
G1 E-0.04000 F2100.00000
G1 Z0.800 F10800.000
G1 X157.814 Y67.573
G1 Z0.200
G1 E0.80000 F2100.00000
G1 F1200.000
G1 X158.156 Y67.477 E0.01113
G1 X163.544 Y67.477 E0.16892
G1 X163.886 Y67.573 E0.01115
G1 X164.107 Y67.743 E0.00874
G1 X164.277 Y67.963 E0.00872
G1 X164.373 Y68.306 E0.01117
G1 X164.373 Y163.894 E2.99708
G1 X164.277 Y164.237 E0.01117
G1 X164.107 Y164.457 E0.00872
G1 X163.886 Y164.627 E0.00874
G1 X163.544 Y164.723 E0.01115
G1 X158.156 Y164.723 E0.16892
G1 X157.814 Y164.627 E0.01113
G1 X157.592 Y164.457 E0.00877
G1 X157.423 Y164.236 E0.00873
G1 X157.327 Y163.894 E0.01114
G1 X157.327 Y68.306 E2.99708
M73 Q0 S129
M73 P0 R128
G1 X157.423 Y67.964 E0.01114
G1 X157.592 Y67.743 E0.00873
G1 X157.767 Y67.609 E0.00689
G1 X157.986 Y67.916 F10800.000
G1 F1200.000
G1 X158.208 Y67.854 E0.00723
G1 X163.492 Y67.854 E0.16568
G1 X163.714 Y67.916 E0.00724
G1 X163.838 Y68.012 E0.00490
G1 X163.933 Y68.135 E0.00489
G1 X163.996 Y68.358 E0.00726
G1 X163.996 Y163.842 E2.99383
G1 X163.933 Y164.065 E0.00726
G1 X163.838 Y164.188 E0.00489
G1 X163.714 Y164.284 E0.00490
G1 X163.492 Y164.346 E0.00724
G1 X158.208 Y164.346 E0.16568
G1 X157.986 Y164.284 E0.00723
G1 X157.861 Y164.188 E0.00492
G1 X157.767 Y164.064 E0.00489
G1 X157.704 Y163.842 E0.00724
G1 X157.704 Y68.358 E2.99383
G1 X157.767 Y68.136 E0.00724
G1 X157.861 Y68.012 E0.00489
G1 X157.938 Y67.953 E0.00304
G1 X158.004 Y67.687 F10800.000
G1 F8640.000
G1 X158.208 Y67.854 E-0.06630
G1 X161.212 Y67.854 E-0.69370
G1 E-0.04000 F2100.00000
G1 Z0.800 F10800.000
G1 X169.014 Y67.573
G1 Z0.200
G1 E0.80000 F2100.00000
G1 F1200.000
G1 X169.356 Y67.477 E0.01113
G1 X174.744 Y67.477 E0.16892
G1 X175.086 Y67.573 E0.01115
G1 X175.307 Y67.743 E0.00874
G1 X175.477 Y67.963 E0.00872
G1 X175.573 Y68.306 E0.01117
G1 X175.573 Y163.894 E2.99708
G1 X175.477 Y164.237 E0.01117
G1 X175.307 Y164.457 E0.00872
G1 X175.086 Y164.627 E0.00874
G1 X174.744 Y164.723 E0.01115
G1 X169.356 Y164.723 E0.16892
G1 X169.014 Y164.627 E0.01113
G1 X168.792 Y164.457 E0.00877
G1 X168.623 Y164.236 E0.00873
G1 X168.527 Y163.894 E0.01114
G1 X168.527 Y68.306 E2.99708
G1 X168.623 Y67.964 E0.01114
G1 X168.792 Y67.743 E0.00873
G1 X168.967 Y67.609 E0.00689
G1 X169.186 Y67.916 F10800.000
G1 F1200.000
G1 X169.408 Y67.854 E0.00723
G1 X174.692 Y67.854 E0.16568
G1 X174.914 Y67.916 E0.00724
G1 X175.038 Y68.012 E0.00490
G1 X175.133 Y68.135 E0.00489
G1 X175.196 Y68.358 E0.00726
G1 X175.196 Y163.842 E2.99383
G1 X175.133 Y164.065 E0.00726
G1 X175.038 Y164.188 E0.00489
G1 X174.914 Y164.284 E0.00490
G1 X174.692 Y164.346 E0.00724
G1 X169.408 Y164.346 E0.16568
G1 X169.186 Y164.284 E0.00723
G1 X169.061 Y164.188 E0.00492
G1 X168.967 Y164.064 E0.00489
G1 X168.904 Y163.842 E0.00724
G1 X168.904 Y68.358 E2.99383
G1 X168.967 Y68.136 E0.00724
G1 X169.061 Y68.012 E0.00489
G1 X169.138 Y67.953 E0.00304
G1 X169.204 Y67.687 F10800.000
G1 F8640.000
G1 X169.408 Y67.854 E-0.06629
G1 X172.412 Y67.854 E-0.69371
G1 E-0.04000 F2100.00000
G1 Z0.800 F10800.000
G1 X178.214 Y67.573
G1 Z0.200
G1 E0.80000 F2100.00000
G1 F1200.000
G1 X178.556 Y67.477 E0.01113
G1 X187.690 Y67.477 E0.28639
G1 X187.950 Y67.529 E0.00831
G1 X188.170 Y67.620 E0.00745
G1 X188.350 Y67.724 E0.00651
G1 X188.791 Y68.062 E0.01744
G1 X188.938 Y68.209 E0.00651
G1 X189.276 Y68.650 E0.01744
G1 X189.380 Y68.830 E0.00651
G1 X189.593 Y69.344 E0.01745
G1 X189.647 Y69.545 E0.00651
G1 X189.719 Y70.090 E0.01723
G1 X189.723 Y161.843 E2.87685
G1 X189.647 Y162.453 E0.01928
G1 X189.593 Y162.656 E0.00658
G1 X189.380 Y163.170 E0.01745
G1 X189.276 Y163.350 E0.00651
G1 X188.938 Y163.791 E0.01744
G1 X188.791 Y163.938 E0.00651
G1 X188.350 Y164.276 E0.01744
G1 X188.170 Y164.380 E0.00651
G1 X187.656 Y164.593 E0.01745
G1 X187.455 Y164.647 E0.00651
G1 X186.910 Y164.719 E0.01723
G1 X178.556 Y164.723 E0.26193
G1 X178.214 Y164.627 E0.01114
G1 X177.992 Y164.457 E0.00877
G1 X177.823 Y164.236 E0.00873
G1 X177.727 Y163.894 E0.01114
G1 X177.727 Y68.306 E2.99708
G1 X177.823 Y67.964 E0.01114
G1 X177.992 Y67.743 E0.00873
G1 X178.167 Y67.609 E0.00689
G1 X178.386 Y67.916 F10800.000
G1 F1200.000
G1 X178.608 Y67.854 E0.00723
G1 X187.653 Y67.854 E0.28361
G1 X187.840 Y67.892 E0.00598
G1 X188.140 Y68.038 E0.01045
G1 X188.542 Y68.346 E0.01589
G1 X188.654 Y68.458 E0.00496
G1 X188.962 Y68.860 E0.01589
G1 X189.041 Y68.997 E0.00496
G1 X189.235 Y69.466 E0.01589
G1 X189.276 Y69.618 E0.00496
G1 X189.341 Y70.114 E0.01569
G1 X189.346 Y161.819 E2.87535
G1 X189.276 Y162.381 E0.01773
G1 X189.235 Y162.534 E0.00499
G1 X189.041 Y163.003 E0.01589
G1 X188.962 Y163.140 E0.00496
G1 X188.654 Y163.542 E0.01589
G1 X188.542 Y163.654 E0.00496
G1 X188.140 Y163.962 E0.01589
G1 X188.003 Y164.041 E0.00496
G1 X187.534 Y164.235 E0.01589
G1 X187.382 Y164.276 E0.00496
G1 X186.886 Y164.341 E0.01568
G1 X178.608 Y164.346 E0.25954
G1 X178.386 Y164.284 E0.00723
G1 X178.261 Y164.188 E0.00492
G1 X178.167 Y164.064 E0.00489
G1 X178.104 Y163.842 E0.00724
G1 X178.104 Y68.358 E2.99383
G1 X178.167 Y68.136 E0.00724
G1 X178.261 Y68.012 E0.00489
G1 X178.338 Y67.953 E0.00304
G1 X178.404 Y67.687 F10800.000
G1 F8640.000
G1 X178.608 Y67.854 E-0.06629
G1 X181.612 Y67.854 E-0.69371
G1 E-0.04000 F2100.00000
G1 Z0.800 F10800.000
G1 X141.525 Y67.584
G1 Z0.200
G1 E0.80000 F2100.00000
G1 F1200.000
G1 X141.866 Y67.925 E0.01513
G1 X141.973 Y68.306 E0.01241
G1 X141.973 Y163.894 E2.99708
G1 X141.866 Y164.275 E0.01241
G1 X141.525 Y164.616 E0.01513
G1 X141.144 Y164.723 E0.01241
G1 X75.256 Y164.723 E2.06586
M73 Q1 S128
M73 P1 R127
G1 X74.875 Y164.616 E0.01241
G1 X74.534 Y164.276 E0.01511
G1 X74.427 Y163.894 E0.01243
G1 X74.427 Y68.306 E2.99708
G1 X74.523 Y67.963 E0.01117
G1 X74.693 Y67.743 E0.00872
G1 X74.914 Y67.573 E0.00874
G1 X75.256 Y67.477 E0.01115
G1 X141.144 Y67.477 E2.06586
G1 X141.467 Y67.568 E0.01053
G1 X141.328 Y67.920 F10800.000
G1 F1200.000
G1 X141.530 Y68.122 E0.00893
G1 X141.596 Y68.358 E0.00769
G1 X141.596 Y163.842 E2.99384
G1 X141.530 Y164.078 E0.00769
G1 X141.328 Y164.280 E0.00893
G1 X141.092 Y164.346 E0.00769
G1 X75.308 Y164.346 E2.06261
G1 X75.072 Y164.280 E0.00769
G1 X74.871 Y164.079 E0.00892
G1 X74.804 Y163.842 E0.00771
G1 X74.804 Y68.358 E2.99383
G1 X74.867 Y68.135 E0.00726
G1 X74.962 Y68.012 E0.00489
G1 X75.086 Y67.916 E0.00490
G1 X75.308 Y67.854 E0.00724
G1 X141.092 Y67.854 E2.06261
G1 X141.270 Y67.904 E0.00581
G1 X141.575 Y67.778 F10800.000
G1 F8640.000
G1 X141.530 Y68.122 E-0.07812
G1 X141.596 Y68.358 E-0.05665
G1 X141.596 Y71.066 E-0.62523
G1 E-0.04000 F2100.00000
G1 Z0.800 F10800.000
G1 X71.786 Y67.573
G1 Z0.200
G1 E0.80000 F2100.00000
G1 F1200.000
G1 X72.008 Y67.743 E0.00877
G1 X72.177 Y67.964 E0.00873
G1 X72.273 Y68.306 E0.01114
G1 X72.273 Y163.894 E2.99708
G1 X72.177 Y164.236 E0.01114
G1 X72.008 Y164.457 E0.00873
G1 X71.786 Y164.627 E0.00877
G1 X71.444 Y164.723 E0.01113
G1 X63.157 Y164.723 E0.25981
G1 X62.547 Y164.647 E0.01928
G1 X62.344 Y164.593 E0.00658
G1 X61.830 Y164.380 E0.01745
G1 X61.650 Y164.276 E0.00651
G1 X61.209 Y163.938 E0.01744
G1 X61.062 Y163.791 E0.00651
G1 X60.724 Y163.350 E0.01744
G1 X60.620 Y163.170 E0.00651
G1 X60.407 Y162.656 E0.01745
G1 X60.353 Y162.455 E0.00651
G1 X60.281 Y161.910 E0.01723
G1 X60.277 Y70.157 E2.87685
G1 X60.353 Y69.547 E0.01928
G1 X60.407 Y69.344 E0.00658
G1 X60.620 Y68.830 E0.01745
G1 X60.724 Y68.650 E0.00651
G1 X61.062 Y68.209 E0.01744
G1 X61.209 Y68.062 E0.00651
G1 X61.650 Y67.724 E0.01744
G1 X61.830 Y67.620 E0.00651
G1 X62.050 Y67.529 E0.00745
G1 X62.310 Y67.477 E0.00831
G1 X71.444 Y67.477 E0.28639
G1 X71.728 Y67.557 E0.00925
G1 X71.614 Y67.916 F10800.000
G1 F1200.000
G1 X71.739 Y68.012 E0.00492
G1 X71.833 Y68.136 E0.00489
G1 X71.896 Y68.358 E0.00724
G1 X71.896 Y163.842 E2.99383
G1 X71.833 Y164.064 E0.00724
G1 X71.739 Y164.188 E0.00489
G1 X71.614 Y164.284 E0.00492
G1 X71.392 Y164.346 E0.00723
G1 X63.181 Y164.346 E0.25746
G1 X62.619 Y164.276 E0.01773
G1 X62.466 Y164.235 E0.00499
G1 X61.997 Y164.041 E0.01589
G1 X61.860 Y163.962 E0.00496
G1 X61.458 Y163.654 E0.01589
G1 X61.346 Y163.542 E0.00496
G1 X61.038 Y163.140 E0.01589
G1 X60.959 Y163.003 E0.00496
G1 X60.765 Y162.534 E0.01589
G1 X60.724 Y162.382 E0.00496
G1 X60.659 Y161.886 E0.01569
G1 X60.654 Y70.181 E2.87535
G1 X60.724 Y69.619 E0.01773
G1 X60.765 Y69.466 E0.00499
G1 X60.959 Y68.997 E0.01589
G1 X61.038 Y68.860 E0.00496
G1 X61.346 Y68.458 E0.01589
G1 X61.458 Y68.346 E0.00496
G1 X61.860 Y68.038 E0.01589
G1 X62.160 Y67.892 E0.01045
G1 X62.347 Y67.854 E0.00598
G1 X71.392 Y67.854 E0.28361
G1 X71.556 Y67.900 E0.00535
G1 X71.743 Y67.827 F10800.000
G1 F8640.000
G1 X71.739 Y68.012 E-0.04935
G1 X71.833 Y68.136 E-0.03602
G1 X71.896 Y68.358 E-0.05333
G1 X71.896 Y71.049 E-0.62130
G1 E-0.04000 F2100.00000
G1 Z0.800 F10800.000
G1 X58.677 Y43.124
G1 Z0.200
G1 E0.80000 F2100.00000
G1 F1200.000
G1 X58.681 Y62.310 E0.60158
G1 X58.753 Y62.855 E0.01723
G1 X58.807 Y63.056 E0.00651
G1 X59.020 Y63.570 E0.01745
G1 X59.124 Y63.750 E0.00651
G1 X59.462 Y64.191 E0.01744
G1 X59.609 Y64.338 E0.00651
G1 X60.050 Y64.676 E0.01744
G1 X60.230 Y64.780 E0.00651
G1 X60.744 Y64.993 E0.01745
G1 X60.947 Y65.047 E0.00658
G1 X61.557 Y65.123 E0.01928
G1 X188.443 Y65.123 E3.97840
G1 X189.053 Y65.047 E0.01928
G1 X189.256 Y64.993 E0.00658
G1 X189.770 Y64.780 E0.01745
G1 X189.950 Y64.676 E0.00651
G1 X190.391 Y64.338 E0.01744
G1 X190.538 Y64.191 E0.00651
G1 X190.876 Y63.750 E0.01744
G1 X190.980 Y63.570 E0.00651
G1 X191.193 Y63.056 E0.01745
G1 X191.247 Y62.855 E0.00651
G1 X191.319 Y62.310 E0.01723
G1 X191.326 Y43.123 E0.60161
G1 X191.877 Y43.123 E0.01727
G1 X191.877 Y165.722 E3.84401
M73 Q2 S127
M73 P2 R125
G1 X191.831 Y166.076 E0.01120
G1 X191.724 Y166.333 E0.00873
G1 X191.554 Y166.554 E0.00873
G1 X191.333 Y166.724 E0.00873
G1 X191.076 Y166.831 E0.00873
G1 X190.722 Y166.877 E0.01120
G1 X59.278 Y166.877 E4.12134
G1 X58.924 Y166.831 E0.01120
G1 X58.667 Y166.724 E0.00873
G1 X58.446 Y166.554 E0.00873
G1 X58.276 Y166.333 E0.00873
G1 X58.169 Y166.076 E0.00873
G1 X58.123 Y165.722 E0.01120
G1 X58.123 Y43.123 E3.84400
G1 X58.617 Y43.124 E0.01550
G1 X59.054 Y42.747 F10800.000
G1 F1200.000
G1 X59.059 Y62.286 E0.61262
G1 X59.124 Y62.782 E0.01568
G1 X59.165 Y62.934 E0.00496
G1 X59.359 Y63.403 E0.01589
G1 X59.438 Y63.540 E0.00496
G1 X59.746 Y63.942 E0.01589
G1 X59.858 Y64.054 E0.00496
G1 X60.260 Y64.362 E0.01589
G1 X60.397 Y64.441 E0.00496
G1 X60.866 Y64.635 E0.01589
G1 X61.019 Y64.676 E0.00499
G1 X61.581 Y64.746 E0.01773
G1 X188.419 Y64.746 E3.97694
G1 X188.981 Y64.676 E0.01773
G1 X189.134 Y64.635 E0.00499
G1 X189.603 Y64.441 E0.01589
G1 X189.740 Y64.362 E0.00496
G1 X190.142 Y64.054 E0.01589
G1 X190.254 Y63.942 E0.00496
G1 X190.562 Y63.540 E0.01589
G1 X190.641 Y63.403 E0.00496
G1 X190.835 Y62.934 E0.01589
G1 X190.876 Y62.782 E0.00496
G1 X190.941 Y62.286 E0.01568
G1 X190.950 Y42.746 E0.61266
G1 X192.254 Y42.746 E0.04091
G1 X192.254 Y165.747 E3.85661
G1 X192.198 Y166.175 E0.01353
G1 X192.053 Y166.524 E0.01185
G1 X191.823 Y166.823 E0.01185
G1 X191.524 Y167.053 E0.01185
G1 X191.175 Y167.198 E0.01185
G1 X190.747 Y167.254 E0.01353
G1 X59.253 Y167.254 E4.12289
G1 X58.825 Y167.198 E0.01353
G1 X58.476 Y167.053 E0.01185
G1 X58.177 Y166.823 E0.01185
G1 X57.947 Y166.524 E0.01185
G1 X57.802 Y166.175 E0.01185
G1 X57.746 Y165.747 E0.01353
G1 X57.746 Y42.746 E3.85661
G1 X58.994 Y42.747 E0.03915
G1 X59.053 Y43.147 F10800.000
G1 X58.400 Y43.312
G1 F1200.000
G1 X58.403 Y62.335 E0.28843
G1 X58.421 Y62.622 E0.00526
G1 X58.442 Y62.926 E0.00661
G1 X58.467 Y63.114 E0.00434
G1 F8640.000
G1 X58.442 Y62.926 E-0.04391
G1 E-0.75609 F2100.00000
G1 Z0.800 F10800.000
G1 X74.314 Y69.904
G1 Z0.200
G1 E0.80000 F2100.00000
G1 F1200.000
G1 X72.508 Y68.098 E0.08017
G1 X72.556 Y68.267 E0.00552
G1 X72.556 Y68.679 E0.01293
G1 X74.144 Y70.268 E0.07053
G1 X74.144 Y70.802 E0.01676
G1 X72.556 Y69.213 E0.07053
G1 X72.556 Y69.747 E0.01676
G1 X74.144 Y71.336 E0.07053
G1 X74.144 Y71.870 E0.01676
