; generated by PrusaSlicer 2.2.0+linux-x64 on 2020-12-06 at 00:20:06 UTC

; 

; external perimeters extrusion width = 0.45mm
; perimeters extrusion width = 0.45mm
; infill extrusion width = 0.45mm
; solid infill extrusion width = 0.45mm
; top infill extrusion width = 0.40mm
; first layer extrusion width = 0.42mm

M73 P0 R133
M73 Q0 S134
M201 X1000 Y1000 Z200 E5000 ; sets maximum accelerations, mm/sec^2
M203 X200 Y200 Z12 E120 ; sets maximum feedrates, mm/sec
M204 P1250 R1250 T1250 ; sets acceleration (P, T) and retract acceleration (R), mm/sec^2
M205 X8.00 Y8.00 Z0.40 E4.50 ; sets the jerk limits, mm/sec
M205 S0 T0 ; sets the minimum extruding and travel feed rate, mm/sec
M107
M862.3 P "MK3S" ; printer model check
M862.1 P0.4 ; nozzle diameter check
M115 U3.9.1 ; tell printer latest fw version
G90 ; use absolute coordinates
M83 ; extruder relative mode
M104 S215 ; set extruder temp
M140 S65 ; set bed temp
M190 S65 ; wait for bed temp
M109 S215 ; wait for extruder temp
G28 W ; home all without mesh bed level
G80 ; mesh bed leveling
G1 Y-3.0 F1000.0 ; go outside print area
G92 E0.0
G1 X60.0 E9.0 F1000.0 ; intro line
M73 Q0 S134
M73 P0 R133
G1 X100.0 E12.5 F1000.0 ; intro line
G92 E0.0
M221 S95

; Don't change E values below. Excessive value can damage the printer.
M907 E430 ; set extruder motor current
G21 ; set units to millimeters
G90 ; use absolute coordinates
M83 ; use relative distances for extrusion
M900 K0.05 ; Filament gcode LA 1.5
M900 K30 ; Filament gcode LA 1.0
;BEFORE_LAYER_CHANGE
G92 E0.0
;0.2


G1 E-0.80000 F2100.00000
G1 Z0.600 F10800.000
;AFTER_LAYER_CHANGE
;0.2
G1 X55.685 Y40.594
G1 Z0.200
G1 E0.80000 F2100.00000
M204 S1000
G1 F1200.000
G1 X56.133 Y40.247 E0.01777
G1 X56.608 Y40.013 E0.01660
G1 X57.586 Y39.826 E0.03123
G1 X192.404 Y39.826 E4.22711
G1 X193.411 Y40.020 E0.03215
G1 X193.893 Y40.263 E0.01692
G1 X194.354 Y40.632 E0.01851
G1 X194.725 Y41.089 E0.01846
G1 X194.972 Y41.571 E0.01699
G1 X195.173 Y42.568 E0.03189
G1 X195.174 Y165.800 E3.86386
G1 X195.038 Y166.866 E0.03368
G1 X194.715 Y167.724 E0.02873
G1 X194.456 Y168.184 E0.01657
G1 X193.843 Y168.936 E0.03042
G1 X193.030 Y169.558 E0.03209
G1 X192.211 Y169.927 E0.02816
G1 X191.721 Y170.067 E0.01597
G1 X190.795 Y170.174 E0.02924
G1 X59.226 Y170.174 E4.12524
G1 X58.141 Y170.039 E0.03427
G1 X57.280 Y169.716 E0.02885
G1 X56.816 Y169.456 E0.01669
G1 X56.064 Y168.843 E0.03043
G1 X55.442 Y168.030 E0.03208
G1 X55.071 Y167.208 E0.02828
G1 X54.932 Y166.718 E0.01597
G1 X54.827 Y165.786 E0.02939
G1 X54.826 Y42.585 E3.86289
G1 X54.895 Y41.988 E0.01882
G1 X55.072 Y41.465 E0.01731
G1 X55.650 Y40.643 E0.03152
G1 F8640.000
G1 X56.133 Y40.247 E-0.14418
G1 X56.608 Y40.013 E-0.12227
G1 X57.586 Y39.826 E-0.22998
G1 X58.728 Y39.826 E-0.26358
G1 E-0.04000 F2100.00000
G1 Z0.800 F10800.000
G1 X135.453 Y77.464
G1 Z0.200
G1 E0.80000 F2100.00000
G1 F1200.000
G1 X135.622 Y77.243 E0.00873
G1 X135.844 Y77.073 E0.00877
G1 X136.186 Y76.977 E0.01113
G1 X163.734 Y76.977 E0.86373
G1 X164.076 Y77.073 E0.01113
G1 X164.298 Y77.243 E0.00877
G1 X164.467 Y77.464 E0.00873
G1 X164.563 Y77.806 E0.01114
G1 X164.563 Y110.994 E1.04057
G1 X164.467 Y111.336 E0.01114
G1 X164.298 Y111.557 E0.00874
G1 X164.075 Y111.727 E0.00877
G1 X163.734 Y111.823 E0.01113
G1 X136.186 Y111.823 E0.86372
G1 X135.845 Y111.727 E0.01113
G1 X135.622 Y111.557 E0.00877
G1 X135.453 Y111.336 E0.00875
G1 X135.357 Y110.994 E0.01114
G1 X135.357 Y77.806 E1.04057
G1 X135.437 Y77.522 E0.00926
G1 X135.797 Y77.636 F10800.000
G1 F1200.000
G1 X135.891 Y77.512 E0.00489
G1 X136.016 Y77.416 E0.00492
G1 X136.238 Y77.354 E0.00723
G1 X163.682 Y77.354 E0.86049
G1 X163.904 Y77.416 E0.00723
G1 X164.029 Y77.512 E0.00492
G1 X164.123 Y77.636 E0.00489
G1 X164.186 Y77.858 E0.00724
G1 X164.186 Y110.942 E1.03732
G1 X164.123 Y111.164 E0.00724
G1 X164.029 Y111.288 E0.00490
G1 X163.904 Y111.384 E0.00492
G1 X163.682 Y111.446 E0.00723
G1 X136.238 Y111.446 E0.86048
G1 X136.016 Y111.384 E0.00723
G1 X135.891 Y111.288 E0.00492
G1 X135.797 Y111.164 E0.00490
G1 X135.734 Y110.942 E0.00724
G1 X135.734 Y77.858 E1.03732
G1 X135.780 Y77.693 E0.00536
G1 X135.707 Y77.508 F10800.000
G1 F8640.000
G1 X135.891 Y77.512 E-0.04916
G1 X136.016 Y77.416 E-0.03622
G1 X136.238 Y77.354 E-0.05323
G1 X138.929 Y77.354 E-0.62138
G1 E-0.04000 F2100.00000
G1 Z0.800 F10800.000
G1 X189.616 Y111.375
G1 Z0.200
G1 E0.80000 F2100.00000
G1 F1200.000
G1 X189.275 Y111.716 E0.01513
G1 X188.894 Y111.823 E0.01242
G1 X166.746 Y111.823 E0.69441
G1 X166.365 Y111.716 E0.01241
G1 X166.024 Y111.375 E0.01513
G1 X165.917 Y110.994 E0.01242
G1 X165.917 Y77.806 E1.04057
G1 X166.013 Y77.464 E0.01114
G1 X166.182 Y77.243 E0.00873
G1 X166.404 Y77.073 E0.00877
G1 X166.746 Y76.977 E0.01113
G1 X188.894 Y76.977 E0.69442
G1 X189.275 Y77.084 E0.01241
G1 X189.616 Y77.425 E0.01512
G1 X189.723 Y77.806 E0.01242
G1 X189.723 Y110.994 E1.04057
G1 X189.632 Y111.317 E0.01053
G1 X189.280 Y111.178 F10800.000
G1 F1200.000
G1 X189.078 Y111.380 E0.00893
G1 X188.842 Y111.446 E0.00770
G1 X166.798 Y111.446 E0.69117
G1 X166.562 Y111.380 E0.00769
G1 X166.360 Y111.178 E0.00893
G1 X166.294 Y110.942 E0.00770
G1 X166.294 Y77.858 E1.03732
G1 X166.357 Y77.636 E0.00724
G1 X166.451 Y77.512 E0.00489
G1 X166.576 Y77.416 E0.00492
G1 X166.798 Y77.354 E0.00723
G1 X188.842 Y77.354 E0.69118
G1 X189.078 Y77.420 E0.00769
G1 X189.280 Y77.622 E0.00893
G1 X189.346 Y77.858 E0.00769
G1 X189.346 Y110.942 E1.03733
G1 X189.296 Y111.121 E0.00581
G1 X189.422 Y111.425 F10800.000
G1 F8640.000
G1 X189.078 Y111.380 E-0.07812
G1 X188.842 Y111.446 E-0.05667
G1 X186.134 Y111.446 E-0.62521
G1 E-0.04000 F2100.00000
G1 Z0.800 F10800.000
G1 X178.440 Y56.103
G1 Z0.200
G1 E0.80000 F2100.00000
G1 F1200.000
G1 X177.606 Y56.219 E0.02639
G1 X177.396 Y56.219 E0.00658
G1 X176.637 Y56.120 E0.02400
G1 X176.437 Y56.066 E0.00651
G1 X175.730 Y55.773 E0.02398
G1 X175.550 Y55.669 E0.00651
G1 X174.925 Y55.189 E0.02472
G1 X174.331 Y54.450 E0.02975
G1 X174.227 Y54.270 E0.00651
G1 X173.934 Y53.563 E0.02398
G1 X173.880 Y53.363 E0.00651
G1 X173.781 Y52.604 E0.02400
G1 X173.781 Y52.396 E0.00651
G1 X173.880 Y51.637 E0.02400
G1 X173.934 Y51.437 E0.00651
G1 X174.227 Y50.730 E0.02398
G1 X174.331 Y50.550 E0.00651
G1 X174.797 Y49.943 E0.02399
G1 X174.943 Y49.797 E0.00651
G1 X175.550 Y49.331 E0.02399
G1 X175.734 Y49.225 E0.00664
G1 X176.560 Y48.897 E0.02788
G1 X177.394 Y48.781 E0.02639
G1 X177.604 Y48.781 E0.00658
G1 X178.363 Y48.880 E0.02400
G1 X178.563 Y48.934 E0.00651
G1 X179.270 Y49.227 E0.02398
G1 X179.450 Y49.331 E0.00651
G1 X180.075 Y49.811 E0.02472
G1 X180.336 Y50.117 E0.01262
G1 X180.669 Y50.550 E0.01714
G1 X180.773 Y50.730 E0.00651
G1 X181.066 Y51.437 E0.02398
G1 X181.120 Y51.637 E0.00651
G1 X181.219 Y52.396 E0.02400
G1 X181.219 Y52.604 E0.00651
G1 X181.120 Y53.363 E0.02400
G1 X181.066 Y53.563 E0.00651
G1 X180.773 Y54.270 E0.02398
G1 X180.669 Y54.450 E0.00651
G1 X180.203 Y55.057 E0.02399
G1 X180.057 Y55.203 E0.00651
G1 X179.450 Y55.669 E0.02399
G1 X179.266 Y55.775 E0.00664
G1 X178.495 Y56.081 E0.02600
G1 X178.356 Y55.731 F10800.000
G1 F1200.000
G1 X177.580 Y55.842 E0.02460
G1 X177.421 Y55.842 E0.00498
G1 X176.711 Y55.749 E0.02245
G1 X176.558 Y55.708 E0.00496
G1 X175.897 Y55.434 E0.02244
G1 X175.760 Y55.355 E0.00496
G1 X175.186 Y54.914 E0.02270
G1 X174.645 Y54.240 E0.02711
G1 X174.566 Y54.103 E0.00496
G1 X174.292 Y53.442 E0.02244
G1 X174.251 Y53.289 E0.00496
G1 X174.158 Y52.579 E0.02245
G1 X174.158 Y52.421 E0.00496
G1 X174.251 Y51.711 E0.02245
G1 X174.292 Y51.558 E0.00496
G1 X174.566 Y50.897 E0.02244
G1 X174.645 Y50.760 E0.00496
G1 X175.081 Y50.193 E0.02244
G1 X175.193 Y50.081 E0.00496
G1 X175.760 Y49.645 E0.02244
G1 X175.899 Y49.565 E0.00501
G1 X176.657 Y49.264 E0.02559
G1 X177.420 Y49.158 E0.02415
G1 X177.579 Y49.158 E0.00498
G1 X178.289 Y49.251 E0.02245
G1 X178.442 Y49.292 E0.00496
G1 X179.103 Y49.566 E0.02244
G1 X179.240 Y49.645 E0.00496
G1 X179.814 Y50.086 E0.02270
G1 X180.043 Y50.354 E0.01106
G1 X180.355 Y50.760 E0.01606
G1 X180.434 Y50.897 E0.00496
G1 X180.708 Y51.558 E0.02244
G1 X180.749 Y51.711 E0.00496
G1 X180.842 Y52.421 E0.02245
G1 X180.842 Y52.579 E0.00496
G1 X180.749 Y53.289 E0.02245
G1 X180.708 Y53.442 E0.00496
G1 X180.434 Y54.103 E0.02244
G1 X180.355 Y54.240 E0.00496
G1 X179.919 Y54.807 E0.02244
G1 X179.807 Y54.919 E0.00496
G1 X179.240 Y55.355 E0.02244
G1 X179.101 Y55.435 E0.00501
G1 X178.412 Y55.708 E0.02325
G1 X178.240 Y56.113 F10800.000
G1 F8640.000
G1 X177.580 Y55.842 E-0.19463
G1 X177.421 Y55.842 E-0.03670
G1 X176.711 Y55.749 E-0.16529
G1 X176.558 Y55.708 E-0.03651
G1 X175.897 Y55.434 E-0.16524
G1 X175.760 Y55.355 E-0.03652
G1 X175.331 Y55.025 E-0.12511
G1 E-0.04000 F2100.00000
G1 Z0.800 F10800.000
G1 X133.907 Y77.464
G1 Z0.200
G1 E0.80000 F2100.00000
M73 Q0 S133
G1 F1200.000
G1 X134.003 Y77.806 E0.01115
G1 X134.003 Y110.994 E1.04056
M73 P0 R132
G1 X133.907 Y111.336 E0.01115
G1 X133.737 Y111.557 E0.00874
G1 X133.516 Y111.727 E0.00875
G1 X133.174 Y111.823 E0.01115
G1 X105.626 Y111.823 E0.86372
G1 X105.285 Y111.727 E0.01113
G1 X105.062 Y111.557 E0.00877
G1 X104.893 Y111.336 E0.00874
G1 X104.797 Y110.994 E0.01114
G1 X104.797 Y77.806 E1.04057
G1 X104.893 Y77.464 E0.01114
G1 X105.062 Y77.243 E0.00873
G1 X105.284 Y77.073 E0.00877
G1 X105.626 Y76.977 E0.01113
G1 X133.174 Y76.977 E0.86373
G1 X133.516 Y77.073 E0.01115
G1 X133.737 Y77.243 E0.00875
G1 X133.870 Y77.416 E0.00685
G1 X133.564 Y77.636 F10800.000
G1 F1200.000
G1 X133.626 Y77.858 E0.00724
G1 X133.626 Y110.942 E1.03732
G1 X133.564 Y111.164 E0.00724
G1 X133.468 Y111.288 E0.00490
G1 X133.344 Y111.384 E0.00490
G1 X133.122 Y111.446 E0.00724
G1 X105.678 Y111.446 E0.86048
G1 X105.456 Y111.384 E0.00723
G1 X105.331 Y111.288 E0.00492
G1 X105.237 Y111.164 E0.00490
G1 X105.174 Y110.942 E0.00724
G1 X105.174 Y77.858 E1.03732
G1 X105.237 Y77.636 E0.00724
G1 X105.331 Y77.512 E0.00489
G1 X105.456 Y77.416 E0.00492
G1 X105.678 Y77.354 E0.00723
G1 X133.122 Y77.354 E0.86049
G1 X133.344 Y77.416 E0.00724
G1 X133.468 Y77.512 E0.00491
G1 X133.527 Y77.588 E0.00301
G1 X133.794 Y77.654 F10800.000
G1 F8640.000
G1 X133.626 Y77.858 E-0.06639
G1 X133.626 Y80.862 E-0.69361
G1 E-0.04000 F2100.00000
G1 Z0.800 F10800.000
G1 X168.545 Y45.287
G1 Z0.200
G1 E0.80000 F2100.00000
G1 F1200.000
G1 X168.934 Y45.512 E0.01408
G1 X169.127 Y45.764 E0.00996
G1 X169.223 Y46.106 E0.01114
G1 X169.223 Y52.422 E0.19803
G1 X169.515 Y54.640 E0.07013
G1 X170.341 Y56.634 E0.06767
G1 X171.654 Y58.346 E0.06766
G1 X173.366 Y59.659 E0.06766
G1 X175.360 Y60.485 E0.06767
G1 X177.578 Y60.777 E0.07013
G1 X188.894 Y60.777 E0.35480
G1 X189.275 Y60.884 E0.01241
G1 X189.616 Y61.225 E0.01513
G1 X189.723 Y61.607 E0.01242
G1 X189.713 Y69.145 E0.23636
G1 X189.488 Y69.534 E0.01407
G1 X189.236 Y69.727 E0.00998
G1 X188.894 Y69.823 E0.01114
G1 X61.106 Y69.823 E4.00669
G1 X60.764 Y69.727 E0.01114
G1 X60.543 Y69.558 E0.00874
G1 X60.373 Y69.336 E0.00876
G1 X60.277 Y68.994 E0.01113
G1 X60.277 Y61.606 E0.23163
G1 X60.384 Y61.225 E0.01241
G1 X60.725 Y60.884 E0.01513
G1 X61.106 Y60.777 E0.01241
G1 X72.422 Y60.777 E0.35480
G1 X74.640 Y60.485 E0.07013
G1 X76.634 Y59.659 E0.06767
G1 X78.346 Y58.346 E0.06766
G1 X79.659 Y56.634 E0.06766
G1 X80.485 Y54.640 E0.06767
G1 X80.777 Y52.422 E0.07013
G1 X80.777 Y46.106 E0.19803
G1 X80.873 Y45.764 E0.01114
G1 X81.042 Y45.543 E0.00873
G1 X81.264 Y45.373 E0.00877
G1 X81.606 Y45.277 E0.01113
G1 X168.485 Y45.287 E2.72401
G1 X168.444 Y45.664 F10800.000
G1 F1200.000
G1 X168.680 Y45.801 E0.00856
G1 X168.783 Y45.936 E0.00533
G1 X168.846 Y46.158 E0.00724
G1 X168.846 Y52.447 E0.19718
G1 X169.147 Y54.738 E0.07246
G1 X170.011 Y56.824 E0.07078
G1 X171.385 Y58.615 E0.07078
G1 X173.176 Y59.989 E0.07078
G1 X175.262 Y60.853 E0.07078
G1 X177.553 Y61.154 E0.07246
G1 X188.842 Y61.154 E0.35395
G1 X189.078 Y61.220 E0.00769
G1 X189.280 Y61.422 E0.00893
G1 X189.346 Y61.658 E0.00769
G1 X189.336 Y69.044 E0.23157
G1 X189.199 Y69.280 E0.00855
G1 X189.064 Y69.383 E0.00534
G1 X188.842 Y69.446 E0.00724
G1 X61.158 Y69.446 E4.00344
G1 X60.936 Y69.383 E0.00724
G1 X60.812 Y69.289 E0.00490
G1 X60.716 Y69.164 E0.00491
G1 X60.654 Y68.942 E0.00723
G1 X60.654 Y61.658 E0.22839
G1 X60.720 Y61.422 E0.00769
G1 X60.922 Y61.220 E0.00893
G1 X61.158 Y61.154 E0.00769
G1 X72.447 Y61.154 E0.35395
G1 X74.738 Y60.853 E0.07246
G1 X76.824 Y59.989 E0.07078
G1 X78.615 Y58.615 E0.07078
G1 X79.989 Y56.824 E0.07078
G1 X80.853 Y54.738 E0.07078
G1 X81.154 Y52.447 E0.07246
G1 X81.154 Y46.158 E0.19718
G1 X81.217 Y45.936 E0.00724
G1 X81.311 Y45.812 E0.00489
G1 X81.436 Y45.716 E0.00492
G1 X81.658 Y45.654 E0.00723
G1 X168.384 Y45.664 E2.71923
G1 X168.653 Y45.489 F10800.000
G1 F8640.000
G1 X168.680 Y45.801 E-0.07533
G1 X168.783 Y45.936 E-0.03927
G1 X168.846 Y46.158 E-0.05333
G1 X168.846 Y48.722 E-0.59208
G1 E-0.04000 F2100.00000
G1 Z0.800 F10800.000
G1 X76.219 Y52.396
G1 Z0.200
G1 E0.80000 F2100.00000
G1 F1200.000
G1 X76.219 Y52.604 E0.00651
G1 X76.120 Y53.363 E0.02400
G1 X76.066 Y53.563 E0.00651
G1 X75.773 Y54.270 E0.02398
G1 X75.669 Y54.450 E0.00651
G1 X75.203 Y55.057 E0.02399
G1 X75.057 Y55.203 E0.00651
G1 X74.450 Y55.669 E0.02399
G1 X74.266 Y55.775 E0.00664
G1 X73.440 Y56.103 E0.02788
G1 X72.606 Y56.219 E0.02639
G1 X72.396 Y56.219 E0.00658
G1 X71.637 Y56.120 E0.02400
G1 X71.437 Y56.066 E0.00651
G1 X70.730 Y55.773 E0.02398
G1 X70.550 Y55.669 E0.00651
G1 X69.925 Y55.189 E0.02472
G1 X69.331 Y54.450 E0.02975
G1 X69.227 Y54.270 E0.00651
G1 X68.934 Y53.563 E0.02398
G1 X68.880 Y53.363 E0.00651
G1 X68.781 Y52.604 E0.02400
G1 X68.781 Y52.396 E0.00651
G1 X68.880 Y51.637 E0.02400
G1 X68.934 Y51.437 E0.00651
G1 X69.227 Y50.730 E0.02398
G1 X69.331 Y50.550 E0.00651
G1 X69.797 Y49.943 E0.02399
G1 X69.943 Y49.797 E0.00651
G1 X70.550 Y49.331 E0.02399
G1 X70.734 Y49.225 E0.00664
G1 X71.560 Y48.897 E0.02788
G1 X72.394 Y48.781 E0.02639
G1 X72.604 Y48.781 E0.00658
G1 X73.363 Y48.880 E0.02400
G1 X73.563 Y48.934 E0.00651
G1 X74.270 Y49.227 E0.02398
G1 X74.450 Y49.331 E0.00651
G1 X75.075 Y49.811 E0.02472
G1 X75.669 Y50.550 E0.02975
G1 X75.773 Y50.730 E0.00651
G1 X76.066 Y51.437 E0.02398
G1 X76.120 Y51.637 E0.00651
G1 X76.212 Y52.337 E0.02212
G1 X75.838 Y52.386 F10800.000
G1 F1200.000
G1 X75.842 Y52.579 E0.00606
G1 X75.749 Y53.289 E0.02245
G1 X75.708 Y53.442 E0.00496
G1 X75.434 Y54.103 E0.02244
G1 X75.355 Y54.240 E0.00496
G1 X74.919 Y54.807 E0.02244
G1 X74.807 Y54.919 E0.00496
G1 X74.240 Y55.355 E0.02244
G1 X74.101 Y55.435 E0.00501
G1 X73.343 Y55.736 E0.02559
G1 X72.580 Y55.842 E0.02415
G1 X72.421 Y55.842 E0.00498
G1 X71.711 Y55.749 E0.02245
G1 X71.558 Y55.708 E0.00496
G1 X70.897 Y55.434 E0.02244
G1 X70.760 Y55.355 E0.00496
G1 X70.186 Y54.914 E0.02270
G1 X69.645 Y54.240 E0.02711
G1 X69.566 Y54.103 E0.00496
G1 X69.292 Y53.442 E0.02244
G1 X69.251 Y53.289 E0.00496
G1 X69.158 Y52.579 E0.02245
G1 X69.158 Y52.421 E0.00496
G1 X69.251 Y51.711 E0.02245
G1 X69.292 Y51.558 E0.00496
G1 X69.566 Y50.897 E0.02244
G1 X69.645 Y50.760 E0.00496
G1 X70.081 Y50.193 E0.02244
G1 X70.193 Y50.081 E0.00496
G1 X70.760 Y49.645 E0.02244
G1 X70.899 Y49.565 E0.00501
G1 X71.657 Y49.264 E0.02559
G1 X72.420 Y49.158 E0.02415
G1 X72.579 Y49.158 E0.00498
G1 X73.289 Y49.251 E0.02245
G1 X73.442 Y49.292 E0.00496
G1 X74.103 Y49.566 E0.02244
G1 X74.240 Y49.645 E0.00496
G1 X74.814 Y50.086 E0.02270
G1 X75.355 Y50.760 E0.02711
G1 X75.434 Y50.897 E0.00496
G1 X75.708 Y51.558 E0.02244
G1 X75.749 Y51.711 E0.00496
G1 X75.830 Y52.326 E0.01946
G1 X76.011 Y52.471 F10800.000
G1 F8640.000
G1 X75.842 Y52.579 E-0.05840
G1 X75.749 Y53.289 E-0.16529
G1 X75.708 Y53.442 E-0.03651
G1 X75.434 Y54.103 E-0.16524
G1 X75.355 Y54.240 E-0.03652
G1 X74.919 Y54.807 E-0.16527
G1 X74.807 Y54.919 E-0.03651
G1 X74.477 Y55.173 E-0.09627
G1 E-0.04000 F2100.00000
G1 Z0.800 F10800.000
G1 X74.724 Y77.073
G1 Z0.200
G1 E0.80000 F2100.00000
G1 F1200.000
G1 X75.066 Y76.977 E0.01115
G1 X102.614 Y76.977 E0.86373
G1 X102.956 Y77.073 E0.01113
G1 X103.178 Y77.243 E0.00877
G1 X103.347 Y77.464 E0.00873
G1 X103.443 Y77.806 E0.01114
G1 X103.443 Y110.994 E1.04057
G1 X103.347 Y111.336 E0.01114
G1 X103.178 Y111.557 E0.00874
G1 X102.955 Y111.727 E0.00877
G1 X102.614 Y111.823 E0.01113
G1 X75.066 Y111.823 E0.86372
