; generated by PrusaSlicer 2.3.3 on 2021-11-24 at 03:31:28 UTC

; 

; external perimeters extrusion width = 0.65mm
; perimeters extrusion width = 0.65mm
; infill extrusion width = 0.65mm
; solid infill extrusion width = 0.65mm
; top infill extrusion width = 0.60mm
; first layer extrusion width = 0.65mm

M73 P0 R132
M73 Q0 S134
M201 X1000 Y1000 Z200 E5000 ; sets maximum accelerations, mm/sec^2
M203 X200 Y200 Z12 E120 ; sets maximum feedrates, mm/sec
M204 P1250 R1250 T1250 ; sets acceleration (P, T) and retract acceleration (R), mm/sec^2
M205 X8.00 Y8.00 Z0.40 E4.50 ; sets the jerk limits, mm/sec
M205 S0 T0 ; sets the minimum extruding and travel feed rate, mm/sec
M107
;TYPE:Custom
M862.3 P "MK3S" ; printer model check
M862.1 P0.6 ; nozzle diameter check
M115 U3.10.0 ; tell printer latest fw version
G90 ; use absolute coordinates
M83 ; extruder relative mode
M104 S235 ; set extruder temp
M140 S85 ; set bed temp
M190 S85 ; wait for bed temp
M109 S235 ; wait for extruder temp
G28 W ; home all without mesh bed level
G80 ; mesh bed leveling
G1 Y-3.0 F1000.0 ; go outside print area
G92 E0.0
G1 X60.0 E9.0 F1000.0 ; intro line
G1 X100.0 E12.5 F1000.0 ; intro line
G92 E0.0
M221 S95
G21 ; set units to millimeters
G90 ; use absolute coordinates
M83 ; use relative distances for extrusion
M900 K0.04 ; Filament gcode LA 1.5
M900 K24 ; Filament gcode LA 1.0
;LAYER_CHANGE
;Z:0.3
;HEIGHT:0.3
;BEFORE_LAYER_CHANGE
G92 E0.0
;0.3


M73 Q0 S133
G1 E-1.20000 F2100.000
G1 Z0.400 F10800.000
;AFTER_LAYER_CHANGE
;0.3
G1 X24.650 Y18.826
G1 Z0.300
G1 E1.20000 F2100.000
M204 S1000
;TYPE:Skirt
;WIDTH:0.65
G1 F1200.000
G1 X25.541 Y18.664 E0.06611
G1 X224.454 Y18.664 E14.52897
G1 X225.437 Y18.860 E0.07323
G1 X226.272 Y19.416 E0.07323
G1 X226.833 Y20.247 E0.07323
G1 X227.035 Y21.225 E0.07295
G1 X227.036 Y188.762 E12.23720
G1 X226.974 Y189.310 E0.04026
G1 X226.797 Y189.836 E0.04054
G1 X226.511 Y190.311 E0.04054
G1 X226.130 Y190.715 E0.04054
G1 X225.350 Y191.174 E0.06611
G1 X224.459 Y191.336 E0.06611
G1 X25.546 Y191.336 E14.52897
G1 X24.994 Y191.275 E0.04054
G1 X24.464 Y191.097 E0.04083
G1 X23.989 Y190.811 E0.04054
G1 X23.585 Y190.430 E0.04054
G1 X23.126 Y189.650 E0.06611
G1 X22.964 Y188.759 E0.06611
G1 X22.964 Y21.246 E12.23546
M73 P0 R131
G1 X23.025 Y20.694 E0.04054
G1 X23.203 Y20.164 E0.04083
G1 X23.489 Y19.689 E0.04054
G1 X23.870 Y19.285 E0.04054
G1 X24.572 Y18.872 E0.05953
; printing object wall_x3.stl id:0 copy 0
;WIPE_START
G1 F8640.000
G1 X25.541 Y18.664 E-0.22860
G1 X29.488 Y18.664 E-0.91140
;WIPE_END
G1 E-0.06000 F2100.000
G1 Z0.700 F10800.000
G1 X206.234 Y175.006
G1 Z0.300
G1 E1.20000 F2100.000
;TYPE:Perimeter
G1 F1200.000
G1 X206.514 Y174.689 E0.03093
G1 X206.824 Y174.401 E0.03089
G1 X207.161 Y174.145 E0.03091
G1 X207.521 Y173.923 E0.03090
G1 X207.901 Y173.737 E0.03091
G1 X208.298 Y173.590 E0.03091
G1 X208.707 Y173.482 E0.03088
G1 X209.125 Y173.415 E0.03090
G1 X209.547 Y173.389 E0.03091
G1 X209.970 Y173.404 E0.03091
G1 X210.389 Y173.461 E0.03091
G1 X210.801 Y173.559 E0.03091
G1 X211.201 Y173.697 E0.03092
G1 X211.586 Y173.873 E0.03090
G1 X211.951 Y174.086 E0.03089
G1 X212.294 Y174.334 E0.03090
G1 X212.611 Y174.614 E0.03093
G1 X212.899 Y174.924 E0.03090
G1 X213.156 Y175.261 E0.03092
G1 X213.377 Y175.621 E0.03090
G1 X213.563 Y176.001 E0.03091
G1 X213.710 Y176.398 E0.03091
G1 X213.818 Y176.807 E0.03088
G1 X213.885 Y177.225 E0.03090
G1 X213.911 Y177.647 E0.03091
G1 X213.896 Y178.070 E0.03091
G1 X213.839 Y178.489 E0.03091
G1 X213.741 Y178.901 E0.03092
G1 X213.603 Y179.301 E0.03092
G1 X213.427 Y179.686 E0.03089
G1 X213.214 Y180.051 E0.03089
G1 X212.966 Y180.394 E0.03090
G1 X212.686 Y180.711 E0.03093
G1 X212.376 Y180.999 E0.03090
G1 X212.039 Y181.255 E0.03091
G1 X211.679 Y181.477 E0.03090
G1 X211.299 Y181.663 E0.03091
G1 X210.902 Y181.810 E0.03091
G1 X210.493 Y181.918 E0.03090
G1 X210.075 Y181.985 E0.03088
G1 X209.653 Y182.011 E0.03091
G1 X209.230 Y181.996 E0.03092
G1 X208.811 Y181.939 E0.03090
G1 X208.399 Y181.841 E0.03092
G1 X207.999 Y181.703 E0.03091
G1 X207.614 Y181.527 E0.03090
G1 X207.249 Y181.314 E0.03088
G1 X206.906 Y181.066 E0.03092
G1 X206.589 Y180.786 E0.03093
G1 X206.301 Y180.476 E0.03090
G1 X206.044 Y180.139 E0.03091
G1 X205.823 Y179.779 E0.03090
G1 X205.637 Y179.399 E0.03091
G1 X205.490 Y179.002 E0.03091
G1 X205.382 Y178.593 E0.03088
G1 X205.315 Y178.175 E0.03090
G1 X205.289 Y177.753 E0.03091
G1 X205.304 Y177.330 E0.03092
G1 X205.361 Y176.911 E0.03090
G1 X205.459 Y176.499 E0.03091
G1 X205.597 Y176.099 E0.03092
G1 X205.773 Y175.714 E0.03090
G1 X205.986 Y175.349 E0.03088
G1 X206.181 Y175.079 E0.02434
G1 X206.656 Y175.422 F10800.000
;TYPE:External perimeter
G1 F1200.000
G1 X206.934 Y175.098 E0.03116
G1 X207.202 Y174.849 E0.02669
G1 X207.493 Y174.628 E0.02671
G1 X207.804 Y174.436 E0.02670
G1 X208.132 Y174.276 E0.02671
G1 X208.475 Y174.149 E0.02670
G1 X208.828 Y174.055 E0.02668
G1 X209.189 Y173.997 E0.02670
G1 X209.554 Y173.975 E0.02671
G1 X209.920 Y173.988 E0.02671
G1 X210.282 Y174.038 E0.02672
G1 X210.638 Y174.122 E0.02671
G1 X210.983 Y174.241 E0.02671
G1 X211.316 Y174.393 E0.02670
G1 X211.631 Y174.577 E0.02669
G1 X211.928 Y174.791 E0.02670
G1 X212.202 Y175.034 E0.02672
G1 X212.451 Y175.302 E0.02670
G1 X212.672 Y175.593 E0.02671
G1 X212.864 Y175.904 E0.02670
G1 X213.024 Y176.232 E0.02670
G1 X213.151 Y176.575 E0.02671
G1 X213.245 Y176.928 E0.02668
G1 X213.303 Y177.289 E0.02671
G1 X213.325 Y177.654 E0.02670
G1 X213.312 Y178.019 E0.02670
G1 X213.262 Y178.382 E0.02671
G1 X213.178 Y178.738 E0.02671
G1 X213.059 Y179.083 E0.02671
G1 X212.907 Y179.416 E0.02670
G1 X212.723 Y179.731 E0.02669
G1 X212.509 Y180.028 E0.02670
G1 X212.266 Y180.302 E0.02672
G1 X211.998 Y180.551 E0.02670
G1 X211.707 Y180.772 E0.02671
G1 X211.396 Y180.964 E0.02670
G1 X211.068 Y181.124 E0.02671
G1 X210.725 Y181.251 E0.02671
G1 X210.371 Y181.345 E0.02670
G1 X210.011 Y181.403 E0.02669
G1 X209.646 Y181.425 E0.02670
G1 X209.280 Y181.412 E0.02671
G1 X208.918 Y181.362 E0.02671
G1 X208.562 Y181.278 E0.02671
G1 X208.217 Y181.159 E0.02671
G1 X207.884 Y181.007 E0.02670
G1 X207.569 Y180.823 E0.02669
G1 X207.272 Y180.609 E0.02671
G1 X206.998 Y180.366 E0.02672
G1 X206.749 Y180.098 E0.02670
G1 X206.528 Y179.807 E0.02671
G1 X206.336 Y179.496 E0.02670
G1 X206.176 Y179.168 E0.02670
G1 X206.049 Y178.825 E0.02670
G1 X205.955 Y178.472 E0.02669
G1 X205.897 Y178.111 E0.02670
G1 X205.875 Y177.746 E0.02670
G1 X205.888 Y177.380 E0.02671
G1 X205.938 Y177.018 E0.02671
G1 X206.022 Y176.662 E0.02671
G1 X206.141 Y176.317 E0.02671
G1 X206.293 Y175.984 E0.02670
G1 X206.477 Y175.669 E0.02669
G1 X206.603 Y175.495 E0.01567
G1 X206.496 Y175.026 F10800.000
;WIPE_START
G1 F8640.000
G1 X206.934 Y175.098 E-0.11924
G1 X207.202 Y174.849 E-0.08439
G1 X207.493 Y174.628 E-0.08443
G1 X207.804 Y174.436 E-0.08440
G1 X208.132 Y174.276 E-0.08442
G1 X208.475 Y174.149 E-0.08442
G1 X208.828 Y174.055 E-0.08435
G1 X209.189 Y173.997 E-0.08441
G1 X209.554 Y173.975 E-0.08442
G1 X209.920 Y173.988 E-0.08442
G1 X210.282 Y174.038 E-0.08445
G1 X210.638 Y174.122 E-0.08443
G1 X210.983 Y174.241 E-0.08443
G1 X211.014 Y174.255 E-0.00778
;WIPE_END
G1 E-0.06000 F2100.000
G1 Z0.700 F10800.000
G1 X209.653 Y36.611
G1 Z0.300
G1 E1.20000 F2100.000
;TYPE:Perimeter
G1 F1200.000
G1 X209.230 Y36.596 E0.03092
G1 X208.811 Y36.539 E0.03090
G1 X208.399 Y36.441 E0.03091
G1 X207.999 Y36.303 E0.03092
G1 X207.614 Y36.127 E0.03090
G1 X207.249 Y35.914 E0.03088
G1 X206.906 Y35.666 E0.03092
G1 X206.589 Y35.386 E0.03093
G1 X206.301 Y35.076 E0.03090
G1 X206.044 Y34.739 E0.03091
G1 X205.823 Y34.379 E0.03090
G1 X205.637 Y33.999 E0.03091
G1 X205.490 Y33.602 E0.03091
G1 X205.382 Y33.193 E0.03088
G1 X205.315 Y32.775 E0.03090
G1 X205.289 Y32.353 E0.03091
G1 X205.304 Y31.930 E0.03092
G1 X205.361 Y31.511 E0.03091
G1 X205.459 Y31.099 E0.03091
G1 X205.597 Y30.699 E0.03092
G1 X205.773 Y30.314 E0.03090
G1 X205.986 Y29.949 E0.03089
G1 X206.234 Y29.606 E0.03090
G1 X206.514 Y29.289 E0.03093
G1 X206.824 Y29.001 E0.03090
G1 X207.161 Y28.745 E0.03091
G1 X207.521 Y28.523 E0.03090
G1 X207.901 Y28.337 E0.03091
G1 X208.298 Y28.190 E0.03091
G1 X208.707 Y28.082 E0.03090
G1 X209.125 Y28.015 E0.03088
G1 X209.547 Y27.989 E0.03091
G1 X209.970 Y28.004 E0.03091
G1 X210.389 Y28.061 E0.03091
G1 X210.801 Y28.159 E0.03092
G1 X211.201 Y28.297 E0.03092
G1 X211.586 Y28.473 E0.03090
G1 X211.951 Y28.686 E0.03089
G1 X212.294 Y28.934 E0.03090
G1 X212.611 Y29.214 E0.03093
G1 X212.899 Y29.524 E0.03090
G1 X213.156 Y29.861 E0.03092
G1 X213.377 Y30.221 E0.03090
G1 X213.563 Y30.601 E0.03091
G1 X213.710 Y30.998 E0.03091
G1 X213.818 Y31.407 E0.03088
G1 X213.885 Y31.825 E0.03090
G1 X213.911 Y32.247 E0.03091
G1 X213.896 Y32.670 E0.03092
G1 X213.839 Y33.089 E0.03090
G1 X213.741 Y33.501 E0.03092
G1 X213.603 Y33.901 E0.03092
G1 X213.427 Y34.286 E0.03090
G1 X213.214 Y34.651 E0.03088
G1 X212.966 Y34.994 E0.03092
G1 X212.686 Y35.311 E0.03093
G1 X212.376 Y35.599 E0.03089
G1 X212.039 Y35.855 E0.03091
G1 X211.679 Y36.077 E0.03090
G1 X211.299 Y36.263 E0.03091
G1 X210.902 Y36.410 E0.03091
G1 X210.493 Y36.518 E0.03088
G1 X210.075 Y36.585 E0.03090
G1 X209.743 Y36.606 E0.02434
G1 X209.707 Y36.021 F10800.000
;TYPE:External perimeter
G1 F1200.000
G1 X209.280 Y36.012 E0.03116
G1 X208.918 Y35.962 E0.02671
G1 X208.562 Y35.878 E0.02671
G1 X208.217 Y35.759 E0.02671
G1 X207.884 Y35.607 E0.02670
G1 X207.569 Y35.423 E0.02669
G1 X207.272 Y35.209 E0.02671
G1 X206.998 Y34.966 E0.02672
G1 X206.749 Y34.698 E0.02670
G1 X206.528 Y34.407 E0.02671
G1 X206.336 Y34.096 E0.02670
G1 X206.176 Y33.768 E0.02670
G1 X206.049 Y33.425 E0.02670
G1 X205.955 Y33.072 E0.02668
G1 X205.897 Y32.711 E0.02670
G1 X205.875 Y32.346 E0.02671
G1 X205.888 Y31.980 E0.02671
G1 X205.938 Y31.618 E0.02671
G1 X206.022 Y31.262 E0.02671
G1 X206.141 Y30.917 E0.02671
G1 X206.293 Y30.584 E0.02670
G1 X206.477 Y30.269 E0.02669
G1 X206.691 Y29.972 E0.02670
G1 X206.934 Y29.698 E0.02673
G1 X207.202 Y29.449 E0.02670
G1 X207.493 Y29.228 E0.02671
G1 X207.804 Y29.036 E0.02670
G1 X208.132 Y28.876 E0.02671
G1 X208.475 Y28.749 E0.02671
G1 X208.829 Y28.655 E0.02670
G1 X209.189 Y28.597 E0.02669
G1 X209.554 Y28.575 E0.02670
G1 X209.919 Y28.588 E0.02670
G1 X210.282 Y28.638 E0.02671
G1 X210.638 Y28.722 E0.02671
G1 X210.983 Y28.841 E0.02671
G1 X211.316 Y28.993 E0.02670
G1 X211.631 Y29.177 E0.02669
G1 X211.928 Y29.391 E0.02670
G1 X212.202 Y29.634 E0.02672
G1 X212.451 Y29.902 E0.02670
G1 X212.672 Y30.193 E0.02671
G1 X212.864 Y30.504 E0.02670
G1 X213.024 Y30.832 E0.02670
G1 X213.151 Y31.175 E0.02671
G1 X213.245 Y31.528 E0.02668
G1 X213.303 Y31.889 E0.02671
G1 X213.325 Y32.254 E0.02670
G1 X213.312 Y32.620 E0.02671
G1 X213.262 Y32.982 E0.02671
G1 X213.178 Y33.338 E0.02671
G1 X213.059 Y33.683 E0.02671
G1 X212.907 Y34.016 E0.02670
G1 X212.723 Y34.331 E0.02669
G1 X212.509 Y34.628 E0.02671
G1 X212.266 Y34.902 E0.02672
G1 X211.998 Y35.151 E0.02670
G1 X211.707 Y35.372 E0.02671
G1 X211.396 Y35.564 E0.02670
G1 X211.068 Y35.724 E0.02671
G1 X210.725 Y35.851 E0.02670
G1 X210.372 Y35.945 E0.02668
G1 X210.011 Y36.003 E0.02670
G1 X209.797 Y36.016 E0.01567
G1 X209.502 Y36.396 F10800.000
;WIPE_START
G1 F8640.000
G1 X209.280 Y36.012 E-0.11923
G1 X208.918 Y35.962 E-0.08443
G1 X208.562 Y35.878 E-0.08443
G1 X208.217 Y35.759 E-0.08442
G1 X207.884 Y35.607 E-0.08440
G1 X207.569 Y35.423 E-0.08437
G1 X207.272 Y35.209 E-0.08442
G1 X206.998 Y34.966 E-0.08448
G1 X206.749 Y34.698 E-0.08440
G1 X206.528 Y34.407 E-0.08444
G1 X206.336 Y34.096 E-0.08440
G1 X206.176 Y33.768 E-0.08442
G1 X206.049 Y33.425 E-0.08442
G1 X206.040 Y33.393 E-0.00775
;WIPE_END
G1 E-0.06000 F2100.000
G1 Z0.700 F10800.000
G1 X44.711 Y32.247
G1 Z0.300
G1 E1.20000 F2100.000
;TYPE:Perimeter
G1 F1200.000
G1 X44.696 Y32.670 E0.03092
G1 X44.639 Y33.089 E0.03090
G1 X44.541 Y33.501 E0.03091
G1 X44.403 Y33.901 E0.03092
G1 X44.227 Y34.286 E0.03090
G1 X44.014 Y34.651 E0.03088
G1 X43.766 Y34.994 E0.03091
G1 X43.486 Y35.311 E0.03093
G1 X43.176 Y35.599 E0.03089
G1 X42.839 Y35.855 E0.03091
G1 X42.479 Y36.077 E0.03090
G1 X42.099 Y36.263 E0.03091
G1 X41.702 Y36.410 E0.03091
G1 X41.293 Y36.518 E0.03088
G1 X40.875 Y36.585 E0.03090
G1 X40.453 Y36.611 E0.03091
G1 X40.030 Y36.596 E0.03091
G1 X39.611 Y36.539 E0.03091
G1 X39.199 Y36.441 E0.03091
G1 X38.799 Y36.303 E0.03092
G1 X38.414 Y36.127 E0.03090
G1 X38.049 Y35.914 E0.03089
G1 X37.706 Y35.666 E0.03090
G1 X37.389 Y35.386 E0.03093
G1 X37.101 Y35.076 E0.03090
G1 X36.844 Y34.739 E0.03092
G1 X36.623 Y34.379 E0.03090
G1 X36.437 Y33.999 E0.03091
G1 X36.290 Y33.602 E0.03091
G1 X36.182 Y33.193 E0.03088
G1 X36.115 Y32.775 E0.03090
G1 X36.089 Y32.353 E0.03091
G1 X36.104 Y31.930 E0.03091
G1 X36.161 Y31.511 E0.03091
G1 X36.259 Y31.099 E0.03092
G1 X36.397 Y30.699 E0.03092
G1 X36.573 Y30.314 E0.03089
G1 X36.786 Y29.949 E0.03089
G1 X37.034 Y29.606 E0.03090
G1 X37.314 Y29.289 E0.03093
G1 X37.624 Y29.001 E0.03090
G1 X37.961 Y28.745 E0.03091
G1 X38.321 Y28.523 E0.03090
G1 X38.701 Y28.337 E0.03091
G1 X39.098 Y28.190 E0.03091
G1 X39.507 Y28.082 E0.03090
G1 X39.925 Y28.015 E0.03088
G1 X40.347 Y27.989 E0.03091
G1 X40.770 Y28.004 E0.03092
G1 X41.189 Y28.061 E0.03090
G1 X41.601 Y28.159 E0.03092
G1 X42.001 Y28.297 E0.03091
G1 X42.386 Y28.473 E0.03090
G1 X42.751 Y28.686 E0.03088
G1 X43.094 Y28.934 E0.03092
G1 X43.411 Y29.214 E0.03093
G1 X43.699 Y29.524 E0.03090
G1 X43.956 Y29.861 E0.03091
G1 X44.177 Y30.221 E0.03090
G1 X44.363 Y30.601 E0.03091
G1 X44.510 Y30.998 E0.03091
G1 X44.618 Y31.407 E0.03088
G1 X44.685 Y31.825 E0.03090
G1 X44.706 Y32.157 E0.02434
G1 X44.121 Y32.193 F10800.000
;TYPE:External perimeter
G1 F1200.000
G1 X44.112 Y32.620 E0.03116
G1 X44.062 Y32.982 E0.02671
G1 X43.978 Y33.338 E0.02671
G1 X43.859 Y33.683 E0.02671
G1 X43.707 Y34.016 E0.02670
G1 X43.523 Y34.331 E0.02669
G1 X43.309 Y34.628 E0.02670
G1 X43.066 Y34.902 E0.02672
G1 X42.798 Y35.151 E0.02669
G1 X42.507 Y35.372 E0.02671
G1 X42.196 Y35.564 E0.02670
G1 X41.868 Y35.724 E0.02671
G1 X41.525 Y35.851 E0.02670
G1 X41.172 Y35.945 E0.02668
G1 X40.811 Y36.003 E0.02670
G1 X40.446 Y36.025 E0.02671
G1 X40.080 Y36.012 E0.02671
G1 X39.718 Y35.962 E0.02672
G1 X39.362 Y35.878 E0.02671
G1 X39.017 Y35.759 E0.02671
G1 X38.684 Y35.607 E0.02670
G1 X38.369 Y35.423 E0.02669
G1 X38.072 Y35.209 E0.02670
G1 X37.798 Y34.966 E0.02672
G1 X37.549 Y34.698 E0.02670
G1 X37.328 Y34.407 E0.02671
G1 X37.136 Y34.096 E0.02670
G1 X36.976 Y33.768 E0.02670
G1 X36.849 Y33.425 E0.02671
G1 X36.755 Y33.072 E0.02668
G1 X36.697 Y32.711 E0.02671
G1 X36.675 Y32.346 E0.02670
G1 X36.688 Y31.981 E0.02670
G1 X36.738 Y31.618 E0.02671
G1 X36.822 Y31.262 E0.02671
G1 X36.941 Y30.917 E0.02671
G1 X37.093 Y30.584 E0.02670
G1 X37.277 Y30.269 E0.02669
G1 X37.491 Y29.972 E0.02670
G1 X37.734 Y29.698 E0.02672
G1 X38.002 Y29.449 E0.02670
G1 X38.293 Y29.228 E0.02671
G1 X38.604 Y29.036 E0.02670
G1 X38.932 Y28.876 E0.02671
G1 X39.275 Y28.749 E0.02671
G1 X39.629 Y28.655 E0.02670
G1 X39.989 Y28.597 E0.02669
G1 X40.354 Y28.575 E0.02670
G1 X40.720 Y28.588 E0.02671
G1 X41.082 Y28.638 E0.02671
G1 X41.438 Y28.722 E0.02671
G1 X41.783 Y28.841 E0.02671
G1 X42.116 Y28.993 E0.02670
G1 X42.431 Y29.177 E0.02669
G1 X42.728 Y29.391 E0.02671
G1 X43.002 Y29.634 E0.02672
G1 X43.251 Y29.902 E0.02670
G1 X43.472 Y30.193 E0.02671
G1 X43.664 Y30.504 E0.02670
G1 X43.824 Y30.832 E0.02670
G1 X43.951 Y31.175 E0.02670
G1 X44.045 Y31.528 E0.02669
G1 X44.103 Y31.889 E0.02670
G1 X44.116 Y32.103 E0.01566
G1 X44.496 Y32.398 F10800.000
;WIPE_START
G1 F8640.000
G1 X44.112 Y32.620 E-0.11923
G1 X44.062 Y32.982 E-0.08443
G1 X43.978 Y33.338 E-0.08443
G1 X43.859 Y33.683 E-0.08442
G1 X43.707 Y34.016 E-0.08441
G1 X43.523 Y34.331 E-0.08437
G1 X43.309 Y34.628 E-0.08442
G1 X43.066 Y34.902 E-0.08448
G1 X42.798 Y35.151 E-0.08439
G1 X42.507 Y35.372 E-0.08443
G1 X42.196 Y35.564 E-0.08440
G1 X41.868 Y35.724 E-0.08442
G1 X41.525 Y35.851 E-0.08442
G1 X41.493 Y35.860 E-0.00774
;WIPE_END
G1 E-0.06000 F2100.000
G1 Z0.700 F10800.000
G1 X41.891 Y41.131
G1 Z0.300
G1 E1.20000 F2100.000
;TYPE:Perimeter
G1 F1200.000
G1 X44.182 Y45.100 E0.33471
G1 X42.630 Y47.789 E0.22683
G1 X207.370 Y47.789 E12.03293
M73 Q0 S132
G1 X205.818 Y45.100 E0.22683
G1 X208.109 Y41.131 E0.33471
